; Generated with MatterSlice 1.0
; filamentDiameter = 1.75
; extrusionWidth = 0.5
; firstLayerExtrusionWidth = 0.4
; layerThickness = 0.3
; firstLayerThickness = 0.3
; automatic settings before start_gcode
G21 ; set units to millimeters
M107 ; fan off
T0 ; set the active extruder to 0
; settings from start_gcode
M104 S210
M190 S60
M109 S210
G28
; automatic settings after start_gcode
T0 ; set the active extruder to 0
G90 ; use absolute coordinates
G92 E0 ; reset the expected extruder position
M82 ; use absolute distance for extrusion
; Layer count: 167
; LAYER:0
M107
G0 F6000 X99.335 Y74.24 Z0.3
; TYPE:SKIRT
G1 Z0.3
G1 F6600 E0
G1 F720 X-99.333 Y74.24 E9.91159
G1 X-99.333 Y-74.239 E17.31923
G1 X99.335 Y-74.239 E27.23077
G1 X99.335 Y74.24 E34.63837
G0 F6000 X98.935 Y73.84
G1 F720 X-98.933 Y73.84 E44.51004
G1 X-98.933 Y-73.839 E51.87778
G1 X98.935 Y-73.839 E61.7494
G1 X98.935 Y73.84 E69.11709
G0 F6000 X95.535 Y70.44
; TYPE:WALL-OUTER
G1 F720 X-95.533 Y70.44 E78.64951
G1 X-95.533 Y-70.439 E85.67799
G1 X95.535 Y-70.439 E95.21036
G1 X95.535 Y70.44 E102.23879
G0 F6000 X95.135 Y70.04
; TYPE:WALL-INNER
G1 F720 X-95.133 Y70.04 E111.7313
G1 X-95.133 Y-70.039 E118.71987
G1 X95.135 Y-70.039 E128.21233
G1 X95.135 Y70.04 E135.20085
G0 F6000 X94.995 Y69.6
; TYPE:FILL
G1 F720 X-94.993 Y69.6 E144.67939
G0 F6000 X-94.993 Y69.2
G1 F720 X94.995 Y69.2 E154.15788
G0 F6000 X94.995 Y68.8
G1 F720 X-94.993 Y68.8 E163.63642
G0 F6000 X-94.993 Y68.4
G1 F720 X94.995 Y68.4 E173.11491
G0 F6000 X94.995 Y68
G1 F720 X-94.993 Y68 E182.59345
G0 F6000 X-94.993 Y67.6
G1 F720 X94.995 Y67.6 E192.07194
G0 F6000 X94.995 Y67.2
G1 F720 X-94.993 Y67.2 E201.55048
G0 F6000 X-94.993 Y66.8
G1 F720 X94.995 Y66.8 E211.02897
G0 F6000 X94.995 Y66.4
G1 F720 X-94.993 Y66.4 E220.50751
G0 F6000 X-94.993 Y66
G1 F720 X94.995 Y66 E229.986
G0 F6000 X94.995 Y65.6
G1 F720 X-94.993 Y65.6 E239.46454
G0 F6000 X-94.993 Y65.2
G1 F720 X94.995 Y65.199 E248.94303
G0 F6000 X94.995 Y64.799
G1 F720 X-94.993 Y64.8 E258.42157
G0 F6000 X-94.993 Y64.4
G1 F720 X94.995 Y64.399 E267.90006
G0 F6000 X94.995 Y63.999
G1 F720 X-94.993 Y64 E277.3786
G0 F6000 X-94.993 Y63.6
G1 F720 X94.995 Y63.599 E286.85709
G0 F6000 X94.995 Y63.199
G1 F720 X-94.993 Y63.2 E296.33563
G0 F6000 X-94.993 Y62.8
G1 F720 X94.995 Y62.799 E305.81412
G0 F6000 X94.995 Y62.399
G1 F720 X-94.993 Y62.4 E315.29266
G0 F6000 X-94.993 Y62
G1 F720 X94.995 Y61.999 E324.77115
G0 F6000 X94.995 Y61.599
G1 F720 X-94.993 Y61.6 E334.24969
G0 F6000 X-94.993 Y61.2
G1 F720 X94.995 Y61.199 E343.72818
G0 F6000 X94.995 Y60.799
G1 F720 X-94.993 Y60.8 E353.20672
G0 F6000 X-94.993 Y60.4
G1 F720 X94.995 Y60.399 E362.68521
G0 F6000 X94.995 Y59.999
G1 F720 X-94.993 Y60 E372.16375
G0 F6000 X-94.993 Y59.6
G1 F720 X94.995 Y59.599 E381.64224
G0 F6000 X94.995 Y59.199
G1 F720 X-94.993 Y59.2 E391.12078
G0 F6000 X-94.993 Y58.8
G1 F720 X94.995 Y58.799 E400.59927
G0 F6000 X94.995 Y58.399
G1 F720 X-94.993 Y58.4 E410.07781
G0 F6000 X-94.993 Y58
G1 F720 X94.995 Y57.999 E419.5563
G0 F6000 X94.995 Y57.599
G1 F720 X-94.993 Y57.6 E429.03484
G0 F6000 X-94.993 Y57.2
G1 F720 X94.995 Y57.199 E438.51333
G0 F6000 X94.995 Y56.799
G1 F720 X-94.993 Y56.8 E447.99187
G0 F6000 X-94.993 Y56.4
G1 F720 X94.995 Y56.399 E457.47036
G0 F6000 X94.995 Y55.999
G1 F720 X-94.993 Y56 E466.9489
G0 F6000 X-94.993 Y55.6
G1 F720 X94.995 Y55.599 E476.42739
G0 F6000 X94.995 Y55.199
G1 F720 X-94.993 Y55.2 E485.90593
G0 F6000 X-94.993 Y54.8
G1 F720 X94.995 Y54.799 E495.38442
G0 F6000 X94.995 Y54.399
G1 F720 X-94.993 Y54.4 E504.86296
G0 F6000 X-94.993 Y54
G1 F720 X94.995 Y53.999 E514.34145
G0 F6000 X94.995 Y53.599
G1 F720 X-94.993 Y53.6 E523.81999
G0 F6000 X-94.993 Y53.2
G1 F720 X94.995 Y53.199 E533.29848
G0 F6000 X94.995 Y52.799
G1 F720 X-94.993 Y52.8 E542.77702
G0 F6000 X-94.993 Y52.4
G1 F720 X94.995 Y52.399 E552.25551
G0 F6000 X94.995 Y51.999
G1 F720 X-94.993 Y52 E561.73405
G0 F6000 X-94.993 Y51.6
G1 F720 X94.995 Y51.599 E571.21254
G0 F6000 X94.995 Y51.199
G1 F720 X-94.993 Y51.2 E580.69108
G0 F6000 X-94.993 Y50.8
G1 F720 X94.995 Y50.799 E590.16957
G0 F6000 X94.995 Y50.399
G1 F720 X-94.993 Y50.4 E599.64811
G0 F6000 X-94.993 Y50
G1 F720 X94.995 Y49.999 E609.1266
G0 F6000 X94.995 Y49.599
G1 F720 X-94.993 Y49.6 E618.60514
G0 F6000 X-94.993 Y49.2
G1 F720 X94.995 Y49.199 E628.08363
G0 F6000 X94.995 Y48.799
G1 F720 X-94.993 Y48.8 E637.56217
G0 F6000 X-94.993 Y48.4
G1 F720 X94.995 Y48.399 E647.04065
G0 F6000 X94.995 Y47.999
G1 F720 X-94.993 Y48 E656.51919
G0 F6000 X-94.993 Y47.6
G1 F720 X94.995 Y47.599 E665.99768
G0 F6000 X94.995 Y47.199
G1 F720 X-94.993 Y47.2 E675.47622
G0 F6000 X-94.993 Y46.8
G1 F720 X94.995 Y46.799 E684.95471
G0 F6000 X94.995 Y46.399
G1 F720 X-94.993 Y46.4 E694.43325
G0 F6000 X-94.993 Y46
G1 F720 X94.995 Y45.999 E703.91174
G0 F6000 X94.995 Y45.599
G1 F720 X-94.993 Y45.6 E713.39028
G0 F6000 X-94.993 Y45.2
G1 F720 X94.995 Y45.199 E722.86877
G0 F6000 X94.995 Y44.799
G1 F720 X-94.993 Y44.8 E732.34731
G0 F6000 X-94.993 Y44.4
G1 F720 X94.995 Y44.399 E741.8258
G0 F6000 X94.995 Y43.999
G1 F720 X-94.993 Y44 E751.30434
G0 F6000 X-94.993 Y43.6
G1 F720 X94.995 Y43.599 E760.78283
G0 F6000 X94.995 Y43.199
G1 F720 X-94.993 Y43.2 E770.26137
G0 F6000 X-94.993 Y42.8
G1 F720 X94.995 Y42.799 E779.73986
G0 F6000 X94.995 Y42.399
G1 F720 X-94.993 Y42.4 E789.2184
G0 F6000 X-94.993 Y42
G1 F720 X94.995 Y41.999 E798.69689
G0 F6000 X94.995 Y41.599
G1 F720 X-94.993 Y41.6 E808.17543
G0 F6000 X-94.993 Y41.2
G1 F720 X94.995 Y41.199 E817.65392
G0 F6000 X94.995 Y40.799
G1 F720 X-94.993 Y40.8 E827.13246
G0 F6000 X-94.993 Y40.4
G1 F720 X94.995 Y40.399 E836.61095
G0 F6000 X94.995 Y39.999
G1 F720 X-94.993 Y40 E846.08949
G0 F6000 X-94.993 Y39.6
G1 F720 X94.995 Y39.599 E855.56798
G0 F6000 X94.995 Y39.199
G1 F720 X-94.993 Y39.2 E865.04652
G0 F6000 X-94.993 Y38.8
G1 F720 X94.995 Y38.799 E874.52501
G0 F6000 X94.995 Y38.399
G1 F720 X-94.993 Y38.4 E884.00355
G0 F6000 X-94.993 Y38
G1 F720 X94.995 Y37.999 E893.48204
G0 F6000 X94.995 Y37.599
G1 F720 X-94.993 Y37.6 E902.96058
G0 F6000 X-94.993 Y37.2
G1 F720 X94.995 Y37.199 E912.43907
G0 F6000 X94.995 Y36.799
G1 F720 X-94.993 Y36.8 E921.91761
G0 F6000 X-94.993 Y36.4
G1 F720 X94.995 Y36.399 E931.3961
G0 F6000 X94.995 Y35.999
G1 F720 X-94.993 Y36 E940.87464
G0 F6000 X-94.993 Y35.6
G1 F720 X94.995 Y35.599 E950.35313
G0 F6000 X94.995 Y35.199
G1 F720 X-94.993 Y35.2 E959.83167
G0 F6000 X-94.993 Y34.8
G1 F720 X94.995 Y34.799 E969.31016
G0 F6000 X94.995 Y34.399
G1 F720 X-94.993 Y34.4 E978.7887
G0 F6000 X-94.993 Y34
G1 F720 X94.995 Y33.999 E988.26719
G0 F6000 X94.995 Y33.599
G1 F720 X-94.993 Y33.6 E997.74573
G0 F6000 X-94.993 Y33.2
G1 F720 X94.995 Y33.199 E1007.22422
G0 F6000 X94.995 Y32.799
G1 F720 X-94.993 Y32.8 E1016.70276
G0 F6000 X-94.993 Y32.4
G1 F720 X94.995 Y32.399 E1026.18125
G0 F6000 X94.995 Y31.999
G1 F720 X-94.993 Y32 E1035.65979
G0 F6000 X-94.993 Y31.6
G1 F720 X94.995 Y31.599 E1045.13828
G0 F6000 X94.995 Y31.199
G1 F720 X-94.993 Y31.2 E1054.61682
G0 F6000 X-94.993 Y30.8
G1 F720 X94.995 Y30.799 E1064.09531
G0 F6000 X94.995 Y30.399
G1 F720 X-94.993 Y30.4 E1073.57385
G0 F6000 X-94.993 Y30
G1 F720 X94.995 Y29.999 E1083.05234
G0 F6000 X94.995 Y29.599
G1 F720 X-94.993 Y29.6 E1092.53088
G0 F6000 X-94.993 Y29.2
G1 F720 X94.995 Y29.199 E1102.00937
G0 F6000 X94.995 Y28.799
G1 F720 X-94.993 Y28.8 E1111.48791
G0 F6000 X-94.993 Y28.4
G1 F720 X94.995 Y28.399 E1120.9664
G0 F6000 X94.995 Y27.999
G1 F720 X-94.993 Y28 E1130.44494
G0 F6000 X-94.993 Y27.6
G1 F720 X94.995 Y27.599 E1139.92343
G0 F6000 X94.995 Y27.199
G1 F720 X-94.993 Y27.2 E1149.40197
G0 F6000 X-94.993 Y26.8
G1 F720 X94.995 Y26.799 E1158.88046
G0 F6000 X94.995 Y26.399
G1 F720 X-94.993 Y26.4 E1168.359
G0 F6000 X-94.993 Y26
G1 F720 X94.995 Y25.999 E1177.83749
G0 F6000 X94.995 Y25.599
G1 F720 X-94.993 Y25.6 E1187.31603
G0 F6000 X-94.993 Y25.2
G1 F720 X94.995 Y25.199 E1196.79452
G0 F6000 X94.995 Y24.799
G1 F720 X-94.993 Y24.8 E1206.27306
G0 F6000 X-94.993 Y24.4
G1 F720 X94.995 Y24.399 E1215.75155
G0 F6000 X94.995 Y23.999
G1 F720 X-94.993 Y24 E1225.23009
G0 F6000 X-94.993 Y23.6
G1 F720 X94.995 Y23.599 E1234.70858
G0 F6000 X94.995 Y23.199
G1 F720 X-94.993 Y23.2 E1244.18712
G0 F6000 X-94.993 Y22.8
G1 F720 X94.995 Y22.799 E1253.66561
G0 F6000 X94.995 Y22.399
G1 F720 X-94.993 Y22.4 E1263.14415
G0 F6000 X-94.993 Y22
G1 F720 X94.995 Y21.999 E1272.62264
G0 F6000 X94.995 Y21.599
G1 F720 X-94.993 Y21.6 E1282.10118
G0 F6000 X-94.993 Y21.2
G1 F720 X94.995 Y21.199 E1291.57967
G0 F6000 X94.995 Y20.799
G1 F720 X-94.993 Y20.8 E1301.05821
G0 F6000 X-94.993 Y20.4
G1 F720 X94.995 Y20.399 E1310.5367
G0 F6000 X94.995 Y19.999
G1 F720 X-94.993 Y20 E1320.01524
G0 F6000 X-94.993 Y19.6
G1 F720 X94.995 Y19.599 E1329.49372
G0 F6000 X94.995 Y19.199
G1 F720 X-94.993 Y19.2 E1338.97226
G0 F6000 X-94.993 Y18.8
G1 F720 X94.995 Y18.799 E1348.45075
G0 F6000 X94.995 Y18.399
G1 F720 X-94.993 Y18.4 E1357.92929
G0 F6000 X-94.993 Y18
G1 F720 X94.995 Y17.999 E1367.40778
G0 F6000 X94.995 Y17.599
G1 F720 X-94.993 Y17.6 E1376.88632
G0 F6000 X-94.993 Y17.2
G1 F720 X94.995 Y17.199 E1386.36481
G0 F6000 X94.995 Y16.799
G1 F720 X-94.993 Y16.8 E1395.84335
G0 F6000 X-94.993 Y16.4
G1 F720 X94.995 Y16.399 E1405.32184
G0 F6000 X94.995 Y15.999
G1 F720 X-94.993 Y16 E1414.80038
G0 F6000 X-94.993 Y15.6
G1 F720 X94.995 Y15.599 E1424.27887
G0 F6000 X94.995 Y15.199
G1 F720 X-94.993 Y15.2 E1433.75741
G0 F6000 X-94.993 Y14.8
G1 F720 X94.995 Y14.799 E1443.2359
G0 F6000 X94.995 Y14.399
G1 F720 X-94.993 Y14.4 E1452.71444
G0 F6000 X-94.993 Y14
G1 F720 X94.995 Y13.999 E1462.19293
G0 F6000 X94.995 Y13.599
G1 F720 X-94.993 Y13.6 E1471.67147
G0 F6000 X-94.993 Y13.2
G1 F720 X94.995 Y13.199 E1481.14996
G0 F6000 X94.995 Y12.799
G1 F720 X-94.993 Y12.8 E1490.6285
G0 F6000 X-94.993 Y12.4
G1 F720 X94.995 Y12.399 E1500.10699
G0 F6000 X94.995 Y11.999
G1 F720 X-94.993 Y12 E1509.58553
G0 F6000 X-94.993 Y11.6
G1 F720 X94.995 Y11.599 E1519.06402
G0 F6000 X94.995 Y11.199
G1 F720 X-94.993 Y11.2 E1528.54256
G0 F6000 X-94.993 Y10.8
G1 F720 X94.995 Y10.799 E1538.02105
G0 F6000 X94.995 Y10.399
G1 F720 X-94.993 Y10.4 E1547.49959
G0 F6000 X-94.993 Y10
G1 F720 X94.995 Y9.999 E1556.97808
G0 F6000 X94.995 Y9.599
G1 F720 X-94.993 Y9.6 E1566.45662
G0 F6000 X-94.993 Y9.2
G1 F720 X94.995 Y9.199 E1575.93511
G0 F6000 X94.995 Y8.799
G1 F720 X-94.993 Y8.8 E1585.41365
G0 F6000 X-94.993 Y8.4
G1 F720 X94.995 Y8.399 E1594.89214
G0 F6000 X94.995 Y7.999
G1 F720 X-94.993 Y8 E1604.37068
G0 F6000 X-94.993 Y7.6
G1 F720 X94.995 Y7.599 E1613.84917
G0 F6000 X94.995 Y7.199
G1 F720 X-94.993 Y7.2 E1623.32771
G0 F6000 X-94.993 Y6.8
G1 F720 X94.995 Y6.799 E1632.8062
G0 F6000 X94.995 Y6.399
G1 F720 X-94.993 Y6.4 E1642.28474
G0 F6000 X-94.993 Y6
G1 F720 X94.995 Y5.999 E1651.76323
G0 F6000 X94.995 Y5.599
G1 F720 X-94.993 Y5.6 E1661.24177
G0 F6000 X-94.993 Y5.2
G1 F720 X94.995 Y5.199 E1670.72026
G0 F6000 X94.995 Y4.799
G1 F720 X-94.993 Y4.8 E1680.1988
G0 F6000 X-94.993 Y4.4
G1 F720 X94.995 Y4.399 E1689.67729
G0 F6000 X94.995 Y3.999
G1 F720 X-94.993 Y4 E1699.15583
G0 F6000 X-94.993 Y3.6
G1 F720 X94.995 Y3.599 E1708.63432
G0 F6000 X94.995 Y3.199
G1 F720 X-94.993 Y3.2 E1718.11286
G0 F6000 X-94.993 Y2.8
G1 F720 X94.995 Y2.799 E1727.59135
G0 F6000 X94.995 Y2.399
G1 F720 X-94.993 Y2.4 E1737.06989
G0 F6000 X-94.993 Y2
G1 F720 X94.995 Y1.999 E1746.54838
G0 F6000 X94.995 Y1.599
G1 F720 X-94.993 Y1.6 E1756.02692
G0 F6000 X-94.993 Y1.2
G1 F720 X94.995 Y1.199 E1765.50541
G0 F6000 X94.995 Y0.799
G1 F720 X-94.993 Y0.8 E1774.98395
G0 F6000 X-94.993 Y0.4
G1 F720 X94.995 Y0.399 E1784.46244
G0 F6000 X94.995 Y0
G1 F720 X-94.993 Y0 E1793.94098
G0 F6000 X-94.993 Y-0.399
G1 F720 X94.995 Y-0.4 E1803.41947
G0 F6000 X94.995 Y-0.8
G1 F720 X-94.993 Y-0.799 E1812.89801
G0 F6000 X-94.993 Y-1.199
G1 F720 X94.995 Y-1.2 E1822.3765
G0 F6000 X94.995 Y-1.6
G1 F720 X-94.993 Y-1.599 E1831.85504
G0 F6000 X-94.993 Y-1.999
G1 F720 X94.995 Y-2 E1841.33353
G0 F6000 X94.995 Y-2.4
G1 F720 X-94.993 Y-2.399 E1850.81207
G0 F6000 X-94.993 Y-2.799
G1 F720 X94.995 Y-2.8 E1860.29056
G0 F6000 X94.995 Y-3.2
G1 F720 X-94.993 Y-3.199 E1869.7691
G0 F6000 X-94.993 Y-3.599
G1 F720 X94.995 Y-3.6 E1879.24759
G0 F6000 X94.995 Y-4
G1 F720 X-94.993 Y-3.999 E1888.72613
G0 F6000 X-94.993 Y-4.399
G1 F720 X94.995 Y-4.4 E1898.20462
G0 F6000 X94.995 Y-4.8
G1 F720 X-94.993 Y-4.799 E1907.68316
G0 F6000 X-94.993 Y-5.199
G1 F720 X94.995 Y-5.2 E1917.16165
G0 F6000 X94.995 Y-5.6
G1 F720 X-94.993 Y-5.599 E1926.64019
G0 F6000 X-94.993 Y-5.999
G1 F720 X94.995 Y-6 E1936.11868
G0 F6000 X94.995 Y-6.4
G1 F720 X-94.993 Y-6.399 E1945.59722
G0 F6000 X-94.993 Y-6.799
G1 F720 X94.995 Y-6.8 E1955.07571
G0 F6000 X94.995 Y-7.2
G1 F720 X-94.993 Y-7.199 E1964.55425
G0 F6000 X-94.993 Y-7.599
G1 F720 X94.995 Y-7.6 E1974.03274
G0 F6000 X94.995 Y-8
G1 F720 X-94.993 Y-7.999 E1983.51128
G0 F6000 X-94.993 Y-8.399
G1 F720 X94.995 Y-8.4 E1992.98977
G0 F6000 X94.995 Y-8.8
G1 F720 X-94.993 Y-8.799 E2002.4683
G0 F6000 X-94.993 Y-9.199
G1 F720 X94.995 Y-9.2 E2011.94679
G0 F6000 X94.995 Y-9.6
G1 F720 X-94.993 Y-9.599 E2021.42533
G0 F6000 X-94.993 Y-9.999
G1 F720 X94.995 Y-10 E2030.90382
G0 F6000 X94.995 Y-10.4
G1 F720 X-94.993 Y-10.399 E2040.38236
G0 F6000 X-94.993 Y-10.799
G1 F720 X94.995 Y-10.8 E2049.86085
G0 F6000 X94.995 Y-11.2
G1 F720 X-94.993 Y-11.199 E2059.33939
G0 F6000 X-94.993 Y-11.599
G1 F720 X94.995 Y-11.6 E2068.81788
G0 F6000 X94.995 Y-12
G1 F720 X-94.993 Y-11.999 E2078.29642
G0 F6000 X-94.993 Y-12.399
G1 F720 X94.995 Y-12.4 E2087.77491
G0 F6000 X94.995 Y-12.8
G1 F720 X-94.993 Y-12.799 E2097.25345
G0 F6000 X-94.993 Y-13.199
G1 F720 X94.995 Y-13.2 E2106.73194
G0 F6000 X94.995 Y-13.6
G1 F720 X-94.993 Y-13.599 E2116.21048
G0 F6000 X-94.993 Y-13.999
G1 F720 X94.995 Y-14 E2125.68897
G0 F6000 X94.995 Y-14.4
G1 F720 X-94.993 Y-14.399 E2135.16751
G0 F6000 X-94.993 Y-14.799
G1 F720 X94.995 Y-14.8 E2144.646
G0 F6000 X94.995 Y-15.2
G1 F720 X-94.993 Y-15.199 E2154.12454
G0 F6000 X-94.993 Y-15.599
G1 F720 X94.995 Y-15.6 E2163.60303
G0 F6000 X94.995 Y-16
G1 F720 X-94.993 Y-15.999 E2173.08157
G0 F6000 X-94.993 Y-16.399
G1 F720 X94.995 Y-16.4 E2182.56006
G0 F6000 X94.995 Y-16.8
G1 F720 X-94.993 Y-16.799 E2192.0386
G0 F6000 X-94.993 Y-17.199
G1 F720 X94.995 Y-17.2 E2201.51709
G0 F6000 X94.995 Y-17.6
G1 F720 X-94.993 Y-17.599 E2210.99563
G0 F6000 X-94.993 Y-17.999
G1 F720 X94.995 Y-18 E2220.47412
G0 F6000 X94.995 Y-18.4
G1 F720 X-94.993 Y-18.399 E2229.95266
G0 F6000 X-94.993 Y-18.799
G1 F720 X94.995 Y-18.8 E2239.43115
G0 F6000 X94.995 Y-19.2
G1 F720 X-94.993 Y-19.199 E2248.90969
G0 F6000 X-94.993 Y-19.599
G1 F720 X94.995 Y-19.6 E2258.38818
G0 F6000 X94.995 Y-20
G1 F720 X-94.993 Y-19.999 E2267.86672
G0 F6000 X-94.993 Y-20.399
G1 F720 X94.995 Y-20.4 E2277.34521
G0 F6000 X94.995 Y-20.8
G1 F720 X-94.993 Y-20.799 E2286.82375
G0 F6000 X-94.993 Y-21.199
G1 F720 X94.995 Y-21.2 E2296.30224
G0 F6000 X94.995 Y-21.6
G1 F720 X-94.993 Y-21.599 E2305.78078
G0 F6000 X-94.993 Y-21.999
G1 F720 X94.995 Y-22 E2315.25927
G0 F6000 X94.995 Y-22.4
G1 F720 X-94.993 Y-22.399 E2324.73781
G0 F6000 X-94.993 Y-22.799
G1 F720 X94.995 Y-22.8 E2334.2163
G0 F6000 X94.995 Y-23.2
G1 F720 X-94.993 Y-23.199 E2343.69484
G0 F6000 X-94.993 Y-23.599
G1 F720 X94.995 Y-23.6 E2353.17333
G0 F6000 X94.995 Y-24
G1 F720 X-94.993 Y-23.999 E2362.65187
G0 F6000 X-94.993 Y-24.399
G1 F720 X94.995 Y-24.4 E2372.13036
G0 F6000 X94.995 Y-24.8
G1 F720 X-94.993 Y-24.799 E2381.6089
G0 F6000 X-94.993 Y-25.199
G1 F720 X94.995 Y-25.2 E2391.08739
G0 F6000 X94.995 Y-25.6
G1 F720 X-94.993 Y-25.599 E2400.56593
G0 F6000 X-94.993 Y-25.999
G1 F720 X94.995 Y-26 E2410.04442
G0 F6000 X94.995 Y-26.4
G1 F720 X-94.993 Y-26.399 E2419.52296
G0 F6000 X-94.993 Y-26.799
G1 F720 X94.995 Y-26.8 E2429.00145
G0 F6000 X94.995 Y-27.2
G1 F720 X-94.993 Y-27.199 E2438.47999
G0 F6000 X-94.993 Y-27.599
G1 F720 X94.995 Y-27.6 E2447.95848
G0 F6000 X94.995 Y-28
G1 F720 X-94.993 Y-27.999 E2457.43702
G0 F6000 X-94.993 Y-28.399
G1 F720 X94.995 Y-28.4 E2466.91551
G0 F6000 X94.995 Y-28.8
G1 F720 X-94.993 Y-28.799 E2476.39405
G0 F6000 X-94.993 Y-29.199
G1 F720 X94.995 Y-29.2 E2485.87254
G0 F6000 X94.995 Y-29.6
G1 F720 X-94.993 Y-29.599 E2495.35108
G0 F6000 X-94.993 Y-29.999
G1 F720 X94.995 Y-30 E2504.82957
G0 F6000 X94.995 Y-30.4
G1 F720 X-94.993 Y-30.399 E2514.30811
G0 F6000 X-94.993 Y-30.799
G1 F720 X94.995 Y-30.8 E2523.7866
G0 F6000 X94.995 Y-31.2
G1 F720 X-94.993 Y-31.199 E2533.26514
G0 F6000 X-94.993 Y-31.599
G1 F720 X94.995 Y-31.6 E2542.74363
G0 F6000 X94.995 Y-32
G1 F720 X-94.993 Y-31.999 E2552.22217
G0 F6000 X-94.993 Y-32.399
G1 F720 X94.995 Y-32.4 E2561.70066
G0 F6000 X94.995 Y-32.8
G1 F720 X-94.993 Y-32.799 E2571.1792
G0 F6000 X-94.993 Y-33.199
G1 F720 X94.995 Y-33.2 E2580.65769
G0 F6000 X94.995 Y-33.6
G1 F720 X-94.993 Y-33.599 E2590.13623
G0 F6000 X-94.993 Y-33.999
G1 F720 X94.995 Y-34 E2599.61472
G0 F6000 X94.995 Y-34.4
G1 F720 X-94.993 Y-34.399 E2609.09326
G0 F6000 X-94.993 Y-34.799
G1 F720 X94.995 Y-34.8 E2618.57175
G0 F6000 X94.995 Y-35.2
G1 F720 X-94.993 Y-35.199 E2628.05029
G0 F6000 X-94.993 Y-35.599
G1 F720 X94.995 Y-35.6 E2637.52878
G0 F6000 X94.995 Y-36
G1 F720 X-94.993 Y-35.999 E2647.00732
G0 F6000 X-94.993 Y-36.399
G1 F720 X94.995 Y-36.4 E2656.48581
G0 F6000 X94.995 Y-36.8
G1 F720 X-94.993 Y-36.799 E2665.96435
G0 F6000 X-94.993 Y-37.199
G1 F720 X94.995 Y-37.2 E2675.44284
G0 F6000 X94.995 Y-37.6
G1 F720 X-94.993 Y-37.599 E2684.92137
G0 F6000 X-94.993 Y-37.999
G1 F720 X94.995 Y-38 E2694.39986
G0 F6000 X94.995 Y-38.4
G1 F720 X-94.993 Y-38.399 E2703.8784
G0 F6000 X-94.993 Y-38.799
G1 F720 X94.995 Y-38.8 E2713.35689
G0 F6000 X94.995 Y-39.2
G1 F720 X-94.993 Y-39.199 E2722.83543
G0 F6000 X-94.993 Y-39.599
G1 F720 X94.995 Y-39.6 E2732.31392
G0 F6000 X94.995 Y-40
G1 F720 X-94.993 Y-39.999 E2741.79246
G0 F6000 X-94.993 Y-40.399
G1 F720 X94.995 Y-40.4 E2751.27095
G0 F6000 X94.995 Y-40.8
G1 F720 X-94.993 Y-40.799 E2760.74949
G0 F6000 X-94.993 Y-41.199
G1 F720 X94.995 Y-41.2 E2770.22798
G0 F6000 X94.995 Y-41.6
G1 F720 X-94.993 Y-41.599 E2779.70652
G0 F6000 X-94.993 Y-41.999
G1 F720 X94.995 Y-42 E2789.18501
G0 F6000 X94.995 Y-42.4
G1 F720 X-94.993 Y-42.399 E2798.66355
G0 F6000 X-94.993 Y-42.799
G1 F720 X94.995 Y-42.8 E2808.14204
G0 F6000 X94.995 Y-43.2
G1 F720 X-94.993 Y-43.199 E2817.62058
G0 F6000 X-94.993 Y-43.599
G1 F720 X94.995 Y-43.6 E2827.09907
G0 F6000 X94.995 Y-44
G1 F720 X-94.993 Y-43.999 E2836.57761
G0 F6000 X-94.993 Y-44.399
G1 F720 X94.995 Y-44.4 E2846.0561
G0 F6000 X94.995 Y-44.8
G1 F720 X-94.993 Y-44.799 E2855.53464
G0 F6000 X-94.993 Y-45.199
G1 F720 X94.995 Y-45.2 E2865.01313
G0 F6000 X94.995 Y-45.6
G1 F720 X-94.993 Y-45.599 E2874.49167
G0 F6000 X-94.993 Y-45.999
G1 F720 X94.995 Y-46 E2883.97016
G0 F6000 X94.995 Y-46.4
G1 F720 X-94.993 Y-46.399 E2893.4487
G0 F6000 X-94.993 Y-46.799
G1 F720 X94.995 Y-46.8 E2902.92719
G0 F6000 X94.995 Y-47.2
G1 F720 X-94.993 Y-47.199 E2912.40573
G0 F6000 X-94.993 Y-47.599
G1 F720 X94.995 Y-47.6 E2921.88422
G0 F6000 X94.995 Y-48
G1 F720 X-94.993 Y-47.999 E2931.36276
G0 F6000 X-94.993 Y-48.399
G1 F720 X94.995 Y-48.4 E2940.84125
G0 F6000 X94.995 Y-48.8
G1 F720 X-94.993 Y-48.799 E2950.31979
G0 F6000 X-94.993 Y-49.199
G1 F720 X94.995 Y-49.2 E2959.79828
G0 F6000 X94.995 Y-49.6
G1 F720 X-94.993 Y-49.599 E2969.27682
G0 F6000 X-94.993 Y-49.999
G1 F720 X94.995 Y-50 E2978.75531
G0 F6000 X94.995 Y-50.4
G1 F720 X-94.993 Y-50.399 E2988.23385
G0 F6000 X-94.993 Y-50.799
G1 F720 X94.995 Y-50.8 E2997.71234
G0 F6000 X94.995 Y-51.2
G1 F720 X-94.993 Y-51.199 E3007.19088
G0 F6000 X-94.993 Y-51.599
G1 F720 X94.995 Y-51.6 E3016.66937
G0 F6000 X94.995 Y-52
G1 F720 X-94.993 Y-51.999 E3026.14791
G0 F6000 X-94.993 Y-52.399
G1 F720 X94.995 Y-52.4 E3035.6264
G0 F6000 X94.995 Y-52.8
G1 F720 X-94.993 Y-52.799 E3045.10494
G0 F6000 X-94.993 Y-53.199
G1 F720 X94.995 Y-53.2 E3054.58343
G0 F6000 X94.995 Y-53.6
G1 F720 X-94.993 Y-53.599 E3064.06197
G0 F6000 X-94.993 Y-53.999
G1 F720 X94.995 Y-54 E3073.54046
G0 F6000 X94.995 Y-54.4
G1 F720 X-94.993 Y-54.399 E3083.019
G0 F6000 X-94.993 Y-54.799
G1 F720 X94.995 Y-54.8 E3092.49749
G0 F6000 X94.995 Y-55.2
G1 F720 X-94.993 Y-55.199 E3101.97603
G0 F6000 X-94.993 Y-55.599
G1 F720 X94.995 Y-55.6 E3111.45452
G0 F6000 X94.995 Y-56
G1 F720 X-94.993 Y-55.999 E3120.93306
G0 F6000 X-94.993 Y-56.399
G1 F720 X94.995 Y-56.4 E3130.41155
G0 F6000 X94.995 Y-56.8
G1 F720 X-94.993 Y-56.799 E3139.89009
G0 F6000 X-94.993 Y-57.199
G1 F720 X94.995 Y-57.2 E3149.36858
G0 F6000 X94.995 Y-57.6
G1 F720 X-94.993 Y-57.599 E3158.84712
G0 F6000 X-94.993 Y-57.999
G1 F720 X94.995 Y-58 E3168.32561
G0 F6000 X94.995 Y-58.4
G1 F720 X-94.993 Y-58.399 E3177.80415
G0 F6000 X-94.993 Y-58.799
G1 F720 X94.995 Y-58.8 E3187.28264
G0 F6000 X94.995 Y-59.2
G1 F720 X-94.993 Y-59.199 E3196.76118
G0 F6000 X-94.993 Y-59.599
G1 F720 X94.995 Y-59.6 E3206.23967
G0 F6000 X94.995 Y-60
G1 F720 X-94.993 Y-59.999 E3215.71821
G0 F6000 X-94.993 Y-60.399
G1 F720 X94.995 Y-60.4 E3225.1967
G0 F6000 X94.995 Y-60.8
G1 F720 X-94.993 Y-60.799 E3234.67524
G0 F6000 X-94.993 Y-61.199
G1 F720 X94.995 Y-61.2 E3244.15373
G0 F6000 X94.995 Y-61.6
G1 F720 X-94.993 Y-61.599 E3253.63227
G0 F6000 X-94.993 Y-61.999
G1 F720 X94.995 Y-62 E3263.11076
G0 F6000 X94.995 Y-62.4
G1 F720 X-94.993 Y-62.399 E3272.5893
G0 F6000 X-94.993 Y-62.799
G1 F720 X94.995 Y-62.8 E3282.06779
G0 F6000 X94.995 Y-63.2
G1 F720 X-94.993 Y-63.199 E3291.54633
G0 F6000 X-94.993 Y-63.599
G1 F720 X94.995 Y-63.6 E3301.02482
G0 F6000 X94.995 Y-64
G1 F720 X-94.993 Y-63.999 E3310.50336
G0 F6000 X-94.993 Y-64.399
G1 F720 X94.995 Y-64.4 E3319.98185
G0 F6000 X94.995 Y-64.8
G1 F720 X-94.993 Y-64.799 E3329.46039
G0 F6000 X-94.993 Y-65.199
G1 F720 X94.995 Y-65.2 E3338.93888
G0 F6000 X94.995 Y-65.6
G1 F720 X-94.993 Y-65.6 E3348.41742
G0 F6000 X-94.993 Y-66
G1 F720 X94.995 Y-66 E3357.89591
G0 F6000 X94.995 Y-66.4
G1 F720 X-94.993 Y-66.4 E3367.37444
G0 F6000 X-94.993 Y-66.8
G1 F720 X94.995 Y-66.8 E3376.85293
G0 F6000 X94.995 Y-67.2
G1 F720 X-94.993 Y-67.2 E3386.33147
G0 F6000 X-94.993 Y-67.6
G1 F720 X94.995 Y-67.6 E3395.80996
G0 F6000 X94.995 Y-68
G1 F720 X-94.993 Y-68 E3405.2885
G0 F6000 X-94.993 Y-68.4
G1 F720 X94.995 Y-68.4 E3414.76699
G0 F6000 X94.995 Y-68.8
G1 F720 X-94.993 Y-68.8 E3424.24553
G0 F6000 X-94.993 Y-69.2
G1 F720 X94.995 Y-69.2 E3433.72402
G0 F6000 X94.995 Y-69.6
G1 F720 X-94.993 Y-69.6 E3443.20256
; LAYER:1
G0 F6000 X-94.983 Y-69.889 Z0.6
; TYPE:WALL-INNER
G1 F2400 X94.985 Y-69.889 E3455.04943
G1 X94.985 Y69.89 E3463.76637
G1 X-94.983 Y69.89 E3475.6133
G1 X-94.983 Y-69.889 E3484.3303
G0 F6000 X-95.483 Y-70.389
; TYPE:WALL-OUTER
G1 F2100 X95.485 Y-70.389 E3496.23953
G1 X95.485 Y70.39 E3505.01883
G1 X-95.483 Y70.39 E3516.92812
G1 X-95.483 Y-70.389 E3525.70749
G0 F6000 X-94.5 Y-69.698
; TYPE:FILL
G1 F2400 X-94.499 Y69.699 E3534.40061
G0 F6000 X-93.999 Y69.699
G1 F2400 X-94 Y-69.698 E3543.09379
G0 F6000 X-93.5 Y-69.698
G1 F2400 X-93.499 Y69.699 E3551.78691
G0 F6000 X-92.999 Y69.699
G1 F2400 X-93 Y-69.698 E3560.48009
G0 F6000 X-92.5 Y-69.698
G1 F2400 X-92.499 Y69.699 E3569.17321
G0 F6000 X-91.999 Y69.699
G1 F2400 X-92 Y-69.698 E3577.86639
G0 F6000 X-91.5 Y-69.698
G1 F2400 X-91.499 Y69.699 E3586.5595
G0 F6000 X-90.999 Y69.699
G1 F2400 X-91 Y-69.698 E3595.25268
G0 F6000 X-90.5 Y-69.698
G1 F2400 X-90.499 Y69.699 E3603.9458
G0 F6000 X-89.999 Y69.699
G1 F2400 X-90 Y-69.698 E3612.63898
G0 F6000 X-89.5 Y-69.698
G1 F2400 X-89.499 Y69.699 E3621.3321
G0 F6000 X-88.999 Y69.699
G1 F2400 X-89 Y-69.698 E3630.02528
G0 F6000 X-88.5 Y-69.698
G1 F2400 X-88.499 Y69.699 E3638.7184
G0 F6000 X-87.999 Y69.699
G1 F2400 X-88 Y-69.698 E3647.41158
G0 F6000 X-87.5 Y-69.698
G1 F2400 X-87.499 Y69.699 E3656.1047
G0 F6000 X-86.999 Y69.699
G1 F2400 X-87 Y-69.698 E3664.79788
G0 F6000 X-86.5 Y-69.698
G1 F2400 X-86.499 Y69.699 E3673.491
G0 F6000 X-85.999 Y69.699
G1 F2400 X-86 Y-69.698 E3682.18418
G0 F6000 X-85.5 Y-69.698
G1 F2400 X-85.499 Y69.699 E3690.8773
G0 F6000 X-84.999 Y69.699
G1 F2400 X-85 Y-69.698 E3699.57048
G0 F6000 X-84.5 Y-69.698
G1 F2400 X-84.499 Y69.699 E3708.2636
G0 F6000 X-83.999 Y69.699
G1 F2400 X-84 Y-69.698 E3716.95678
G0 F6000 X-83.5 Y-69.698
G1 F2400 X-83.499 Y69.699 E3725.6499
G0 F6000 X-82.999 Y69.699
G1 F2400 X-83 Y-69.698 E3734.34308
G0 F6000 X-82.5 Y-69.698
G1 F2400 X-82.499 Y69.699 E3743.0362
G0 F6000 X-81.999 Y69.699
G1 F2400 X-82 Y-69.698 E3751.72938
G0 F6000 X-81.5 Y-69.698
G1 F2400 X-81.499 Y69.699 E3760.42249
G0 F6000 X-80.999 Y69.699
G1 F2400 X-81 Y-69.698 E3769.11568
G0 F6000 X-80.5 Y-69.698
G1 F2400 X-80.499 Y69.699 E3777.80879
G0 F6000 X-79.999 Y69.699
G1 F2400 X-80 Y-69.698 E3786.50197
G0 F6000 X-79.5 Y-69.698
G1 F2400 X-79.499 Y69.699 E3795.19509
G0 F6000 X-78.999 Y69.699
G1 F2400 X-79 Y-69.698 E3803.88827
G0 F6000 X-78.5 Y-69.698
G1 F2400 X-78.499 Y69.699 E3812.58139
G0 F6000 X-77.999 Y69.699
G1 F2400 X-78 Y-69.698 E3821.27457
G0 F6000 X-77.5 Y-69.698
G1 F2400 X-77.499 Y69.699 E3829.96769
G0 F6000 X-76.999 Y69.699
G1 F2400 X-77 Y-69.698 E3838.66087
G0 F6000 X-76.5 Y-69.698
G1 F2400 X-76.499 Y69.699 E3847.35399
G0 F6000 X-75.999 Y69.699
G1 F2400 X-76 Y-69.698 E3856.04717
G0 F6000 X-75.5 Y-69.698
G1 F2400 X-75.499 Y69.699 E3864.74029
G0 F6000 X-74.999 Y69.699
G1 F2400 X-75 Y-69.698 E3873.43347
G0 F6000 X-74.5 Y-69.698
G1 F2400 X-74.499 Y69.699 E3882.12659
G0 F6000 X-73.999 Y69.699
G1 F2400 X-74 Y-69.698 E3890.81977
G0 F6000 X-73.5 Y-69.698
G1 F2400 X-73.499 Y69.699 E3899.51289
G0 F6000 X-72.999 Y69.699
G1 F2400 X-73 Y-69.698 E3908.20607
G0 F6000 X-72.5 Y-69.698
G1 F2400 X-72.499 Y69.699 E3916.89919
G0 F6000 X-71.999 Y69.699
G1 F2400 X-72 Y-69.698 E3925.59237
G0 F6000 X-71.5 Y-69.698
G1 F2400 X-71.499 Y69.699 E3934.28549
G0 F6000 X-70.999 Y69.699
G1 F2400 X-71 Y-69.698 E3942.97867
G0 F6000 X-70.5 Y-69.698
G1 F2400 X-70.499 Y69.699 E3951.67178
G0 F6000 X-69.999 Y69.699
G1 F2400 X-70 Y-69.698 E3960.36496
G0 F6000 X-69.5 Y-69.698
G1 F2400 X-69.499 Y69.699 E3969.05808
G0 F6000 X-68.999 Y69.699
G1 F2400 X-69 Y-69.698 E3977.75126
G0 F6000 X-68.5 Y-69.698
G1 F2400 X-68.499 Y69.699 E3986.44438
G0 F6000 X-67.999 Y69.699
G1 F2400 X-68 Y-69.698 E3995.13756
G0 F6000 X-67.5 Y-69.698
G1 F2400 X-67.499 Y69.699 E4003.83068
G0 F6000 X-66.999 Y69.699
G1 F2400 X-67 Y-69.698 E4012.52386
G0 F6000 X-66.5 Y-69.698
G1 F2400 X-66.499 Y69.699 E4021.21698
G0 F6000 X-65.999 Y69.699
G1 F2400 X-66 Y-69.698 E4029.91016
G0 F6000 X-65.5 Y-69.698
G1 F2400 X-65.499 Y69.699 E4038.60328
G0 F6000 X-64.999 Y69.699
G1 F2400 X-65 Y-69.698 E4047.29646
G0 F6000 X-64.5 Y-69.698
G1 F2400 X-64.499 Y69.699 E4055.98958
G0 F6000 X-63.999 Y69.699
G1 F2400 X-64 Y-69.698 E4064.68276
G0 F6000 X-63.5 Y-69.698
G1 F2400 X-63.499 Y69.699 E4073.37588
G0 F6000 X-62.999 Y69.699
G1 F2400 X-63 Y-69.698 E4082.06906
G0 F6000 X-62.5 Y-69.698
G1 F2400 X-62.499 Y69.699 E4090.76218
G0 F6000 X-61.999 Y69.699
G1 F2400 X-62 Y-69.698 E4099.45536
G0 F6000 X-61.5 Y-69.698
G1 F2400 X-61.499 Y69.699 E4108.14848
G0 F6000 X-60.999 Y69.699
G1 F2400 X-61 Y-69.698 E4116.84166
G0 F6000 X-60.5 Y-69.698
G1 F2400 X-60.499 Y69.699 E4125.53477
G0 F6000 X-59.999 Y69.699
G1 F2400 X-60 Y-69.698 E4134.22796
G0 F6000 X-59.5 Y-69.698
G1 F2400 X-59.499 Y69.699 E4142.92107
G0 F6000 X-58.999 Y69.699
G1 F2400 X-59 Y-69.699 E4151.61432
G0 F6000 X-58.5 Y-69.699
G1 F2400 X-58.499 Y69.699 E4160.3075
G0 F6000 X-57.999 Y69.699
G1 F2400 X-58 Y-69.699 E4169.00074
G0 F6000 X-57.5 Y-69.699
G1 F2400 X-57.499 Y69.699 E4177.69392
G0 F6000 X-56.999 Y69.699
G1 F2400 X-57 Y-69.699 E4186.38716
G0 F6000 X-56.5 Y-69.699
G1 F2400 X-56.499 Y69.699 E4195.08035
G0 F6000 X-55.999 Y69.699
G1 F2400 X-56 Y-69.699 E4203.77359
G0 F6000 X-55.5 Y-69.699
G1 F2400 X-55.499 Y69.699 E4212.46677
G0 F6000 X-54.999 Y69.699
G1 F2400 X-55 Y-69.699 E4221.16001
G0 F6000 X-54.5 Y-69.699
G1 F2400 X-54.499 Y69.699 E4229.85319
G0 F6000 X-53.999 Y69.699
G1 F2400 X-54 Y-69.699 E4238.54644
G0 F6000 X-53.5 Y-69.699
G1 F2400 X-53.499 Y69.699 E4247.23962
G0 F6000 X-52.999 Y69.699
G1 F2400 X-53 Y-69.699 E4255.93286
G0 F6000 X-52.5 Y-69.699
G1 F2400 X-52.499 Y69.699 E4264.62604
G0 F6000 X-51.999 Y69.699
G1 F2400 X-52 Y-69.699 E4273.31928
G0 F6000 X-51.5 Y-69.699
G1 F2400 X-51.499 Y69.699 E4282.01246
G0 F6000 X-50.999 Y69.699
G1 F2400 X-51 Y-69.699 E4290.70571
G0 F6000 X-50.5 Y-69.699
G1 F2400 X-50.499 Y69.699 E4299.39889
G0 F6000 X-49.999 Y69.699
G1 F2400 X-50 Y-69.699 E4308.09213
G0 F6000 X-49.5 Y-69.699
G1 F2400 X-49.499 Y69.699 E4316.78531
G0 F6000 X-48.999 Y69.699
G1 F2400 X-49 Y-69.699 E4325.47855
G0 F6000 X-48.5 Y-69.699
G1 F2400 X-48.499 Y69.699 E4334.17174
G0 F6000 X-47.999 Y69.699
G1 F2400 X-48 Y-69.699 E4342.86498
G0 F6000 X-47.5 Y-69.699
G1 F2400 X-47.499 Y69.699 E4351.55816
G0 F6000 X-46.999 Y69.699
G1 F2400 X-47 Y-69.699 E4360.2514
G0 F6000 X-46.5 Y-69.699
G1 F2400 X-46.499 Y69.699 E4368.94458
G0 F6000 X-45.999 Y69.699
G1 F2400 X-46 Y-69.699 E4377.63783
G0 F6000 X-45.5 Y-69.699
G1 F2400 X-45.499 Y69.699 E4386.33101
G0 F6000 X-44.999 Y69.699
G1 F2400 X-45 Y-69.699 E4395.02425
G0 F6000 X-44.5 Y-69.699
G1 F2400 X-44.499 Y69.699 E4403.71743
G0 F6000 X-43.999 Y69.699
G1 F2400 X-44 Y-69.699 E4412.41067
G0 F6000 X-43.5 Y-69.699
G1 F2400 X-43.499 Y69.699 E4421.10385
G0 F6000 X-42.999 Y69.699
G1 F2400 X-43 Y-69.699 E4429.7971
G0 F6000 X-42.5 Y-69.699
G1 F2400 X-42.499 Y69.699 E4438.49028
G0 F6000 X-41.999 Y69.699
G1 F2400 X-42 Y-69.699 E4447.18352
G0 F6000 X-41.5 Y-69.699
G1 F2400 X-41.499 Y69.699 E4455.8767
G0 F6000 X-40.999 Y69.699
G1 F2400 X-41 Y-69.699 E4464.56995
G0 F6000 X-40.5 Y-69.699
G1 F2400 X-40.499 Y69.699 E4473.26313
G0 F6000 X-39.999 Y69.699
G1 F2400 X-40 Y-69.699 E4481.95637
G0 F6000 X-39.5 Y-69.699
G1 F2400 X-39.499 Y69.699 E4490.64955
G0 F6000 X-38.999 Y69.699
G1 F2400 X-39 Y-69.699 E4499.34279
G0 F6000 X-38.5 Y-69.699
G1 F2400 X-38.499 Y69.699 E4508.03597
G0 F6000 X-37.999 Y69.699
G1 F2400 X-38 Y-69.699 E4516.72922
G0 F6000 X-37.5 Y-69.699
G1 F2400 X-37.499 Y69.699 E4525.4224
G0 F6000 X-36.999 Y69.699
G1 F2400 X-37 Y-69.699 E4534.11564
G0 F6000 X-36.5 Y-69.699
G1 F2400 X-36.499 Y69.699 E4542.80882
G0 F6000 X-35.999 Y69.699
G1 F2400 X-36 Y-69.699 E4551.50206
G0 F6000 X-35.5 Y-69.699
G1 F2400 X-35.499 Y69.699 E4560.19524
G0 F6000 X-34.999 Y69.699
G1 F2400 X-35 Y-69.699 E4568.88849
G0 F6000 X-34.5 Y-69.699
G1 F2400 X-34.499 Y69.699 E4577.58167
G0 F6000 X-33.999 Y69.699
G1 F2400 X-34 Y-69.699 E4586.27491
G0 F6000 X-33.5 Y-69.699
G1 F2400 X-33.499 Y69.699 E4594.96809
G0 F6000 X-32.999 Y69.699
G1 F2400 X-33 Y-69.699 E4603.66134
G0 F6000 X-32.5 Y-69.699
G1 F2400 X-32.499 Y69.699 E4612.35452
G0 F6000 X-31.999 Y69.699
G1 F2400 X-32 Y-69.699 E4621.04776
G0 F6000 X-31.5 Y-69.699
G1 F2400 X-31.499 Y69.699 E4629.74094
G0 F6000 X-30.999 Y69.699
G1 F2400 X-31 Y-69.699 E4638.43418
G0 F6000 X-30.5 Y-69.699
G1 F2400 X-30.499 Y69.699 E4647.12736
G0 F6000 X-29.999 Y69.699
G1 F2400 X-30 Y-69.699 E4655.82061
G0 F6000 X-29.5 Y-69.699
G1 F2400 X-29.499 Y69.699 E4664.51379
G0 F6000 X-28.999 Y69.699
G1 F2400 X-29 Y-69.699 E4673.20703
G0 F6000 X-28.5 Y-69.699
G1 F2400 X-28.499 Y69.699 E4681.90021
G0 F6000 X-27.999 Y69.699
G1 F2400 X-28 Y-69.699 E4690.59345
G0 F6000 X-27.5 Y-69.699
G1 F2400 X-27.499 Y69.699 E4699.28663
G0 F6000 X-26.999 Y69.699
G1 F2400 X-27 Y-69.699 E4707.97988
G0 F6000 X-26.5 Y-69.699
G1 F2400 X-26.499 Y69.699 E4716.67306
G0 F6000 X-25.999 Y69.699
G1 F2400 X-26 Y-69.699 E4725.3663
G0 F6000 X-25.5 Y-69.699
G1 F2400 X-25.499 Y69.699 E4734.05948
G0 F6000 X-24.999 Y69.699
G1 F2400 X-25 Y-69.699 E4742.75273
G0 F6000 X-24.5 Y-69.699
G1 F2400 X-24.499 Y69.699 E4751.44591
G0 F6000 X-23.999 Y69.699
G1 F2400 X-24 Y-69.699 E4760.13915
G0 F6000 X-23.5 Y-69.699
G1 F2400 X-23.499 Y69.699 E4768.83233
G0 F6000 X-22.999 Y69.699
G1 F2400 X-23 Y-69.699 E4777.52557
G0 F6000 X-22.5 Y-69.699
G1 F2400 X-22.499 Y69.699 E4786.21875
G0 F6000 X-21.999 Y69.699
G1 F2400 X-22 Y-69.699 E4794.912
G0 F6000 X-21.5 Y-69.699
G1 F2400 X-21.499 Y69.699 E4803.60518
G0 F6000 X-20.999 Y69.699
G1 F2400 X-21 Y-69.699 E4812.29842
G0 F6000 X-20.5 Y-69.699
G1 F2400 X-20.499 Y69.699 E4820.9916
G0 F6000 X-19.999 Y69.699
G1 F2400 X-20 Y-69.699 E4829.68484
G0 F6000 X-19.5 Y-69.699
G1 F2400 X-19.499 Y69.699 E4838.37803
G0 F6000 X-18.999 Y69.699
G1 F2400 X-19 Y-69.699 E4847.07127
G0 F6000 X-18.5 Y-69.699
G1 F2400 X-18.499 Y69.699 E4855.76445
G0 F6000 X-17.999 Y69.699
G1 F2400 X-18 Y-69.699 E4864.45769
G0 F6000 X-17.5 Y-69.699
G1 F2400 X-17.499 Y69.699 E4873.15087
G0 F6000 X-16.999 Y69.699
G1 F2400 X-17 Y-69.699 E4881.84412
G0 F6000 X-16.5 Y-69.699
G1 F2400 X-16.499 Y69.699 E4890.5373
G0 F6000 X-15.999 Y69.699
G1 F2400 X-16 Y-69.699 E4899.23054
G0 F6000 X-15.5 Y-69.699
G1 F2400 X-15.499 Y69.699 E4907.92372
G0 F6000 X-14.999 Y69.699
G1 F2400 X-15 Y-69.699 E4916.61696
G0 F6000 X-14.5 Y-69.699
G1 F2400 X-14.499 Y69.699 E4925.31014
G0 F6000 X-13.999 Y69.699
G1 F2400 X-14 Y-69.699 E4934.00339
G0 F6000 X-13.5 Y-69.699
G1 F2400 X-13.499 Y69.699 E4942.69657
G0 F6000 X-12.999 Y69.699
G1 F2400 X-13 Y-69.699 E4951.38981
G0 F6000 X-12.5 Y-69.699
G1 F2400 X-12.499 Y69.699 E4960.08299
G0 F6000 X-11.999 Y69.699
G1 F2400 X-12 Y-69.699 E4968.77623
G0 F6000 X-11.5 Y-69.699
G1 F2400 X-11.499 Y69.699 E4977.46942
G0 F6000 X-10.999 Y69.699
G1 F2400 X-11 Y-69.699 E4986.16266
G0 F6000 X-10.5 Y-69.699
G1 F2400 X-10.499 Y69.699 E4994.85584
G0 F6000 X-9.999 Y69.699
G1 F2400 X-10 Y-69.699 E5003.54908
G0 F6000 X-9.5 Y-69.699
G1 F2400 X-9.499 Y69.699 E5012.24226
G0 F6000 X-8.999 Y69.699
G1 F2400 X-9 Y-69.699 E5020.93551
G0 F6000 X-8.5 Y-69.699
G1 F2400 X-8.499 Y69.699 E5029.62869
G0 F6000 X-7.999 Y69.699
G1 F2400 X-8 Y-69.699 E5038.32193
G0 F6000 X-7.5 Y-69.699
G1 F2400 X-7.499 Y69.699 E5047.01511
G0 F6000 X-6.999 Y69.699
G1 F2400 X-7 Y-69.699 E5055.70835
G0 F6000 X-6.5 Y-69.699
G1 F2400 X-6.499 Y69.699 E5064.40153
G0 F6000 X-5.999 Y69.699
G1 F2400 X-6 Y-69.699 E5073.09478
G0 F6000 X-5.5 Y-69.699
G1 F2400 X-5.499 Y69.699 E5081.78796
G0 F6000 X-4.999 Y69.699
G1 F2400 X-5 Y-69.699 E5090.4812
G0 F6000 X-4.5 Y-69.699
G1 F2400 X-4.499 Y69.699 E5099.17438
G0 F6000 X-3.999 Y69.699
G1 F2400 X-4 Y-69.699 E5107.86762
G0 F6000 X-3.5 Y-69.699
G1 F2400 X-3.499 Y69.699 E5116.56081
G0 F6000 X-2.999 Y69.699
G1 F2400 X-3 Y-69.699 E5125.25405
G0 F6000 X-2.5 Y-69.699
G1 F2400 X-2.499 Y69.699 E5133.94723
G0 F6000 X-1.999 Y69.699
G1 F2400 X-2 Y-69.699 E5142.64047
G0 F6000 X-1.5 Y-69.699
G1 F2400 X-1.499 Y69.699 E5151.33365
G0 F6000 X-0.999 Y69.699
G1 F2400 X-1 Y-69.699 E5160.0269
G0 F6000 X-0.5 Y-69.699
G1 F2400 X-0.499 Y69.699 E5168.72008
G0 F6000 X0 Y69.699
G1 F2400 X0 Y-69.699 E5177.41332
G0 F6000 X0.499 Y-69.698
G1 F2400 X0.5 Y69.7 E5186.1065
G0 F6000 X1 Y69.7
G1 F2400 X0.999 Y-69.698 E5194.79974
G0 F6000 X1.499 Y-69.698
G1 F2400 X1.5 Y69.7 E5203.49292
G0 F6000 X2 Y69.7
G1 F2400 X1.999 Y-69.698 E5212.18617
G0 F6000 X2.499 Y-69.698
G1 F2400 X2.5 Y69.7 E5220.87935
G0 F6000 X3 Y69.7
G1 F2400 X2.999 Y-69.698 E5229.57259
G0 F6000 X3.499 Y-69.698
G1 F2400 X3.5 Y69.7 E5238.26577
G0 F6000 X4 Y69.7
G1 F2400 X3.999 Y-69.698 E5246.95902
G0 F6000 X4.499 Y-69.698
G1 F2400 X4.5 Y69.7 E5255.6522
G0 F6000 X5 Y69.7
G1 F2400 X4.999 Y-69.698 E5264.34544
G0 F6000 X5.499 Y-69.698
G1 F2400 X5.5 Y69.7 E5273.03862
G0 F6000 X6 Y69.7
G1 F2400 X5.999 Y-69.698 E5281.73186
G0 F6000 X6.499 Y-69.698
G1 F2400 X6.5 Y69.7 E5290.42504
G0 F6000 X7 Y69.7
G1 F2400 X6.999 Y-69.698 E5299.11829
G0 F6000 X7.499 Y-69.698
G1 F2400 X7.5 Y69.7 E5307.81147
G0 F6000 X8 Y69.7
G1 F2400 X7.999 Y-69.698 E5316.50471
G0 F6000 X8.499 Y-69.698
G1 F2400 X8.5 Y69.7 E5325.19789
G0 F6000 X9 Y69.7
G1 F2400 X8.999 Y-69.698 E5333.89113
G0 F6000 X9.499 Y-69.698
G1 F2400 X9.5 Y69.7 E5342.58431
G0 F6000 X10 Y69.7
G1 F2400 X9.999 Y-69.698 E5351.27756
G0 F6000 X10.499 Y-69.698
G1 F2400 X10.5 Y69.7 E5359.97074
G0 F6000 X11 Y69.7
G1 F2400 X10.999 Y-69.698 E5368.66398
G0 F6000 X11.499 Y-69.698
G1 F2400 X11.5 Y69.7 E5377.35716
G0 F6000 X12 Y69.7
G1 F2400 X11.999 Y-69.698 E5386.05041
G0 F6000 X12.499 Y-69.698
G1 F2400 X12.5 Y69.7 E5394.74359
G0 F6000 X13 Y69.7
G1 F2400 X12.999 Y-69.698 E5403.43683
G0 F6000 X13.499 Y-69.698
G1 F2400 X13.5 Y69.7 E5412.13001
G0 F6000 X14 Y69.7
G1 F2400 X13.999 Y-69.698 E5420.82325
G0 F6000 X14.499 Y-69.698
G1 F2400 X14.5 Y69.7 E5429.51643
G0 F6000 X15 Y69.7
G1 F2400 X14.999 Y-69.698 E5438.20968
G0 F6000 X15.499 Y-69.698
G1 F2400 X15.5 Y69.7 E5446.90286
G0 F6000 X16 Y69.7
G1 F2400 X15.999 Y-69.698 E5455.5961
G0 F6000 X16.499 Y-69.698
G1 F2400 X16.5 Y69.7 E5464.28928
G0 F6000 X17 Y69.7
G1 F2400 X16.999 Y-69.698 E5472.98252
G0 F6000 X17.499 Y-69.698
G1 F2400 X17.5 Y69.7 E5481.67571
G0 F6000 X18 Y69.7
G1 F2400 X17.999 Y-69.698 E5490.36895
G0 F6000 X18.499 Y-69.698
G1 F2400 X18.5 Y69.7 E5499.06213
G0 F6000 X19 Y69.7
G1 F2400 X18.999 Y-69.698 E5507.75537
G0 F6000 X19.499 Y-69.698
G1 F2400 X19.5 Y69.7 E5516.44855
G0 F6000 X20 Y69.7
G1 F2400 X19.999 Y-69.698 E5525.1418
G0 F6000 X20.499 Y-69.698
G1 F2400 X20.5 Y69.7 E5533.83498
G0 F6000 X21 Y69.7
G1 F2400 X20.999 Y-69.698 E5542.52822
G0 F6000 X21.499 Y-69.698
G1 F2400 X21.5 Y69.7 E5551.2214
G0 F6000 X22 Y69.7
G1 F2400 X21.999 Y-69.698 E5559.91464
G0 F6000 X22.499 Y-69.698
G1 F2400 X22.5 Y69.7 E5568.60782
G0 F6000 X23 Y69.7
G1 F2400 X22.999 Y-69.698 E5577.30107
G0 F6000 X23.499 Y-69.698
G1 F2400 X23.5 Y69.7 E5585.99425
G0 F6000 X24 Y69.7
G1 F2400 X23.999 Y-69.698 E5594.68749
G0 F6000 X24.499 Y-69.698
G1 F2400 X24.5 Y69.7 E5603.38067
G0 F6000 X25 Y69.7
G1 F2400 X24.999 Y-69.698 E5612.07391
G0 F6000 X25.499 Y-69.698
G1 F2400 X25.5 Y69.7 E5620.7671
G0 F6000 X26 Y69.7
G1 F2400 X25.999 Y-69.698 E5629.46034
G0 F6000 X26.499 Y-69.698
G1 F2400 X26.5 Y69.7 E5638.15352
G0 F6000 X27 Y69.7
G1 F2400 X26.999 Y-69.698 E5646.84676
G0 F6000 X27.499 Y-69.698
G1 F2400 X27.5 Y69.7 E5655.53994
G0 F6000 X28 Y69.7
G1 F2400 X27.999 Y-69.698 E5664.23319
G0 F6000 X28.499 Y-69.698
G1 F2400 X28.5 Y69.7 E5672.92637
G0 F6000 X29 Y69.7
G1 F2400 X28.999 Y-69.698 E5681.61961
G0 F6000 X29.499 Y-69.698
G1 F2400 X29.5 Y69.7 E5690.31279
G0 F6000 X30 Y69.7
G1 F2400 X29.999 Y-69.698 E5699.00603
G0 F6000 X30.499 Y-69.698
G1 F2400 X30.5 Y69.7 E5707.69921
G0 F6000 X31 Y69.7
G1 F2400 X30.999 Y-69.698 E5716.39246
G0 F6000 X31.499 Y-69.698
G1 F2400 X31.5 Y69.7 E5725.08564
G0 F6000 X32 Y69.7
G1 F2400 X31.999 Y-69.698 E5733.77888
G0 F6000 X32.499 Y-69.698
G1 F2400 X32.5 Y69.7 E5742.47206
G0 F6000 X33 Y69.7
G1 F2400 X32.999 Y-69.698 E5751.1653
G0 F6000 X33.499 Y-69.698
G1 F2400 X33.5 Y69.7 E5759.85849
G0 F6000 X34 Y69.7
G1 F2400 X33.999 Y-69.698 E5768.55173
G0 F6000 X34.499 Y-69.698
G1 F2400 X34.5 Y69.7 E5777.24491
G0 F6000 X35 Y69.7
G1 F2400 X34.999 Y-69.698 E5785.93815
G0 F6000 X35.499 Y-69.698
G1 F2400 X35.5 Y69.7 E5794.63133
G0 F6000 X36 Y69.7
G1 F2400 X35.999 Y-69.698 E5803.32458
G0 F6000 X36.499 Y-69.698
G1 F2400 X36.5 Y69.7 E5812.01776
G0 F6000 X37 Y69.7
G1 F2400 X36.999 Y-69.698 E5820.711
G0 F6000 X37.499 Y-69.698
G1 F2400 X37.5 Y69.7 E5829.40418
G0 F6000 X38 Y69.7
G1 F2400 X37.999 Y-69.698 E5838.09742
G0 F6000 X38.499 Y-69.698
G1 F2400 X38.5 Y69.7 E5846.7906
G0 F6000 X39 Y69.7
G1 F2400 X38.999 Y-69.698 E5855.48385
G0 F6000 X39.499 Y-69.698
G1 F2400 X39.5 Y69.7 E5864.17703
G0 F6000 X40 Y69.7
G1 F2400 X39.999 Y-69.698 E5872.87027
G0 F6000 X40.499 Y-69.698
G1 F2400 X40.5 Y69.7 E5881.56345
G0 F6000 X41 Y69.7
G1 F2400 X40.999 Y-69.698 E5890.2567
G0 F6000 X41.499 Y-69.698
G1 F2400 X41.5 Y69.7 E5898.94988
G0 F6000 X42 Y69.7
G1 F2400 X41.999 Y-69.698 E5907.64312
G0 F6000 X42.499 Y-69.698
G1 F2400 X42.5 Y69.7 E5916.3363
G0 F6000 X43 Y69.7
G1 F2400 X42.999 Y-69.698 E5925.02954
G0 F6000 X43.499 Y-69.698
G1 F2400 X43.5 Y69.7 E5933.72272
G0 F6000 X44 Y69.7
G1 F2400 X43.999 Y-69.698 E5942.41597
G0 F6000 X44.499 Y-69.698
G1 F2400 X44.5 Y69.7 E5951.10915
G0 F6000 X45 Y69.7
G1 F2400 X44.999 Y-69.698 E5959.80239
G0 F6000 X45.499 Y-69.698
G1 F2400 X45.5 Y69.7 E5968.49557
G0 F6000 X46 Y69.7
G1 F2400 X45.999 Y-69.698 E5977.18881
G0 F6000 X46.499 Y-69.698
G1 F2400 X46.5 Y69.7 E5985.88199
G0 F6000 X47 Y69.7
G1 F2400 X46.999 Y-69.698 E5994.57524
G0 F6000 X47.499 Y-69.698
G1 F2400 X47.5 Y69.7 E6003.26842
G0 F6000 X48 Y69.7
G1 F2400 X47.999 Y-69.698 E6011.96166
G0 F6000 X48.499 Y-69.698
G1 F2400 X48.5 Y69.7 E6020.65484
G0 F6000 X49 Y69.7
G1 F2400 X48.999 Y-69.698 E6029.34809
G0 F6000 X49.499 Y-69.698
G1 F2400 X49.5 Y69.7 E6038.04127
G0 F6000 X50 Y69.7
G1 F2400 X49.999 Y-69.698 E6046.73451
G0 F6000 X50.499 Y-69.698
G1 F2400 X50.5 Y69.7 E6055.42769
G0 F6000 X51 Y69.7
G1 F2400 X50.999 Y-69.698 E6064.12093
G0 F6000 X51.499 Y-69.698
G1 F2400 X51.5 Y69.7 E6072.81411
G0 F6000 X52 Y69.7
G1 F2400 X51.999 Y-69.698 E6081.50736
G0 F6000 X52.499 Y-69.698
G1 F2400 X52.5 Y69.7 E6090.20054
G0 F6000 X53 Y69.7
G1 F2400 X52.999 Y-69.698 E6098.89378
G0 F6000 X53.499 Y-69.698
G1 F2400 X53.5 Y69.7 E6107.58696
G0 F6000 X54 Y69.7
G1 F2400 X53.999 Y-69.698 E6116.2802
G0 F6000 X54.499 Y-69.698
G1 F2400 X54.5 Y69.7 E6124.97339
G0 F6000 X55 Y69.7
G1 F2400 X54.999 Y-69.698 E6133.66663
G0 F6000 X55.499 Y-69.698
G1 F2400 X55.5 Y69.7 E6142.35981
G0 F6000 X56 Y69.7
G1 F2400 X55.999 Y-69.698 E6151.05305
G0 F6000 X56.499 Y-69.698
G1 F2400 X56.5 Y69.7 E6159.74623
G0 F6000 X57 Y69.7
G1 F2400 X56.999 Y-69.698 E6168.43948
G0 F6000 X57.499 Y-69.698
G1 F2400 X57.5 Y69.7 E6177.13266
G0 F6000 X58 Y69.7
G1 F2400 X57.999 Y-69.698 E6185.8259
G0 F6000 X58.499 Y-69.698
G1 F2400 X58.5 Y69.7 E6194.51908
G0 F6000 X59 Y69.7
G1 F2400 X58.999 Y-69.698 E6203.21232
G0 F6000 X59.499 Y-69.698
G1 F2400 X59.5 Y69.699 E6211.90544
G0 F6000 X60 Y69.699
G1 F2400 X59.999 Y-69.698 E6220.59862
G0 F6000 X60.499 Y-69.698
G1 F2400 X60.5 Y69.699 E6229.29174
G0 F6000 X61 Y69.699
G1 F2400 X60.999 Y-69.698 E6237.98492
G0 F6000 X61.499 Y-69.698
G1 F2400 X61.5 Y69.699 E6246.67804
G0 F6000 X62 Y69.699
G1 F2400 X61.999 Y-69.698 E6255.37122
G0 F6000 X62.499 Y-69.698
G1 F2400 X62.5 Y69.699 E6264.06434
G0 F6000 X63 Y69.699
G1 F2400 X62.999 Y-69.698 E6272.75752
G0 F6000 X63.499 Y-69.698
G1 F2400 X63.5 Y69.699 E6281.45064
G0 F6000 X64 Y69.699
G1 F2400 X63.999 Y-69.698 E6290.14382
G0 F6000 X64.499 Y-69.698
G1 F2400 X64.5 Y69.699 E6298.83694
G0 F6000 X65 Y69.699
G1 F2400 X64.999 Y-69.698 E6307.53012
G0 F6000 X65.499 Y-69.698
G1 F2400 X65.5 Y69.699 E6316.22324
G0 F6000 X66 Y69.699
G1 F2400 X65.999 Y-69.698 E6324.91642
G0 F6000 X66.499 Y-69.698
G1 F2400 X66.5 Y69.699 E6333.60954
G0 F6000 X67 Y69.699
G1 F2400 X66.999 Y-69.698 E6342.30272
G0 F6000 X67.499 Y-69.698
G1 F2400 X67.5 Y69.699 E6350.99583
G0 F6000 X68 Y69.699
G1 F2400 X67.999 Y-69.698 E6359.68901
G0 F6000 X68.499 Y-69.698
G1 F2400 X68.5 Y69.699 E6368.38213
G0 F6000 X69 Y69.699
G1 F2400 X68.999 Y-69.698 E6377.07531
G0 F6000 X69.499 Y-69.698
G1 F2400 X69.5 Y69.699 E6385.76843
G0 F6000 X70 Y69.699
G1 F2400 X69.999 Y-69.698 E6394.46161
G0 F6000 X70.499 Y-69.698
G1 F2400 X70.5 Y69.699 E6403.15473
G0 F6000 X71 Y69.699
G1 F2400 X70.999 Y-69.698 E6411.84791
G0 F6000 X71.499 Y-69.698
G1 F2400 X71.5 Y69.699 E6420.54103
G0 F6000 X72 Y69.699
G1 F2400 X71.999 Y-69.698 E6429.23421
G0 F6000 X72.499 Y-69.698
G1 F2400 X72.5 Y69.699 E6437.92733
G0 F6000 X73 Y69.699
G1 F2400 X72.999 Y-69.698 E6446.62051
G0 F6000 X73.499 Y-69.698
G1 F2400 X73.5 Y69.699 E6455.31363
G0 F6000 X74 Y69.699
G1 F2400 X73.999 Y-69.698 E6464.00681
G0 F6000 X74.499 Y-69.698
G1 F2400 X74.5 Y69.699 E6472.69993
G0 F6000 X75 Y69.699
G1 F2400 X74.999 Y-69.698 E6481.39311
G0 F6000 X75.499 Y-69.698
G1 F2400 X75.5 Y69.699 E6490.08623
G0 F6000 X76 Y69.699
G1 F2400 X75.999 Y-69.698 E6498.77941
G0 F6000 X76.499 Y-69.698
G1 F2400 X76.5 Y69.699 E6507.47253
G0 F6000 X77 Y69.699
G1 F2400 X76.999 Y-69.698 E6516.16571
G0 F6000 X77.499 Y-69.698
G1 F2400 X77.5 Y69.699 E6524.85882
G0 F6000 X78 Y69.699
G1 F2400 X77.999 Y-69.698 E6533.55201
G0 F6000 X78.499 Y-69.698
G1 F2400 X78.5 Y69.699 E6542.24512
G0 F6000 X79 Y69.699
G1 F2400 X78.999 Y-69.698 E6550.9383
G0 F6000 X79.499 Y-69.698
G1 F2400 X79.5 Y69.699 E6559.63142
G0 F6000 X80 Y69.699
G1 F2400 X79.999 Y-69.698 E6568.3246
G0 F6000 X80.499 Y-69.698
G1 F2400 X80.5 Y69.699 E6577.01772
G0 F6000 X81 Y69.699
G1 F2400 X80.999 Y-69.698 E6585.7109
G0 F6000 X81.499 Y-69.698
G1 F2400 X81.5 Y69.699 E6594.40402
G0 F6000 X82 Y69.699
G1 F2400 X81.999 Y-69.698 E6603.0972
G0 F6000 X82.499 Y-69.698
G1 F2400 X82.5 Y69.699 E6611.79032
G0 F6000 X83 Y69.699
G1 F2400 X82.999 Y-69.698 E6620.4835
G0 F6000 X83.499 Y-69.698
G1 F2400 X83.5 Y69.699 E6629.17662
G0 F6000 X84 Y69.699
G1 F2400 X83.999 Y-69.698 E6637.8698
G0 F6000 X84.499 Y-69.698
G1 F2400 X84.5 Y69.699 E6646.56292
G0 F6000 X85 Y69.699
G1 F2400 X84.999 Y-69.698 E6655.2561
G0 F6000 X85.499 Y-69.698
G1 F2400 X85.5 Y69.699 E6663.94922
G0 F6000 X86 Y69.699
G1 F2400 X85.999 Y-69.698 E6672.6424
G0 F6000 X86.499 Y-69.698
G1 F2400 X86.5 Y69.699 E6681.33552
G0 F6000 X87 Y69.699
G1 F2400 X86.999 Y-69.698 E6690.0287
G0 F6000 X87.499 Y-69.698
G1 F2400 X87.5 Y69.699 E6698.72182
G0 F6000 X88 Y69.699
G1 F2400 X87.999 Y-69.698 E6707.415
G0 F6000 X88.499 Y-69.698
G1 F2400 X88.5 Y69.699 E6716.10811
G0 F6000 X89 Y69.699
G1 F2400 X88.999 Y-69.698 E6724.80129
G0 F6000 X89.499 Y-69.698
G1 F2400 X89.5 Y69.699 E6733.49441
G0 F6000 X90 Y69.699
G1 F2400 X89.999 Y-69.698 E6742.18759
G0 F6000 X90.499 Y-69.698
G1 F2400 X90.5 Y69.699 E6750.88071
G0 F6000 X91 Y69.699
G1 F2400 X90.999 Y-69.698 E6759.57389
G0 F6000 X91.499 Y-69.698
G1 F2400 X91.5 Y69.699 E6768.26701
G0 F6000 X92 Y69.699
G1 F2400 X91.999 Y-69.698 E6776.96019
G0 F6000 X92.499 Y-69.698
G1 F2400 X92.5 Y69.699 E6785.65331
G0 F6000 X93 Y69.699
G1 F2400 X92.999 Y-69.698 E6794.34649
G0 F6000 X93.499 Y-69.698
G1 F2400 X93.5 Y69.699 E6803.03961
G0 F6000 X94 Y69.699
G1 F2400 X93.999 Y-69.698 E6811.73279
G0 F6000 X94.499 Y-69.698
G1 F2400 X94.5 Y69.699 E6820.42591
; LAYER:2
M106 S153
G0 F6000 X94.985 Y69.89 Z0.9
; TYPE:WALL-INNER
G1 F2400 X-94.983 Y69.89 E6832.27284
G1 X-94.983 Y-69.889 E6840.98984
G1 X94.985 Y-69.889 E6852.8367
G1 X94.985 Y69.89 E6861.55365
G0 F6000 X95.485 Y70.39
; TYPE:WALL-OUTER
G1 F2100 X-95.483 Y70.39 E6873.46294
G1 X-95.483 Y-70.389 E6882.2423
G1 X95.485 Y-70.389 E6894.15153
G1 X95.485 Y70.39 E6902.93083
G0 F6000 X94.795 Y69.5
; TYPE:FILL
G1 F2400 X-94.793 Y69.5 E6914.75406
G0 F6000 X-94.793 Y69
G1 F2400 X94.795 Y69 E6926.57723
G0 F6000 X94.795 Y68.5
G1 F2400 X-94.793 Y68.5 E6938.40046
G0 F6000 X-94.793 Y68
G1 F2400 X94.795 Y68 E6950.22363
G0 F6000 X94.795 Y67.5
G1 F2400 X-94.793 Y67.5 E6962.04686
G0 F6000 X-94.793 Y67
G1 F2400 X94.795 Y67 E6973.87002
G0 F6000 X94.795 Y66.5
G1 F2400 X-94.793 Y66.5 E6985.69325
G0 F6000 X-94.793 Y66
G1 F2400 X94.795 Y66 E6997.51642
G0 F6000 X94.795 Y65.499
G1 F2400 X-94.793 Y65.5 E7009.33965
G0 F6000 X-94.793 Y65
G1 F2400 X94.795 Y64.999 E7021.16282
G0 F6000 X94.795 Y64.499
G1 F2400 X-94.793 Y64.5 E7032.98605
G0 F6000 X-94.793 Y64
G1 F2400 X94.795 Y63.999 E7044.80921
G0 F6000 X94.795 Y63.499
G1 F2400 X-94.793 Y63.5 E7056.63244
G0 F6000 X-94.793 Y63
G1 F2400 X94.795 Y62.999 E7068.45561
G0 F6000 X94.795 Y62.499
G1 F2400 X-94.793 Y62.5 E7080.27884
G0 F6000 X-94.793 Y62
G1 F2400 X94.795 Y61.999 E7092.10201
G0 F6000 X94.795 Y61.499
G1 F2400 X-94.793 Y61.5 E7103.92524
G0 F6000 X-94.793 Y61
G1 F2400 X94.795 Y60.999 E7115.74841
G0 F6000 X94.795 Y60.499
G1 F2400 X-94.793 Y60.5 E7127.57164
G0 F6000 X-94.793 Y60
G1 F2400 X94.795 Y59.999 E7139.3948
G0 F6000 X94.795 Y59.499
G1 F2400 X-94.793 Y59.5 E7151.21803
G0 F6000 X-94.793 Y59
G1 F2400 X94.795 Y58.999 E7163.0412
G0 F6000 X94.795 Y58.499
G1 F2400 X-94.793 Y58.5 E7174.86443
G0 F6000 X-94.793 Y58
G1 F2400 X94.795 Y57.999 E7186.6876
G0 F6000 X94.795 Y57.499
G1 F2400 X-94.793 Y57.5 E7198.51083
G0 F6000 X-94.793 Y57
G1 F2400 X94.795 Y56.999 E7210.33399
G0 F6000 X94.795 Y56.499
G1 F2400 X-94.793 Y56.5 E7222.15722
G0 F6000 X-94.793 Y56
G1 F2400 X94.795 Y55.999 E7233.98039
G0 F6000 X94.795 Y55.499
G1 F2400 X-94.793 Y55.5 E7245.80362
G0 F6000 X-94.793 Y55
G1 F2400 X94.795 Y54.999 E7257.62679
G0 F6000 X94.795 Y54.499
G1 F2400 X-94.793 Y54.5 E7269.45002
G0 F6000 X-94.793 Y54
G1 F2400 X94.795 Y53.999 E7281.27318
G0 F6000 X94.795 Y53.499
G1 F2400 X-94.793 Y53.5 E7293.09641
G0 F6000 X-94.793 Y53
G1 F2400 X94.795 Y52.999 E7304.91958
G0 F6000 X94.795 Y52.499
G1 F2400 X-94.793 Y52.5 E7316.74281
G0 F6000 X-94.793 Y52
G1 F2400 X94.795 Y51.999 E7328.56598
G0 F6000 X94.795 Y51.499
G1 F2400 X-94.793 Y51.5 E7340.38921
G0 F6000 X-94.793 Y51
G1 F2400 X94.795 Y50.999 E7352.21238
G0 F6000 X94.795 Y50.499
G1 F2400 X-94.793 Y50.5 E7364.0356
G0 F6000 X-94.793 Y50
G1 F2400 X94.795 Y49.999 E7375.85877
G0 F6000 X94.795 Y49.499
G1 F2400 X-94.793 Y49.5 E7387.682
G0 F6000 X-94.793 Y49
G1 F2400 X94.795 Y48.999 E7399.50517
G0 F6000 X94.795 Y48.499
G1 F2400 X-94.793 Y48.5 E7411.3284
G0 F6000 X-94.793 Y48
G1 F2400 X94.795 Y47.999 E7423.15157
G0 F6000 X94.795 Y47.499
G1 F2400 X-94.793 Y47.5 E7434.9748
G0 F6000 X-94.793 Y47
G1 F2400 X94.795 Y46.999 E7446.79796
G0 F6000 X94.795 Y46.499
G1 F2400 X-94.793 Y46.5 E7458.62119
G0 F6000 X-94.793 Y46
G1 F2400 X94.795 Y45.999 E7470.44436
G0 F6000 X94.795 Y45.499
G1 F2400 X-94.793 Y45.5 E7482.26759
G0 F6000 X-94.793 Y45
G1 F2400 X94.795 Y44.999 E7494.09076
G0 F6000 X94.795 Y44.499
G1 F2400 X-94.793 Y44.5 E7505.91399
G0 F6000 X-94.793 Y44
G1 F2400 X94.795 Y43.999 E7517.73715
G0 F6000 X94.795 Y43.499
G1 F2400 X-94.793 Y43.5 E7529.56038
G0 F6000 X-94.793 Y43
G1 F2400 X94.795 Y42.999 E7541.38355
G0 F6000 X94.795 Y42.499
G1 F2400 X-94.793 Y42.5 E7553.20678
G0 F6000 X-94.793 Y42
G1 F2400 X94.795 Y41.999 E7565.02995
G0 F6000 X94.795 Y41.499
G1 F2400 X-94.793 Y41.5 E7576.85318
G0 F6000 X-94.793 Y41
G1 F2400 X94.795 Y40.999 E7588.67634
G0 F6000 X94.795 Y40.499
G1 F2400 X-94.793 Y40.5 E7600.49957
G0 F6000 X-94.793 Y40
G1 F2400 X94.795 Y39.999 E7612.32274
G0 F6000 X94.795 Y39.499
G1 F2400 X-94.793 Y39.5 E7624.14597
G0 F6000 X-94.793 Y39
G1 F2400 X94.795 Y38.999 E7635.96914
G0 F6000 X94.795 Y38.499
G1 F2400 X-94.793 Y38.5 E7647.79237
G0 F6000 X-94.793 Y38
G1 F2400 X94.795 Y37.999 E7659.61554
G0 F6000 X94.795 Y37.499
G1 F2400 X-94.793 Y37.5 E7671.43877
G0 F6000 X-94.793 Y37
G1 F2400 X94.795 Y36.999 E7683.26193
G0 F6000 X94.795 Y36.499
G1 F2400 X-94.793 Y36.5 E7695.08516
G0 F6000 X-94.793 Y36
G1 F2400 X94.795 Y35.999 E7706.90833
G0 F6000 X94.795 Y35.499
G1 F2400 X-94.793 Y35.5 E7718.73156
G0 F6000 X-94.793 Y35
G1 F2400 X94.795 Y34.999 E7730.55473
G0 F6000 X94.795 Y34.499
G1 F2400 X-94.793 Y34.5 E7742.37796
G0 F6000 X-94.793 Y34
G1 F2400 X94.795 Y33.999 E7754.20112
G0 F6000 X94.795 Y33.499
G1 F2400 X-94.793 Y33.5 E7766.02435
G0 F6000 X-94.793 Y33
G1 F2400 X94.795 Y32.999 E7777.84752
G0 F6000 X94.795 Y32.499
G1 F2400 X-94.793 Y32.5 E7789.67075
G0 F6000 X-94.793 Y32
G1 F2400 X94.795 Y31.999 E7801.49392
G0 F6000 X94.795 Y31.499
G1 F2400 X-94.793 Y31.5 E7813.31715
G0 F6000 X-94.793 Y31
G1 F2400 X94.795 Y30.999 E7825.14031
G0 F6000 X94.795 Y30.499
G1 F2400 X-94.793 Y30.5 E7836.96354
G0 F6000 X-94.793 Y30
G1 F2400 X94.795 Y29.999 E7848.78671
G0 F6000 X94.795 Y29.499
G1 F2400 X-94.793 Y29.5 E7860.60994
G0 F6000 X-94.793 Y29
G1 F2400 X94.795 Y28.999 E7872.43311
G0 F6000 X94.795 Y28.499
G1 F2400 X-94.793 Y28.5 E7884.25634
G0 F6000 X-94.793 Y28
G1 F2400 X94.795 Y27.999 E7896.07951
G0 F6000 X94.795 Y27.499
G1 F2400 X-94.793 Y27.5 E7907.90273
G0 F6000 X-94.793 Y27
G1 F2400 X94.795 Y26.999 E7919.7259
G0 F6000 X94.795 Y26.499
G1 F2400 X-94.793 Y26.5 E7931.54913
G0 F6000 X-94.793 Y26
G1 F2400 X94.795 Y25.999 E7943.3723
G0 F6000 X94.795 Y25.499
G1 F2400 X-94.793 Y25.5 E7955.19553
G0 F6000 X-94.793 Y25
G1 F2400 X94.795 Y24.999 E7967.0187
G0 F6000 X94.795 Y24.499
G1 F2400 X-94.793 Y24.5 E7978.84193
G0 F6000 X-94.793 Y24
G1 F2400 X94.795 Y23.999 E7990.66509
G0 F6000 X94.795 Y23.499
G1 F2400 X-94.793 Y23.5 E8002.48832
G0 F6000 X-94.793 Y23
G1 F2400 X94.795 Y22.999 E8014.31149
G0 F6000 X94.795 Y22.499
G1 F2400 X-94.793 Y22.5 E8026.13472
G0 F6000 X-94.793 Y22
G1 F2400 X94.795 Y21.999 E8037.95789
G0 F6000 X94.795 Y21.499
G1 F2400 X-94.793 Y21.5 E8049.78112
G0 F6000 X-94.793 Y21
G1 F2400 X94.795 Y20.999 E8061.60428
G0 F6000 X94.795 Y20.499
G1 F2400 X-94.793 Y20.5 E8073.42751
G0 F6000 X-94.793 Y20
G1 F2400 X94.795 Y19.999 E8085.25068
G0 F6000 X94.795 Y19.499
G1 F2400 X-94.793 Y19.5 E8097.07391
G0 F6000 X-94.793 Y19
G1 F2400 X94.795 Y18.999 E8108.89708
G0 F6000 X94.795 Y18.499
G1 F2400 X-94.793 Y18.5 E8120.72031
G0 F6000 X-94.793 Y18
G1 F2400 X94.795 Y17.999 E8132.54347
G0 F6000 X94.795 Y17.499
G1 F2400 X-94.793 Y17.5 E8144.3667
G0 F6000 X-94.793 Y17
G1 F2400 X94.795 Y16.999 E8156.18987
G0 F6000 X94.795 Y16.499
G1 F2400 X-94.793 Y16.5 E8168.0131
G0 F6000 X-94.793 Y16
G1 F2400 X94.795 Y15.999 E8179.83627
G0 F6000 X94.795 Y15.499
G1 F2400 X-94.793 Y15.5 E8191.6595
G0 F6000 X-94.793 Y15
G1 F2400 X94.795 Y14.999 E8203.48267
G0 F6000 X94.795 Y14.499
G1 F2400 X-94.793 Y14.5 E8215.3059
G0 F6000 X-94.793 Y14
G1 F2400 X94.795 Y13.999 E8227.12906
G0 F6000 X94.795 Y13.499
G1 F2400 X-94.793 Y13.5 E8238.95229
G0 F6000 X-94.793 Y13
G1 F2400 X94.795 Y12.999 E8250.77546
G0 F6000 X94.795 Y12.499
G1 F2400 X-94.793 Y12.5 E8262.59869
G0 F6000 X-94.793 Y12
G1 F2400 X94.795 Y11.999 E8274.42186
G0 F6000 X94.795 Y11.499
G1 F2400 X-94.793 Y11.5 E8286.24509
G0 F6000 X-94.793 Y11
G1 F2400 X94.795 Y10.999 E8298.06825
G0 F6000 X94.795 Y10.499
G1 F2400 X-94.793 Y10.5 E8309.89148
G0 F6000 X-94.793 Y10
G1 F2400 X94.795 Y9.999 E8321.71465
G0 F6000 X94.795 Y9.499
G1 F2400 X-94.793 Y9.5 E8333.53788
G0 F6000 X-94.793 Y9
G1 F2400 X94.795 Y8.999 E8345.36105
G0 F6000 X94.795 Y8.499
G1 F2400 X-94.793 Y8.5 E8357.18428
G0 F6000 X-94.793 Y8
G1 F2400 X94.795 Y7.999 E8369.00744
G0 F6000 X94.795 Y7.499
G1 F2400 X-94.793 Y7.5 E8380.83067
G0 F6000 X-94.793 Y7
G1 F2400 X94.795 Y6.999 E8392.65384
G0 F6000 X94.795 Y6.499
G1 F2400 X-94.793 Y6.5 E8404.47707
G0 F6000 X-94.793 Y6
G1 F2400 X94.795 Y5.999 E8416.30024
G0 F6000 X94.795 Y5.499
G1 F2400 X-94.793 Y5.5 E8428.12347
G0 F6000 X-94.793 Y5
G1 F2400 X94.795 Y4.999 E8439.94663
G0 F6000 X94.795 Y4.499
G1 F2400 X-94.793 Y4.5 E8451.76986
G0 F6000 X-94.793 Y4
G1 F2400 X94.795 Y3.999 E8463.59303
G0 F6000 X94.795 Y3.499
G1 F2400 X-94.793 Y3.5 E8475.41626
G0 F6000 X-94.793 Y3
G1 F2400 X94.795 Y2.999 E8487.23943
G0 F6000 X94.795 Y2.499
G1 F2400 X-94.793 Y2.5 E8499.06266
G0 F6000 X-94.793 Y2
G1 F2400 X94.795 Y1.999 E8510.88583
G0 F6000 X94.795 Y1.499
G1 F2400 X-94.793 Y1.5 E8522.70906
G0 F6000 X-94.793 Y1
G1 F2400 X94.795 Y0.999 E8534.53222
G0 F6000 X94.795 Y0.499
G1 F2400 X-94.793 Y0.5 E8546.35545
G0 F6000 X-94.793 Y0
G1 F2400 X94.795 Y0 E8558.17862
G0 F6000 X94.795 Y-0.5
G1 F2400 X-94.793 Y-0.499 E8570.00185
G0 F6000 X-94.793 Y-0.999
G1 F2400 X94.795 Y-1 E8581.82502
G0 F6000 X94.795 Y-1.5
G1 F2400 X-94.793 Y-1.499 E8593.64825
G0 F6000 X-94.793 Y-1.999
G1 F2400 X94.795 Y-2 E8605.47141
G0 F6000 X94.795 Y-2.5
G1 F2400 X-94.793 Y-2.499 E8617.29464
G0 F6000 X-94.793 Y-2.999
G1 F2400 X94.795 Y-3 E8629.11781
G0 F6000 X94.795 Y-3.5
G1 F2400 X-94.793 Y-3.499 E8640.94104
G0 F6000 X-94.793 Y-3.999
G1 F2400 X94.795 Y-4 E8652.76421
G0 F6000 X94.795 Y-4.5
G1 F2400 X-94.793 Y-4.499 E8664.58744
G0 F6000 X-94.793 Y-4.999
G1 F2400 X94.795 Y-5 E8676.4106
G0 F6000 X94.795 Y-5.5
G1 F2400 X-94.793 Y-5.499 E8688.23383
G0 F6000 X-94.793 Y-5.999
G1 F2400 X94.795 Y-6 E8700.057
G0 F6000 X94.795 Y-6.5
G1 F2400 X-94.793 Y-6.499 E8711.88023
G0 F6000 X-94.793 Y-6.999
G1 F2400 X94.795 Y-7 E8723.7034
G0 F6000 X94.795 Y-7.5
G1 F2400 X-94.793 Y-7.499 E8735.52663
G0 F6000 X-94.793 Y-7.999
G1 F2400 X94.795 Y-8 E8747.3498
G0 F6000 X94.795 Y-8.5
G1 F2400 X-94.793 Y-8.499 E8759.17302
G0 F6000 X-94.793 Y-8.999
G1 F2400 X94.795 Y-9 E8770.99619
G0 F6000 X94.795 Y-9.5
G1 F2400 X-94.793 Y-9.499 E8782.81942
G0 F6000 X-94.793 Y-9.999
G1 F2400 X94.795 Y-10 E8794.64259
G0 F6000 X94.795 Y-10.5
G1 F2400 X-94.793 Y-10.499 E8806.46582
G0 F6000 X-94.793 Y-10.999
G1 F2400 X94.795 Y-11 E8818.28899
G0 F6000 X94.795 Y-11.5
G1 F2400 X-94.793 Y-11.499 E8830.11222
G0 F6000 X-94.793 Y-11.999
G1 F2400 X94.795 Y-12 E8841.93538
G0 F6000 X94.795 Y-12.5
G1 F2400 X-94.793 Y-12.499 E8853.75861
G0 F6000 X-94.793 Y-12.999
G1 F2400 X94.795 Y-13 E8865.58178
G0 F6000 X94.795 Y-13.5
G1 F2400 X-94.793 Y-13.499 E8877.40501
G0 F6000 X-94.793 Y-13.999
G1 F2400 X94.795 Y-14 E8889.22818
G0 F6000 X94.795 Y-14.5
G1 F2400 X-94.793 Y-14.499 E8901.05141
G0 F6000 X-94.793 Y-14.999
G1 F2400 X94.795 Y-15 E8912.87457
G0 F6000 X94.795 Y-15.5
G1 F2400 X-94.793 Y-15.499 E8924.6978
G0 F6000 X-94.793 Y-15.999
G1 F2400 X94.795 Y-16 E8936.52097
G0 F6000 X94.795 Y-16.5
G1 F2400 X-94.793 Y-16.499 E8948.3442
G0 F6000 X-94.793 Y-16.999
G1 F2400 X94.795 Y-17 E8960.16737
G0 F6000 X94.795 Y-17.5
G1 F2400 X-94.793 Y-17.499 E8971.9906
G0 F6000 X-94.793 Y-17.999
G1 F2400 X94.795 Y-18 E8983.81376
G0 F6000 X94.795 Y-18.5
G1 F2400 X-94.793 Y-18.499 E8995.63699
G0 F6000 X-94.793 Y-18.999
G1 F2400 X94.795 Y-19 E9007.46016
G0 F6000 X94.795 Y-19.5
G1 F2400 X-94.793 Y-19.499 E9019.28339
G0 F6000 X-94.793 Y-19.999
G1 F2400 X94.795 Y-20 E9031.10656
G0 F6000 X94.795 Y-20.5
G1 F2400 X-94.793 Y-20.499 E9042.92979
G0 F6000 X-94.793 Y-20.999
G1 F2400 X94.795 Y-21 E9054.75296
G0 F6000 X94.795 Y-21.5
G1 F2400 X-94.793 Y-21.499 E9066.57619
G0 F6000 X-94.793 Y-21.999
G1 F2400 X94.795 Y-22 E9078.39935
G0 F6000 X94.795 Y-22.5
G1 F2400 X-94.793 Y-22.499 E9090.22258
G0 F6000 X-94.793 Y-22.999
G1 F2400 X94.795 Y-23 E9102.04575
G0 F6000 X94.795 Y-23.5
G1 F2400 X-94.793 Y-23.499 E9113.86898
G0 F6000 X-94.793 Y-23.999
G1 F2400 X94.795 Y-24 E9125.69215
G0 F6000 X94.795 Y-24.5
G1 F2400 X-94.793 Y-24.499 E9137.51538
G0 F6000 X-94.793 Y-24.999
G1 F2400 X94.795 Y-25 E9149.33854
G0 F6000 X94.795 Y-25.5
G1 F2400 X-94.793 Y-25.499 E9161.16177
G0 F6000 X-94.793 Y-25.999
G1 F2400 X94.795 Y-26 E9172.98494
G0 F6000 X94.795 Y-26.5
G1 F2400 X-94.793 Y-26.499 E9184.80817
G0 F6000 X-94.793 Y-26.999
G1 F2400 X94.795 Y-27 E9196.63134
G0 F6000 X94.795 Y-27.5
G1 F2400 X-94.793 Y-27.499 E9208.45457
G0 F6000 X-94.793 Y-27.999
G1 F2400 X94.795 Y-28 E9220.27773
G0 F6000 X94.795 Y-28.5
G1 F2400 X-94.793 Y-28.499 E9232.10096
G0 F6000 X-94.793 Y-28.999
G1 F2400 X94.795 Y-29 E9243.92413
G0 F6000 X94.795 Y-29.5
G1 F2400 X-94.793 Y-29.499 E9255.74736
G0 F6000 X-94.793 Y-29.999
G1 F2400 X94.795 Y-30 E9267.57053
G0 F6000 X94.795 Y-30.5
G1 F2400 X-94.793 Y-30.499 E9279.39376
G0 F6000 X-94.793 Y-30.999
G1 F2400 X94.795 Y-31 E9291.21693
G0 F6000 X94.795 Y-31.5
G1 F2400 X-94.793 Y-31.499 E9303.04015
G0 F6000 X-94.793 Y-31.999
G1 F2400 X94.795 Y-32 E9314.86332
G0 F6000 X94.795 Y-32.5
G1 F2400 X-94.793 Y-32.499 E9326.68655
G0 F6000 X-94.793 Y-32.999
G1 F2400 X94.795 Y-33 E9338.50972
G0 F6000 X94.795 Y-33.5
G1 F2400 X-94.793 Y-33.499 E9350.33295
G0 F6000 X-94.793 Y-33.999
G1 F2400 X94.795 Y-34 E9362.15612
G0 F6000 X94.795 Y-34.5
G1 F2400 X-94.793 Y-34.499 E9373.97935
G0 F6000 X-94.793 Y-34.999
G1 F2400 X94.795 Y-35 E9385.80251
G0 F6000 X94.795 Y-35.5
G1 F2400 X-94.793 Y-35.499 E9397.62574
G0 F6000 X-94.793 Y-35.999
G1 F2400 X94.795 Y-36 E9409.44891
G0 F6000 X94.795 Y-36.5
G1 F2400 X-94.793 Y-36.499 E9421.27214
G0 F6000 X-94.793 Y-36.999
G1 F2400 X94.795 Y-37 E9433.09531
G0 F6000 X94.795 Y-37.5
G1 F2400 X-94.793 Y-37.499 E9444.91854
G0 F6000 X-94.793 Y-37.999
G1 F2400 X94.795 Y-38 E9456.7417
G0 F6000 X94.795 Y-38.5
G1 F2400 X-94.793 Y-38.499 E9468.56493
G0 F6000 X-94.793 Y-38.999
G1 F2400 X94.795 Y-39 E9480.3881
G0 F6000 X94.795 Y-39.5
G1 F2400 X-94.793 Y-39.499 E9492.21133
G0 F6000 X-94.793 Y-39.999
G1 F2400 X94.795 Y-40 E9504.0345
G0 F6000 X94.795 Y-40.5
G1 F2400 X-94.793 Y-40.499 E9515.85773
G0 F6000 X-94.793 Y-40.999
G1 F2400 X94.795 Y-41 E9527.68089
G0 F6000 X94.795 Y-41.5
G1 F2400 X-94.793 Y-41.499 E9539.50412
G0 F6000 X-94.793 Y-41.999
G1 F2400 X94.795 Y-42 E9551.32729
G0 F6000 X94.795 Y-42.5
G1 F2400 X-94.793 Y-42.499 E9563.15052
G0 F6000 X-94.793 Y-42.999
G1 F2400 X94.795 Y-43 E9574.97369
G0 F6000 X94.795 Y-43.5
G1 F2400 X-94.793 Y-43.499 E9586.79692
G0 F6000 X-94.793 Y-43.999
G1 F2400 X94.795 Y-44 E9598.62009
G0 F6000 X94.795 Y-44.5
G1 F2400 X-94.793 Y-44.499 E9610.44332
G0 F6000 X-94.793 Y-44.999
G1 F2400 X94.795 Y-45 E9622.26648
G0 F6000 X94.795 Y-45.5
G1 F2400 X-94.793 Y-45.499 E9634.08971
G0 F6000 X-94.793 Y-45.999
G1 F2400 X94.795 Y-46 E9645.91288
G0 F6000 X94.795 Y-46.5
G1 F2400 X-94.793 Y-46.499 E9657.73611
G0 F6000 X-94.793 Y-46.999
G1 F2400 X94.795 Y-47 E9669.55928
G0 F6000 X94.795 Y-47.5
G1 F2400 X-94.793 Y-47.499 E9681.38251
G0 F6000 X-94.793 Y-47.999
G1 F2400 X94.795 Y-48 E9693.20567
G0 F6000 X94.795 Y-48.5
G1 F2400 X-94.793 Y-48.499 E9705.0289
G0 F6000 X-94.793 Y-48.999
G1 F2400 X94.795 Y-49 E9716.85207
G0 F6000 X94.795 Y-49.5
G1 F2400 X-94.793 Y-49.499 E9728.6753
G0 F6000 X-94.793 Y-49.999
G1 F2400 X94.795 Y-50 E9740.49847
G0 F6000 X94.795 Y-50.5
G1 F2400 X-94.793 Y-50.499 E9752.3217
G0 F6000 X-94.793 Y-50.999
G1 F2400 X94.795 Y-51 E9764.14486
G0 F6000 X94.795 Y-51.5
G1 F2400 X-94.793 Y-51.499 E9775.96809
G0 F6000 X-94.793 Y-51.999
G1 F2400 X94.795 Y-52 E9787.79126
G0 F6000 X94.795 Y-52.5
G1 F2400 X-94.793 Y-52.499 E9799.61449
G0 F6000 X-94.793 Y-52.999
G1 F2400 X94.795 Y-53 E9811.43766
G0 F6000 X94.795 Y-53.5
G1 F2400 X-94.793 Y-53.499 E9823.26089
G0 F6000 X-94.793 Y-53.999
G1 F2400 X94.795 Y-54 E9835.08406
G0 F6000 X94.795 Y-54.5
G1 F2400 X-94.793 Y-54.499 E9846.90728
G0 F6000 X-94.793 Y-54.999
G1 F2400 X94.795 Y-55 E9858.73045
G0 F6000 X94.795 Y-55.5
G1 F2400 X-94.793 Y-55.499 E9870.55368
G0 F6000 X-94.793 Y-55.999
G1 F2400 X94.795 Y-56 E9882.37685
G0 F6000 X94.795 Y-56.5
G1 F2400 X-94.793 Y-56.499 E9894.20008
G0 F6000 X-94.793 Y-56.999
G1 F2400 X94.795 Y-57 E9906.02325
G0 F6000 X94.795 Y-57.5
G1 F2400 X-94.793 Y-57.499 E9917.84648
G0 F6000 X-94.793 Y-57.999
G1 F2400 X94.795 Y-58 E9929.66964
G0 F6000 X94.795 Y-58.5
G1 F2400 X-94.793 Y-58.499 E9941.49287
G0 F6000 X-94.793 Y-58.999
G1 F2400 X94.795 Y-59 E9953.31604
G0 F6000 X94.795 Y-59.5
G1 F2400 X-94.793 Y-59.499 E9965.13927
G0 F6000 X-94.793 Y-59.999
G1 F2400 X94.795 Y-60 E9976.96244
G0 F6000 X94.795 Y-60.5
G1 F2400 X-94.793 Y-60.499 E9988.78567
G0 F6000 X-94.793 Y-60.999
G1 F2400 X94.795 Y-61 E10000.60883
G0 F6000 X94.795 Y-61.5
G1 F2400 X-94.793 Y-61.499 E10012.43206
G0 F6000 X-94.793 Y-61.999
G1 F2400 X94.795 Y-62 E10024.25523
G0 F6000 X94.795 Y-62.5
G1 F2400 X-94.793 Y-62.499 E10036.07846
G0 F6000 X-94.793 Y-62.999
G1 F2400 X94.795 Y-63 E10047.90163
G0 F6000 X94.795 Y-63.5
G1 F2400 X-94.793 Y-63.499 E10059.72486
G0 F6000 X-94.793 Y-63.999
G1 F2400 X94.795 Y-64 E10071.54802
G0 F6000 X94.795 Y-64.5
G1 F2400 X-94.793 Y-64.499 E10083.37125
G0 F6000 X-94.793 Y-64.999
G1 F2400 X94.795 Y-65 E10095.19442
G0 F6000 X94.795 Y-65.5
G1 F2400 X-94.793 Y-65.499 E10107.01765
G0 F6000 X-94.793 Y-66
G1 F2400 X94.795 Y-66 E10118.84082
G0 F6000 X94.795 Y-66.5
G1 F2400 X-94.793 Y-66.5 E10130.66405
G0 F6000 X-94.793 Y-67
G1 F2400 X94.795 Y-67 E10142.48722
G0 F6000 X94.795 Y-67.5
G1 F2400 X-94.793 Y-67.5 E10154.31045
G0 F6000 X-94.793 Y-68
G1 F2400 X94.795 Y-68 E10166.13361
G0 F6000 X94.795 Y-68.5
G1 F2400 X-94.793 Y-68.5 E10177.95684
G0 F6000 X-94.793 Y-69
G1 F2400 X94.795 Y-69 E10189.78001
G0 F6000 X94.795 Y-69.5
G1 F2400 X-94.793 Y-69.5 E10201.60324
; LAYER:3
G0 F6000 X-94.983 Y-69.889 Z1.2
; TYPE:WALL-INNER
G1 F2400 X94.985 Y-69.889 E10213.4501
G1 X94.985 Y69.89 E10222.16704
G1 X-94.983 Y69.89 E10234.01397
G1 X-94.983 Y-69.889 E10242.73098
G0 F6000 X-95.483 Y-70.389
; TYPE:WALL-OUTER
G1 F2100 X95.485 Y-70.389 E10254.6402
G1 X95.485 Y70.39 E10263.41951
G1 X-95.483 Y70.39 E10275.3288
G1 X-95.483 Y-70.389 E10284.10816
G0 F6000 X-94.42 Y-69.698
; TYPE:FILL
G1 F2400 X-94.792 Y-69.053 E10284.15458
G0 F6000 X-94.5 Y-69.009
G1 F2400 X-94.499 Y69.449 E10292.78914
G0 F6000 X-94.42 Y69.699
G1 F2400 X-94.792 Y68.679 E10292.8356
G1 X-94.608 Y67.931 E10292.85855
G1 X-94.423 Y66.778 E10292.90457
G1 X-94.608 Y66.5 E10292.9276
G1 X-94.793 Y65.347 E10292.97363
G1 X-94.608 Y64.599 E10292.99659
G1 X-94.423 Y63.447 E10293.04257
G1 X-94.608 Y63.168 E10293.06558
G1 X-94.793 Y62.015 E10293.11161
G1 X-94.608 Y61.267 E10293.13457
G1 X-94.423 Y60.114 E10293.18059
G1 X-94.608 Y59.836 E10293.20362
G1 X-94.792 Y58.683 E10293.24964
G1 X-94.608 Y57.935 E10293.2726
G1 X-94.423 Y56.782 E10293.31861
G1 X-94.608 Y56.504 E10293.34164
G1 X-94.793 Y55.351 E10293.38767
G1 X-94.608 Y54.604 E10293.41061
G1 X-94.423 Y53.451 E10293.45663
G1 X-94.608 Y53.172 E10293.47963
G1 X-94.792 Y52.019 E10293.52565
G1 X-94.608 Y51.271 E10293.54861
G1 X-94.423 Y50.118 E10293.59463
G1 X-94.608 Y49.84 E10293.61765
G1 X-94.793 Y48.687 E10293.66369
G1 X-94.608 Y47.939 E10293.68665
G1 X-94.423 Y46.787 E10293.73263
G1 X-94.608 Y46.508 E10293.75563
G1 X-94.792 Y45.356 E10293.80162
G1 X-94.608 Y44.607 E10293.8246
G1 X-94.423 Y43.454 E10293.87062
G1 X-94.608 Y43.176 E10293.89365
G1 X-94.792 Y42.023 E10293.93967
G1 X-94.608 Y41.275 E10293.96263
G1 X-94.423 Y40.123 E10294.00861
G1 X-94.608 Y39.844 E10294.03161
G1 X-94.792 Y38.692 E10294.07759
G1 X-94.608 Y37.944 E10294.10055
G1 X-94.423 Y36.791 E10294.14657
G1 X-94.608 Y36.512 E10294.16957
G1 X-94.792 Y35.359 E10294.21559
G1 X-94.608 Y34.611 E10294.23855
G1 X-94.423 Y33.458 E10294.28457
G1 X-94.608 Y33.18 E10294.3076
G1 X-94.792 Y32.028 E10294.35358
G1 X-94.608 Y31.279 E10294.37657
G1 X-94.423 Y30.127 E10294.42255
G1 X-94.608 Y29.848 E10294.44555
G1 X-94.792 Y28.696 E10294.49153
G1 X-94.608 Y27.947 E10294.51452
G1 X-94.423 Y26.794 E10294.56054
G1 X-94.608 Y26.516 E10294.58357
G1 X-94.793 Y25.363 E10294.6296
G1 X-94.608 Y24.615 E10294.65256
G1 X-94.423 Y23.463 E10294.69854
G1 X-94.608 Y23.184 E10294.72154
G1 X-94.792 Y22.032 E10294.76753
G1 X-94.608 Y21.283 E10294.79051
G1 X-94.423 Y20.131 E10294.83649
G1 X-94.608 Y19.852 E10294.85949
G1 X-94.792 Y18.699 E10294.90552
G1 X-94.608 Y17.951 E10294.92847
G1 X-94.423 Y16.799 E10294.97445
G1 X-94.608 Y16.52 E10294.99745
G1 X-94.792 Y15.368 E10295.04344
G1 X-94.608 Y14.62 E10295.0664
G1 X-94.423 Y13.467 E10295.11241
G1 X-94.608 Y13.189 E10295.13544
G1 X-94.792 Y12.036 E10295.18147
G1 X-94.608 Y11.287 E10295.20445
G1 X-94.423 Y10.134 E10295.25047
G1 X-94.608 Y9.856 E10295.2735
G1 X-94.792 Y8.704 E10295.31948
G1 X-94.608 Y7.955 E10295.34247
G1 X-94.423 Y6.803 E10295.38845
G1 X-94.608 Y6.524 E10295.41145
G1 X-94.792 Y5.372 E10295.45744
G1 X-94.608 Y4.623 E10295.48042
G1 X-94.423 Y3.47 E10295.52644
G1 X-94.608 Y3.192 E10295.54947
G1 X-94.792 Y2.04 E10295.59545
G1 X-94.608 Y1.291 E10295.61844
G1 X-94.423 Y0.139 E10295.66442
G1 X-94.608 Y-0.139 E10295.68745
G1 X-94.792 Y-1.291 E10295.73332
G1 X-94.608 Y-2.039 E10295.75631
G1 X-94.423 Y-3.192 E10295.80222
G1 X-94.608 Y-3.47 E10295.82522
G1 X-94.792 Y-4.623 E10295.87114
G1 X-94.608 Y-5.371 E10295.89412
G1 X-94.423 Y-6.524 E10295.94004
G1 X-94.608 Y-6.802 E10295.96304
G1 X-94.792 Y-7.955 E10296.00896
G1 X-94.608 Y-8.703 E10296.03194
G1 X-94.423 Y-9.856 E10296.07785
G1 X-94.608 Y-10.134 E10296.10085
G1 X-94.792 Y-11.287 E10296.14677
G1 X-94.608 Y-12.035 E10296.16976
G1 X-94.423 Y-13.188 E10296.21567
G1 X-94.608 Y-13.466 E10296.23867
G1 X-94.792 Y-14.619 E10296.28459
G1 X-94.608 Y-15.367 E10296.30757
G1 X-94.423 Y-16.52 E10296.35348
G1 X-94.608 Y-16.798 E10296.37649
G1 X-94.792 Y-17.951 E10296.4224
G1 X-94.608 Y-18.699 E10296.44539
G1 X-94.423 Y-19.852 E10296.4913
G1 X-94.608 Y-20.13 E10296.5143
G1 X-94.792 Y-21.283 E10296.56022
G1 X-94.608 Y-22.031 E10296.5832
G1 X-94.423 Y-23.184 E10296.62912
G1 X-94.608 Y-23.462 E10296.65212
G1 X-94.792 Y-24.615 E10296.69804
G1 X-94.608 Y-25.363 E10296.72102
G1 X-94.423 Y-26.516 E10296.76693
G1 X-94.608 Y-26.794 E10296.78993
G1 X-94.792 Y-27.946 E10296.83581
G1 X-94.608 Y-28.695 E10296.85873
G1 X-94.423 Y-29.848 E10296.90464
G1 X-94.608 Y-30.126 E10296.92764
G1 X-94.792 Y-31.279 E10296.97356
G1 X-94.608 Y-32.027 E10296.99655
G1 X-94.423 Y-33.18 E10297.04246
G1 X-94.608 Y-33.458 E10297.06546
G1 X-94.792 Y-34.611 E10297.11138
G1 X-94.608 Y-35.359 E10297.13436
G1 X-94.423 Y-36.512 E10297.18027
G1 X-94.608 Y-36.79 E10297.20328
G1 X-94.792 Y-37.943 E10297.24919
G1 X-94.608 Y-38.691 E10297.27218
G1 X-94.423 Y-39.844 E10297.31809
G1 X-94.608 Y-40.122 E10297.34109
G1 X-94.792 Y-41.275 E10297.38701
G1 X-94.608 Y-42.023 E10297.40999
G1 X-94.423 Y-43.176 E10297.45591
G1 X-94.608 Y-43.454 E10297.47891
G1 X-94.792 Y-44.606 E10297.52479
G1 X-94.608 Y-45.355 E10297.5477
G1 X-94.423 Y-46.508 E10297.59362
G1 X-94.608 Y-46.786 E10297.61662
G1 X-94.792 Y-47.939 E10297.66254
G1 X-94.608 Y-48.687 E10297.68552
G1 X-94.423 Y-49.84 E10297.73143
G1 X-94.608 Y-50.118 E10297.75443
G1 X-94.792 Y-51.27 E10297.80031
G1 X-94.608 Y-52.019 E10297.82323
G1 X-94.423 Y-53.172 E10297.86914
G1 X-94.608 Y-53.45 E10297.89214
G1 X-94.792 Y-54.603 E10297.93806
G1 X-94.608 Y-55.351 E10297.96104
G1 X-94.423 Y-56.504 E10298.00696
G1 X-94.608 Y-56.782 E10298.02996
G1 X-94.792 Y-57.934 E10298.07584
G1 X-94.608 Y-58.683 E10298.09875
G1 X-94.423 Y-59.836 E10298.14467
G1 X-94.608 Y-60.114 E10298.16767
G1 X-94.792 Y-61.266 E10298.21355
G1 X-94.608 Y-62.015 E10298.23646
G1 X-94.423 Y-63.168 E10298.28238
G1 X-94.608 Y-63.446 E10298.30538
G1 X-94.792 Y-64.598 E10298.35126
G1 X-94.608 Y-65.347 E10298.37417
G1 X-94.423 Y-66.5 E10298.42009
G1 X-94.608 Y-66.778 E10298.44309
G1 X-94.792 Y-67.931 E10298.48901
G1 X-94.424 Y-68.306 E10298.52177
G0 F6000 X-94 Y-69.009
G1 F2400 X-93.999 Y69.449 E10307.15633
G0 F6000 X-93.891 Y69.329
G1 F2400 X-94.105 Y69.699 E10307.18302
G0 F6000 X-93.499 Y69.449
G1 F2400 X-93.5 Y-69.009 E10315.81764
G0 F6000 X-93.637 Y-68.889
G1 F2400 X-94.104 Y-69.698 E10315.87598
G0 F6000 X-93 Y-69.009
G1 F2400 X-92.999 Y69.449 E10324.51054
G0 F6000 X-92.71 Y69.329
G1 F2400 X-92.496 Y69.699 E10324.53717
G0 F6000 X-92.499 Y69.449
G1 F2400 X-92.5 Y-69.009 E10333.17179
G0 F6000 X-92.964 Y-68.889
G1 F2400 X-92.339 Y-69.698 E10333.22994
G1 X-91.714 Y-68.89 E10333.29356
G0 F6000 X-91.5 Y-69.009
G1 F2400 X-91.499 Y69.449 E10341.92812
G0 F6000 X-91.968 Y69.33
G1 F2400 X-92.182 Y69.7 E10341.9548
G0 F6000 X-91.999 Y69.449
G1 F2400 X-92 Y-69.009 E10350.58943
G0 F6000 X-91.04 Y-68.889
G1 F2400 X-90.415 Y-69.698 E10350.64758
G1 X-89.79 Y-68.89 E10350.7112
G0 F6000 X-90 Y-69.009
G1 F2400 X-89.999 Y69.449 E10359.34576
G0 F6000 X-90.044 Y69.33
G1 F2400 X-90.415 Y69.699 E10359.37242
G1 X-90.786 Y69.329 E10359.40514
G0 F6000 X-90.999 Y69.449
G1 F2400 X-91 Y-69.009 E10368.03976
G0 F6000 X-90.5 Y-69.009
G1 F2400 X-90.499 Y69.449 E10376.67432
G0 F6000 X-89.499 Y69.449
G1 F2400 X-89.5 Y-69.009 E10385.30894
G0 F6000 X-89.116 Y-68.889
G1 F2400 X-88.491 Y-69.698 E10385.3671
G1 X-87.866 Y-68.89 E10385.43072
G0 F6000 X-88 Y-69.009
G1 F2400 X-87.999 Y69.449 E10394.06527
G0 F6000 X-88.12 Y69.329
G1 F2400 X-88.334 Y69.699 E10394.09196
G0 F6000 X-88.499 Y69.449
G1 F2400 X-88.5 Y-69.009 E10402.72658
G0 F6000 X-89 Y-69.009
G1 F2400 X-88.999 Y69.449 E10411.36114
G0 F6000 X-88.862 Y69.329
G1 F2400 X-88.648 Y69.699 E10411.38777
G0 F6000 X-87.499 Y69.449
G1 F2400 X-87.5 Y-69.009 E10420.02239
G0 F6000 X-87.193 Y-68.888
G1 F2400 X-86.568 Y-69.697 E10420.08054
G1 X-85.943 Y-68.889 E10420.14416
G0 F6000 X-86 Y-69.009
G1 F2400 X-85.999 Y69.449 E10428.77872
G0 F6000 X-86.197 Y69.329
G1 F2400 X-86.41 Y69.699 E10428.80538
G0 F6000 X-86.499 Y69.449
G1 F2400 X-86.5 Y-69.009 E10437.44
G0 F6000 X-87 Y-69.009
G1 F2400 X-86.999 Y69.449 E10446.07456
G0 F6000 X-86.939 Y69.328
G1 F2400 X-86.725 Y69.699 E10446.10124
G0 F6000 X-85.499 Y69.449
G1 F2400 X-85.5 Y-69.009 E10454.73586
G0 F6000 X-85.269 Y-68.889
G1 F2400 X-84.644 Y-69.697 E10454.79397
G1 X-84.019 Y-68.889 E10454.85758
G0 F6000 X-84 Y-69.009
G1 F2400 X-83.999 Y69.449 E10463.49214
G0 F6000 X-84.273 Y69.329
G1 F2400 X-84.486 Y69.699 E10463.5188
G0 F6000 X-84.499 Y69.449
G1 F2400 X-84.5 Y-69.009 E10472.15342
G0 F6000 X-85 Y-69.009
G1 F2400 X-84.999 Y69.449 E10480.78798
G0 F6000 X-85.015 Y69.329
G1 F2400 X-84.801 Y69.699 E10480.81461
G0 F6000 X-83.499 Y69.449
G1 F2400 X-83.5 Y-69.009 E10489.44923
G0 F6000 X-83.345 Y-68.889
G1 F2400 X-82.72 Y-69.698 E10489.50738
G1 X-82.095 Y-68.889 E10489.57105
G0 F6000 X-82 Y-69.009
G1 F2400 X-81.999 Y69.449 E10498.20561
G0 F6000 X-82.349 Y69.329
G1 F2400 X-82.563 Y69.699 E10498.23229
G0 F6000 X-82.499 Y69.449
G1 F2400 X-82.5 Y-69.009 E10506.86692
G0 F6000 X-83 Y-69.009
G1 F2400 X-82.999 Y69.449 E10515.50148
G0 F6000 X-83.091 Y69.329
G1 F2400 X-82.877 Y69.699 E10515.5281
G0 F6000 X-81.499 Y69.449
G1 F2400 X-81.5 Y-69.009 E10524.16272
G0 F6000 X-81.421 Y-68.889
G1 F2400 X-80.796 Y-69.698 E10524.22088
G1 X-80.171 Y-68.889 E10524.28454
G0 F6000 X-80 Y-69.009
G1 F2400 X-79.999 Y69.449 E10532.9191
G0 F6000 X-80.425 Y69.329
G1 F2400 X-80.639 Y69.699 E10532.94579
G0 F6000 X-80.499 Y69.449
G1 F2400 X-80.5 Y-69.009 E10541.58041
G0 F6000 X-81 Y-69.009
G1 F2400 X-80.999 Y69.449 E10550.21497
G0 F6000 X-81.167 Y69.329
G1 F2400 X-80.953 Y69.699 E10550.2416
G0 F6000 X-79.499 Y69.449
G1 F2400 X-79.5 Y-69.009 E10558.87622
G0 F6000 X-79.497 Y-68.889
G1 F2400 X-78.872 Y-69.698 E10558.93437
G1 X-78.247 Y-68.889 E10558.99804
G0 F6000 X-78 Y-69.009
G1 F2400 X-77.999 Y69.449 E10567.6326
G0 F6000 X-78.499 Y69.449
G1 F2400 X-78.5 Y-69.009 E10576.26722
G0 F6000 X-79 Y-69.009
G1 F2400 X-78.999 Y69.449 E10584.90178
G0 F6000 X-79.03 Y69.699
G1 F2400 X-78.979 Y69.514 E10584.92848
G1 X-78.501 Y69.329 E10584.96038
G0 F6000 X-77.499 Y69.449
G1 F2400 X-77.5 Y-69.009 E10593.59501
G0 F6000 X-77.574 Y-68.889
G1 F2400 X-76.949 Y-69.698 E10593.65316
G1 X-76.324 Y-68.89 E10593.71678
G0 F6000 X-76.5 Y-69.009
G1 F2400 X-76.499 Y69.449 E10602.35134
G0 F6000 X-76.578 Y69.33
G1 F2400 X-76.949 Y69.699 E10602.378
G1 X-77.32 Y69.329 E10602.41072
G0 F6000 X-76.999 Y69.449
G1 F2400 X-77 Y-69.009 E10611.04534
G0 F6000 X-76 Y-69.009
G1 F2400 X-75.999 Y69.449 E10619.6799
G0 F6000 X-75.499 Y69.449
G1 F2400 X-75.5 Y-69.009 E10628.31452
G0 F6000 X-75.65 Y-68.889
G1 F2400 X-75.025 Y-69.698 E10628.37268
G1 X-74.4 Y-68.89 E10628.43629
G0 F6000 X-74.5 Y-69.009
G1 F2400 X-74.499 Y69.449 E10637.07085
G0 F6000 X-74.654 Y69.33
G1 F2400 X-74.868 Y69.699 E10637.09749
G0 F6000 X-74.999 Y69.449
G1 F2400 X-75 Y-69.009 E10645.73211
G0 F6000 X-74 Y-69.009
G1 F2400 X-73.999 Y69.449 E10654.36667
G0 F6000 X-73.499 Y69.449
G1 F2400 X-73.5 Y-69.009 E10663.00129
G0 F6000 X-73.727 Y-68.888
G1 F2400 X-73.102 Y-69.697 E10663.05945
G1 X-72.477 Y-68.889 E10663.12306
G0 F6000 X-72.5 Y-69.009
G1 F2400 X-72.499 Y69.449 E10671.75762
G0 F6000 X-72.731 Y69.329
G1 F2400 X-72.944 Y69.699 E10671.78428
G0 F6000 X-72.999 Y69.449
G1 F2400 X-73 Y-69.009 E10680.4189
G0 F6000 X-72 Y-69.009
G1 F2400 X-71.999 Y69.449 E10689.05346
G0 F6000 X-71.549 Y69.328
G1 F2400 X-71.335 Y69.699 E10689.08014
G0 F6000 X-71.499 Y69.449
G1 F2400 X-71.5 Y-69.009 E10697.71476
G0 F6000 X-71.803 Y-68.889
G1 F2400 X-71.178 Y-69.697 E10697.77287
G1 X-70.553 Y-68.889 E10697.83649
G0 F6000 X-70.5 Y-69.009
G1 F2400 X-70.499 Y69.449 E10706.47105
G0 F6000 X-70.807 Y69.329
G1 F2400 X-71.02 Y69.699 E10706.4977
G0 F6000 X-70.999 Y69.449
G1 F2400 X-71 Y-69.009 E10715.13232
G0 F6000 X-70 Y-69.009
G1 F2400 X-69.999 Y69.449 E10723.76688
G0 F6000 X-69.625 Y69.329
G1 F2400 X-69.411 Y69.699 E10723.79351
G0 F6000 X-69.499 Y69.449
G1 F2400 X-69.5 Y-69.009 E10732.42813
G0 F6000 X-69.879 Y-68.889
G1 F2400 X-69.254 Y-69.698 E10732.48628
G1 X-68.629 Y-68.889 E10732.54995
G0 F6000 X-68.5 Y-69.009
G1 F2400 X-68.499 Y69.449 E10741.18451
G0 F6000 X-68.883 Y69.329
G1 F2400 X-69.096 Y69.699 E10741.21116
G0 F6000 X-68.999 Y69.449
G1 F2400 X-69 Y-69.009 E10749.84579
G0 F6000 X-68 Y-69.009
G1 F2400 X-67.999 Y69.449 E10758.48035
G0 F6000 X-67.701 Y69.329
G1 F2400 X-67.487 Y69.699 E10758.50697
G0 F6000 X-67.499 Y69.449
G1 F2400 X-67.5 Y-69.009 E10767.14159
G0 F6000 X-67.955 Y-68.889
G1 F2400 X-67.33 Y-69.698 E10767.19975
G1 X-66.705 Y-68.889 E10767.26341
G0 F6000 X-66.5 Y-69.009
G1 F2400 X-66.499 Y69.449 E10775.89797
G0 F6000 X-66.959 Y69.329
G1 F2400 X-67.173 Y69.699 E10775.92466
G0 F6000 X-66.999 Y69.449
G1 F2400 X-67 Y-69.009 E10784.55928
G0 F6000 X-66.031 Y-68.889
G1 F2400 X-65.406 Y-69.698 E10784.61744
G1 X-64.781 Y-68.889 E10784.6811
G0 F6000 X-65 Y-69.009
G1 F2400 X-64.999 Y69.449 E10793.31566
G0 F6000 X-65.035 Y69.329
G1 F2400 X-65.406 Y69.699 E10793.3423
G1 X-65.777 Y69.329 E10793.37502
G0 F6000 X-65.999 Y69.449
G1 F2400 X-66 Y-69.009 E10802.00964
G0 F6000 X-65.5 Y-69.009
G1 F2400 X-65.499 Y69.449 E10810.6442
G0 F6000 X-64.499 Y69.449
G1 F2400 X-64.5 Y-69.009 E10819.27882
G0 F6000 X-64.108 Y-68.889
G1 F2400 X-63.483 Y-69.698 E10819.33697
G1 X-62.858 Y-68.889 E10819.40064
G0 F6000 X-63 Y-69.009
G1 F2400 X-62.999 Y69.449 E10828.0352
G0 F6000 X-63.112 Y69.329
G1 F2400 X-63.326 Y69.699 E10828.06189
G0 F6000 X-63.499 Y69.449
G1 F2400 X-63.5 Y-69.009 E10836.69651
G0 F6000 X-64 Y-69.009
G1 F2400 X-63.999 Y69.449 E10845.33107
G0 F6000 X-63.854 Y69.329
G1 F2400 X-63.64 Y69.699 E10845.35769
G0 F6000 X-62.499 Y69.449
G1 F2400 X-62.5 Y-69.009 E10853.99231
G0 F6000 X-62.184 Y-68.889
G1 F2400 X-61.559 Y-69.698 E10854.05047
G1 X-60.934 Y-68.89 E10854.11409
G0 F6000 X-61 Y-69.009
G1 F2400 X-60.999 Y69.449 E10862.74864
G0 F6000 X-61.188 Y69.33
G1 F2400 X-61.402 Y69.699 E10862.77528
G0 F6000 X-61.499 Y69.449
G1 F2400 X-61.5 Y-69.009 E10871.4099
G0 F6000 X-62 Y-69.009
G1 F2400 X-61.999 Y69.449 E10880.04446
G0 F6000 X-61.93 Y69.329
G1 F2400 X-61.716 Y69.699 E10880.07108
G0 F6000 X-60.499 Y69.449
G1 F2400 X-60.5 Y-69.009 E10888.70571
G0 F6000 X-60.26 Y-68.889
G1 F2400 X-59.635 Y-69.698 E10888.76386
G1 X-59.01 Y-68.89 E10888.82748
G0 F6000 X-59 Y-69.01
G1 F2400 X-58.999 Y69.449 E10897.4621
G0 F6000 X-59.264 Y69.329
G1 F2400 X-59.478 Y69.699 E10897.48879
G0 F6000 X-59.499 Y69.449
G1 F2400 X-59.5 Y-69.009 E10906.12341
G0 F6000 X-60 Y-69.009
G1 F2400 X-59.999 Y69.449 E10914.75797
G0 F6000 X-60.006 Y69.329
G1 F2400 X-59.793 Y69.699 E10914.78456
G0 F6000 X-58.499 Y69.449
G1 F2400 X-58.5 Y-69.01 E10923.41925
G0 F6000 X-58.337 Y-68.888
G1 F2400 X-57.712 Y-69.697 E10923.4774
G1 X-57.087 Y-68.889 E10923.54102
G0 F6000 X-57 Y-69.01
G1 F2400 X-56.999 Y69.449 E10932.17564
G0 F6000 X-57.341 Y69.329
G1 F2400 X-57.554 Y69.699 E10932.20229
G0 F6000 X-57.499 Y69.449
G1 F2400 X-57.5 Y-69.01 E10940.83698
G0 F6000 X-58 Y-69.01
G1 F2400 X-57.999 Y69.449 E10949.4716
G0 F6000 X-58.083 Y69.328
G1 F2400 X-57.869 Y69.699 E10949.49828
G0 F6000 X-56.499 Y69.449
G1 F2400 X-56.5 Y-69.01 E10958.13296
G0 F6000 X-56.413 Y-68.889
G1 F2400 X-55.788 Y-69.697 E10958.19107
G1 X-55.163 Y-68.889 E10958.25469
G0 F6000 X-55 Y-69.01
G1 F2400 X-54.999 Y69.449 E10966.88931
G0 F6000 X-55.417 Y69.329
G1 F2400 X-55.63 Y69.699 E10966.91597
G0 F6000 X-55.499 Y69.449
G1 F2400 X-55.5 Y-69.01 E10975.55065
G0 F6000 X-56 Y-69.01
G1 F2400 X-55.999 Y69.449 E10984.18527
G0 F6000 X-56.159 Y69.329
G1 F2400 X-55.945 Y69.699 E10984.2119
G0 F6000 X-54.499 Y69.449
G1 F2400 X-54.5 Y-69.01 E10992.84658
G0 F6000 X-54.489 Y-68.889
G1 F2400 X-53.864 Y-69.698 E10992.90474
G1 X-53.239 Y-68.889 E10992.9684
G0 F6000 X-53 Y-69.01
G1 F2400 X-52.999 Y69.449 E11001.60302
G0 F6000 X-53.499 Y69.449
G1 F2400 X-53.5 Y-69.01 E11010.23771
G0 F6000 X-54 Y-69.01
G1 F2400 X-53.999 Y69.449 E11018.87233
G0 F6000 X-54.021 Y69.699
G1 F2400 X-53.971 Y69.514 E11018.89899
G1 X-53.493 Y69.329 E11018.9309
G0 F6000 X-52.499 Y69.449
G1 F2400 X-52.5 Y-69.01 E11027.56558
G0 F6000 X-52.565 Y-68.889
G1 F2400 X-51.94 Y-69.698 E11027.62374
G1 X-51.315 Y-68.889 E11027.6874
G0 F6000 X-51.5 Y-69.01
G1 F2400 X-51.499 Y69.449 E11036.32203
G0 F6000 X-51.569 Y69.329
G1 F2400 X-51.94 Y69.699 E11036.34866
G1 X-52.311 Y69.329 E11036.38138
G0 F6000 X-51.999 Y69.449
G1 F2400 X-52 Y-69.01 E11045.01606
G0 F6000 X-51 Y-69.01
G1 F2400 X-50.999 Y69.449 E11053.65069
G0 F6000 X-50.499 Y69.449
G1 F2400 X-50.5 Y-69.01 E11062.28537
G0 F6000 X-50.642 Y-68.889
G1 F2400 X-50.016 Y-69.698 E11062.34356
G1 X-49.391 Y-68.889 E11062.40723
G0 F6000 X-49.5 Y-69.01
G1 F2400 X-49.499 Y69.449 E11071.04185
G0 F6000 X-49.645 Y69.329
G1 F2400 X-49.859 Y69.699 E11071.06853
G0 F6000 X-49.999 Y69.449
G1 F2400 X-50 Y-69.01 E11079.70322
G0 F6000 X-49 Y-69.01
G1 F2400 X-48.999 Y69.449 E11088.33784
G0 F6000 X-48.499 Y69.449
G1 F2400 X-48.5 Y-69.01 E11096.97253
G0 F6000 X-48.718 Y-68.889
G1 F2400 X-48.093 Y-69.698 E11097.03068
G1 X-47.468 Y-68.889 E11097.09435
G0 F6000 X-47.5 Y-69.01
G1 F2400 X-47.499 Y69.449 E11105.72897
G0 F6000 X-47.722 Y69.33
G1 F2400 X-47.936 Y69.699 E11105.7556
G0 F6000 X-47.999 Y69.449
G1 F2400 X-48 Y-69.01 E11114.39029
G0 F6000 X-47 Y-69.01
G1 F2400 X-46.999 Y69.449 E11123.02491
G0 F6000 X-46.54 Y69.329
G1 F2400 X-46.326 Y69.699 E11123.05153
G0 F6000 X-46.499 Y69.449
G1 F2400 X-46.5 Y-69.01 E11131.68622
G0 F6000 X-46.794 Y-68.889
G1 F2400 X-46.169 Y-69.698 E11131.74437
G1 X-45.544 Y-68.89 E11131.80799
G0 F6000 X-45.5 Y-69.01
G1 F2400 X-45.499 Y69.449 E11140.44261
G0 F6000 X-45.798 Y69.33
G1 F2400 X-46.012 Y69.699 E11140.46924
G0 F6000 X-45.999 Y69.449
G1 F2400 X-46 Y-69.01 E11149.10393
G0 F6000 X-45 Y-69.01
G1 F2400 X-44.999 Y69.449 E11157.73855
G0 F6000 X-44.616 Y69.329
G1 F2400 X-44.403 Y69.699 E11157.76514
G0 F6000 X-44.499 Y69.449
G1 F2400 X-44.5 Y-69.01 E11166.39983
G0 F6000 X-44.87 Y-68.889
G1 F2400 X-44.245 Y-69.698 E11166.45798
G1 X-43.621 Y-68.889 E11166.52161
G0 F6000 X-43.5 Y-69.01
G1 F2400 X-43.499 Y69.449 E11175.15623
G0 F6000 X-43.875 Y69.329
G1 F2400 X-44.088 Y69.699 E11175.18289
G0 F6000 X-43.999 Y69.449
G1 F2400 X-44 Y-69.01 E11183.81757
G0 F6000 X-43 Y-69.01
G1 F2400 X-42.999 Y69.449 E11192.45219
G0 F6000 X-42.693 Y69.328
G1 F2400 X-42.479 Y69.699 E11192.47887
G0 F6000 X-42.499 Y69.449
G1 F2400 X-42.5 Y-69.01 E11201.11356
G0 F6000 X-42.947 Y-68.889
G1 F2400 X-42.322 Y-69.697 E11201.17166
G1 X-41.697 Y-68.889 E11201.23528
G0 F6000 X-41.5 Y-69.01
G1 F2400 X-41.499 Y69.449 E11209.8699
G0 F6000 X-41.951 Y69.329
G1 F2400 X-42.164 Y69.699 E11209.89656
G0 F6000 X-41.999 Y69.449
G1 F2400 X-42 Y-69.01 E11218.53124
G0 F6000 X-41.023 Y-68.889
G1 F2400 X-40.398 Y-69.698 E11218.5894
G1 X-39.773 Y-68.889 E11218.65306
G0 F6000 X-40 Y-69.01
G1 F2400 X-39.999 Y69.449 E11227.28769
G0 F6000 X-40.027 Y69.329
G1 F2400 X-40.398 Y69.699 E11227.31432
G1 X-40.769 Y69.329 E11227.34704
G0 F6000 X-40.999 Y69.449
G1 F2400 X-41 Y-69.01 E11235.98172
G0 F6000 X-40.5 Y-69.01
G1 F2400 X-40.499 Y69.449 E11244.61635
G0 F6000 X-39.499 Y69.449
G1 F2400 X-39.5 Y-69.01 E11253.25103
G0 F6000 X-39.099 Y-68.889
G1 F2400 X-38.474 Y-69.698 E11253.30918
G1 X-37.849 Y-68.889 E11253.37285
G0 F6000 X-38 Y-69.01
G1 F2400 X-37.999 Y69.449 E11262.00747
G0 F6000 X-38.103 Y69.329
G1 F2400 X-38.317 Y69.699 E11262.03416
G0 F6000 X-38.499 Y69.449
G1 F2400 X-38.5 Y-69.01 E11270.66884
G0 F6000 X-39 Y-69.01
G1 F2400 X-38.999 Y69.449 E11279.30347
G0 F6000 X-38.845 Y69.329
G1 F2400 X-38.631 Y69.699 E11279.33009
G0 F6000 X-37.499 Y69.449
G1 F2400 X-37.5 Y-69.01 E11287.96478
G0 F6000 X-37.175 Y-68.889
G1 F2400 X-36.55 Y-69.698 E11288.02293
G1 X-35.925 Y-68.889 E11288.0866
G0 F6000 X-36 Y-69.01
G1 F2400 X-35.999 Y69.449 E11296.72122
G0 F6000 X-36.179 Y69.329
G1 F2400 X-36.393 Y69.699 E11296.7479
G0 F6000 X-36.499 Y69.449
G1 F2400 X-36.5 Y-69.01 E11305.38259
G0 F6000 X-37 Y-69.01
G1 F2400 X-36.999 Y69.449 E11314.01721
G0 F6000 X-36.921 Y69.329
G1 F2400 X-36.707 Y69.699 E11314.04384
G0 F6000 X-35.499 Y69.449
G1 F2400 X-35.5 Y-69.01 E11322.67852
G0 F6000 X-35.252 Y-68.889
G1 F2400 X-34.627 Y-69.698 E11322.73667
G1 X-34.002 Y-68.889 E11322.80034
G0 F6000 X-34 Y-69.01
G1 F2400 X-33.999 Y69.449 E11331.43496
G0 F6000 X-34.256 Y69.329
G1 F2400 X-34.469 Y69.699 E11331.46162
G0 F6000 X-34.499 Y69.449
G1 F2400 X-34.5 Y-69.01 E11340.0963
G0 F6000 X-35 Y-69.01
G1 F2400 X-34.999 Y69.449 E11348.73092
G0 F6000 X-34.998 Y69.329
G1 F2400 X-34.784 Y69.7 E11348.7576
G0 F6000 X-33.499 Y69.449
G1 F2400 X-33.5 Y-69.01 E11357.39229
G0 F6000 X-33.328 Y-68.889
G1 F2400 X-32.703 Y-69.698 E11357.45044
G1 X-32.078 Y-68.89 E11357.51406
G0 F6000 X-32 Y-69.01
G1 F2400 X-31.999 Y69.449 E11366.14868
G0 F6000 X-32.332 Y69.33
G1 F2400 X-32.546 Y69.699 E11366.17531
G0 F6000 X-32.499 Y69.449
G1 F2400 X-32.5 Y-69.01 E11374.81
G0 F6000 X-33 Y-69.01
G1 F2400 X-32.999 Y69.449 E11383.44462
G0 F6000 X-33.074 Y69.329
G1 F2400 X-32.86 Y69.699 E11383.47124
G0 F6000 X-31.499 Y69.449
G1 F2400 X-31.5 Y-69.01 E11392.10593
G0 F6000 X-31.404 Y-68.889
G1 F2400 X-30.779 Y-69.698 E11392.16408
G1 X-30.155 Y-68.89 E11392.22766
G0 F6000 X-30 Y-69.01
G1 F2400 X-29.999 Y69.449 E11400.86228
G0 F6000 X-30.409 Y69.329
G1 F2400 X-30.622 Y69.699 E11400.88894
G0 F6000 X-30.499 Y69.449
G1 F2400 X-30.5 Y-69.01 E11409.52362
G0 F6000 X-31 Y-69.01
G1 F2400 X-30.999 Y69.449 E11418.15824
G0 F6000 X-31.15 Y69.329
G1 F2400 X-30.937 Y69.699 E11418.18484
G0 F6000 X-29.499 Y69.449
G1 F2400 X-29.5 Y-69.01 E11426.81952
G0 F6000 X-29.48 Y-68.889
G1 F2400 X-28.855 Y-69.698 E11426.87768
G1 X-28.231 Y-68.889 E11426.9413
G0 F6000 X-28 Y-69.01
G1 F2400 X-27.999 Y69.449 E11435.57593
G0 F6000 X-28.499 Y69.449
G1 F2400 X-28.5 Y-69.01 E11444.21061
G0 F6000 X-29 Y-69.01
G1 F2400 X-28.999 Y69.449 E11452.84523
G0 F6000 X-29.013 Y69.699
G1 F2400 X-28.962 Y69.514 E11452.87193
G1 X-28.485 Y69.329 E11452.90378
G0 F6000 X-27.499 Y69.449
G1 F2400 X-27.5 Y-69.01 E11461.53846
G0 F6000 X-27.557 Y-68.889
G1 F2400 X-26.932 Y-69.697 E11461.59657
G1 X-26.307 Y-68.889 E11461.66019
G0 F6000 X-26.5 Y-69.01
G1 F2400 X-26.499 Y69.449 E11470.29481
G0 F6000 X-26.561 Y69.329
G1 F2400 X-26.931 Y69.699 E11470.32148
G1 X-27.303 Y69.329 E11470.35424
G0 F6000 X-26.999 Y69.449
G1 F2400 X-27 Y-69.01 E11478.98892
G0 F6000 X-26 Y-69.01
G1 F2400 X-25.999 Y69.449 E11487.62355
G0 F6000 X-25.499 Y69.449
G1 F2400 X-25.5 Y-69.01 E11496.25823
G0 F6000 X-25.633 Y-68.889
G1 F2400 X-25.008 Y-69.698 E11496.31638
G1 X-24.383 Y-68.889 E11496.38005
G0 F6000 X-24.5 Y-69.01
G1 F2400 X-24.499 Y69.449 E11505.01467
G0 F6000 X-24.637 Y69.329
G1 F2400 X-24.851 Y69.699 E11505.04136
G0 F6000 X-24.999 Y69.449
G1 F2400 X-25 Y-69.01 E11513.67604
G0 F6000 X-24 Y-69.01
G1 F2400 X-23.999 Y69.449 E11522.31067
G0 F6000 X-23.499 Y69.449
G1 F2400 X-23.5 Y-69.01 E11530.94535
G0 F6000 X-23.709 Y-68.889
G1 F2400 X-23.084 Y-69.698 E11531.0035
G1 X-22.459 Y-68.889 E11531.06717
G0 F6000 X-22.5 Y-69.01
G1 F2400 X-22.499 Y69.449 E11539.70179
G0 F6000 X-22.713 Y69.329
G1 F2400 X-22.927 Y69.699 E11539.72848
G0 F6000 X-22.999 Y69.449
G1 F2400 X-23 Y-69.01 E11548.36316
G0 F6000 X-22 Y-69.01
G1 F2400 X-21.999 Y69.449 E11556.99779
G0 F6000 X-21.532 Y69.329
G1 F2400 X-21.318 Y69.7 E11557.02446
G0 F6000 X-21.499 Y69.449
G1 F2400 X-21.5 Y-69.01 E11565.65915
G0 F6000 X-21.786 Y-68.889
G1 F2400 X-21.161 Y-69.698 E11565.7173
G1 X-20.536 Y-68.889 E11565.78097
G0 F6000 X-20.5 Y-69.01
G1 F2400 X-20.499 Y69.449 E11574.41559
G0 F6000 X-20.79 Y69.329
G1 F2400 X-21.003 Y69.699 E11574.44225
G0 F6000 X-20.999 Y69.449
G1 F2400 X-21 Y-69.01 E11583.07693
G0 F6000 X-20 Y-69.01
G1 F2400 X-19.999 Y69.449 E11591.71155
G0 F6000 X-19.608 Y69.329
G1 F2400 X-19.394 Y69.699 E11591.73818
G0 F6000 X-19.499 Y69.449
G1 F2400 X-19.5 Y-69.01 E11600.37286
G0 F6000 X-19.862 Y-68.889
G1 F2400 X-19.237 Y-69.698 E11600.43102
G1 X-18.612 Y-68.889 E11600.49468
G0 F6000 X-18.5 Y-69.01
G1 F2400 X-18.499 Y69.449 E11609.1293
G0 F6000 X-18.866 Y69.329
G1 F2400 X-19.079 Y69.699 E11609.15596
G0 F6000 X-18.999 Y69.449
G1 F2400 X-19 Y-69.01 E11617.79064
G0 F6000 X-18 Y-69.01
G1 F2400 X-17.999 Y69.449 E11626.42527
G0 F6000 X-17.684 Y69.329
G1 F2400 X-17.47 Y69.699 E11626.45189
G0 F6000 X-17.499 Y69.449
G1 F2400 X-17.5 Y-69.01 E11635.08658
G0 F6000 X-17.938 Y-68.889
G1 F2400 X-17.313 Y-69.698 E11635.14473
G1 X-16.688 Y-68.89 E11635.20835
G0 F6000 X-16.5 Y-69.01
G1 F2400 X-16.499 Y69.449 E11643.84297
G0 F6000 X-16.942 Y69.329
G1 F2400 X-17.156 Y69.699 E11643.86966
G0 F6000 X-16.999 Y69.449
G1 F2400 X-17 Y-69.01 E11652.50434
G0 F6000 X-16.014 Y-68.889
G1 F2400 X-15.389 Y-69.698 E11652.56249
G1 X-14.765 Y-68.889 E11652.62612
G0 F6000 X-15 Y-69.01
G1 F2400 X-14.999 Y69.449 E11661.26074
G0 F6000 X-15.019 Y69.329
G1 F2400 X-15.389 Y69.699 E11661.28741
G1 X-15.76 Y69.329 E11661.32013
G0 F6000 X-15.999 Y69.449
G1 F2400 X-16 Y-69.01 E11669.95481
G0 F6000 X-15.5 Y-69.01
G1 F2400 X-15.499 Y69.449 E11678.58943
G0 F6000 X-14.499 Y69.449
G1 F2400 X-14.5 Y-69.01 E11687.22412
G0 F6000 X-14.091 Y-68.889
G1 F2400 X-13.465 Y-69.698 E11687.28231
G1 X-12.841 Y-68.889 E11687.34593
G0 F6000 X-13 Y-69.01
G1 F2400 X-12.999 Y69.449 E11695.98056
G0 F6000 X-13.095 Y69.329
G1 F2400 X-13.308 Y69.699 E11696.00721
G0 F6000 X-13.499 Y69.449
G1 F2400 X-13.5 Y-69.01 E11704.6419
G0 F6000 X-14 Y-69.01
G1 F2400 X-13.999 Y69.449 E11713.27652
G0 F6000 X-13.837 Y69.329
G1 F2400 X-13.623 Y69.699 E11713.30314
G0 F6000 X-12.499 Y69.449
G1 F2400 X-12.5 Y-69.01 E11721.93783
G0 F6000 X-12.167 Y-68.889
G1 F2400 X-11.542 Y-69.698 E11721.99598
G1 X-10.917 Y-68.889 E11722.05965
G0 F6000 X-11 Y-69.01
G1 F2400 X-10.999 Y69.449 E11730.69427
G0 F6000 X-11.171 Y69.329
G1 F2400 X-11.385 Y69.699 E11730.72096
G0 F6000 X-11.499 Y69.449
G1 F2400 X-11.5 Y-69.01 E11739.35564
G0 F6000 X-12 Y-69.01
G1 F2400 X-11.999 Y69.449 E11747.99026
G0 F6000 X-11.913 Y69.329
G1 F2400 X-11.699 Y69.699 E11748.01689
G0 F6000 X-10.499 Y69.449
G1 F2400 X-10.5 Y-69.01 E11756.65157
G0 F6000 X-10.243 Y-68.889
G1 F2400 X-9.618 Y-69.698 E11756.70973
G1 X-8.993 Y-68.889 E11756.77339
G0 F6000 X-9 Y-69.01
G1 F2400 X-8.999 Y69.449 E11765.40801
G0 F6000 X-9.247 Y69.329
G1 F2400 X-9.461 Y69.699 E11765.4347
G0 F6000 X-9.499 Y69.449
G1 F2400 X-9.5 Y-69.01 E11774.06939
G0 F6000 X-10 Y-69.01
G1 F2400 X-9.999 Y69.449 E11782.70401
G0 F6000 X-9.989 Y69.329
G1 F2400 X-9.775 Y69.699 E11782.73063
G0 F6000 X-8.499 Y69.449
G1 F2400 X-8.5 Y-69.01 E11791.36532
G0 F6000 X-8.319 Y-68.889
G1 F2400 X-7.694 Y-69.698 E11791.42347
G1 X-7.069 Y-68.889 E11791.48714
G0 F6000 X-7 Y-69.01
G1 F2400 X-6.999 Y69.449 E11800.12176
G0 F6000 X-7.323 Y69.329
G1 F2400 X-7.537 Y69.699 E11800.14845
G0 F6000 X-7.499 Y69.449
G1 F2400 X-7.5 Y-69.01 E11808.78313
G0 F6000 X-8 Y-69.01
G1 F2400 X-7.999 Y69.449 E11817.41775
G0 F6000 X-8.065 Y69.329
G1 F2400 X-7.851 Y69.7 E11817.44443
G0 F6000 X-6.499 Y69.449
G1 F2400 X-6.5 Y-69.01 E11826.07912
G0 F6000 X-6.396 Y-68.889
G1 F2400 X-5.771 Y-69.698 E11826.13727
G1 X-5.146 Y-68.889 E11826.20094
G0 F6000 X-5 Y-69.01
G1 F2400 X-4.999 Y69.449 E11834.83556
G0 F6000 X-5.4 Y69.329
G1 F2400 X-5.613 Y69.699 E11834.86221
G0 F6000 X-5.499 Y69.449
G1 F2400 X-5.5 Y-69.01 E11843.4969
G0 F6000 X-6 Y-69.01
G1 F2400 X-5.999 Y69.449 E11852.13152
G0 F6000 X-6.142 Y69.329
G1 F2400 X-5.928 Y69.7 E11852.1582
G0 F6000 X-4.499 Y69.449
G1 F2400 X-4.5 Y-69.01 E11860.79288
G0 F6000 X-4.472 Y-68.889
G1 F2400 X-3.847 Y-69.698 E11860.85104
G1 X-3.222 Y-68.889 E11860.9147
G0 F6000 X-3 Y-69.01
G1 F2400 X-2.999 Y69.449 E11869.54932
G0 F6000 X-3.476 Y69.329
G1 F2400 X-3.847 Y69.699 E11869.57596
G1 X-4.218 Y69.329 E11869.60868
G0 F6000 X-3.999 Y69.449
G1 F2400 X-4 Y-69.01 E11878.24336
G0 F6000 X-3.5 Y-69.01
G1 F2400 X-3.499 Y69.449 E11886.87799
G0 F6000 X-2.499 Y69.449
G1 F2400 X-2.5 Y-69.01 E11895.51267
G0 F6000 X-2.548 Y-68.889
G1 F2400 X-1.923 Y-69.698 E11895.57082
G1 X-1.299 Y-68.889 E11895.63445
G0 F6000 X-1.5 Y-69.01
G1 F2400 X-1.499 Y69.449 E11904.26907
G0 F6000 X-1.553 Y69.329
G1 F2400 X-1.923 Y69.699 E11904.29574
G1 X-2.294 Y69.329 E11904.32846
G0 F6000 X-1.999 Y69.449
G1 F2400 X-2 Y-69.01 E11912.96314
G0 F6000 X-1 Y-69.01
G1 F2400 X-0.999 Y69.449 E11921.59776
G0 F6000 X-0.499 Y69.449
G1 F2400 X-0.5 Y-69.01 E11930.23245
G0 F6000 X-0.624 Y-68.889
G1 F2400 X0 Y-69.698 E11930.2907
G1 X0.624 Y-68.889 E11930.35436
G0 F6000 X0.499 Y-69.009
G1 F2400 X0.5 Y69.45 E11938.98898
G0 F6000 X0.37 Y69.329
G1 F2400 X0.157 Y69.699 E11939.01561
G0 F6000 X0 Y69.449
G1 F2400 X0 Y-69.01 E11947.65029
G0 F6000 X0.999 Y-69.009
G1 F2400 X1 Y69.45 E11956.28491
G0 F6000 X1.5 Y69.45
G1 F2400 X1.499 Y-69.009 E11964.9196
G0 F6000 X1.298 Y-68.889
G1 F2400 X1.923 Y-69.697 E11964.97774
G1 X2.548 Y-68.889 E11965.0414
G0 F6000 X2.499 Y-69.009
G1 F2400 X2.5 Y69.45 E11973.67602
G0 F6000 X2.294 Y69.329
G1 F2400 X2.081 Y69.699 E11973.70264
G0 F6000 X2 Y69.45
G1 F2400 X1.999 Y-69.009 E11982.33733
G0 F6000 X2.999 Y-69.009
G1 F2400 X3 Y69.45 E11990.97195
G0 F6000 X3.476 Y69.329
G1 F2400 X3.69 Y69.699 E11990.99861
G0 F6000 X3.5 Y69.45
G1 F2400 X3.499 Y-69.009 E11999.63329
G0 F6000 X3.222 Y-68.889
G1 F2400 X3.847 Y-69.698 E11999.69148
G1 X4.472 Y-68.889 E11999.75518
G0 F6000 X4.499 Y-69.009
G1 F2400 X4.5 Y69.45 E12008.38981
G0 F6000 X4.218 Y69.329
G1 F2400 X4.004 Y69.699 E12008.41646
G0 F6000 X4 Y69.45
G1 F2400 X3.999 Y-69.009 E12017.05115
G0 F6000 X4.999 Y-69.009
G1 F2400 X5 Y69.45 E12025.68577
G0 F6000 X5.4 Y69.329
G1 F2400 X5.614 Y69.699 E12025.71242
G0 F6000 X5.5 Y69.45
G1 F2400 X5.499 Y-69.009 E12034.34711
G0 F6000 X5.146 Y-68.889
G1 F2400 X5.771 Y-69.698 E12034.4053
G1 X6.396 Y-68.889 E12034.469
G0 F6000 X6.499 Y-69.009
G1 F2400 X6.5 Y69.45 E12043.10362
G0 F6000 X6.142 Y69.329
G1 F2400 X5.928 Y69.699 E12043.13028
G0 F6000 X6 Y69.45
G1 F2400 X5.999 Y-69.009 E12051.76496
G0 F6000 X6.999 Y-69.009
G1 F2400 X7 Y69.45 E12060.39958
G0 F6000 X7.323 Y69.329
G1 F2400 X7.537 Y69.7 E12060.42629
G0 F6000 X7.5 Y69.45
G1 F2400 X7.499 Y-69.009 E12069.06098
G0 F6000 X7.069 Y-68.889
G1 F2400 X7.694 Y-69.698 E12069.11917
G1 X8.319 Y-68.889 E12069.18287
G0 F6000 X8.499 Y-69.009
G1 F2400 X8.5 Y69.45 E12077.81749
G0 F6000 X8.065 Y69.329
G1 F2400 X7.852 Y69.699 E12077.84412
G0 F6000 X8 Y69.45
G1 F2400 X7.999 Y-69.009 E12086.4788
G0 F6000 X8.999 Y-69.009
G1 F2400 X9 Y69.45 E12095.11342
G0 F6000 X9.247 Y69.329
G1 F2400 X9.461 Y69.7 E12095.14013
G0 F6000 X9.5 Y69.45
G1 F2400 X9.499 Y-69.009 E12103.77482
G0 F6000 X9.999 Y-69.009
G1 F2400 X10 Y69.45 E12112.40944
G0 F6000 X9.989 Y69.329
G1 F2400 X9.776 Y69.699 E12112.43607
G0 F6000 X10.5 Y69.45
G1 F2400 X10.499 Y-69.009 E12121.07075
G0 F6000 X10.243 Y-68.889
G1 F2400 X9.618 Y-69.698 E12121.12894
G1 X8.993 Y-68.889 E12121.19264
G0 F6000 X10.917 Y-68.889
G1 F2400 X11.542 Y-69.698 E12121.25083
G1 X12.167 Y-68.89 E12121.31449
G0 F6000 X11.999 Y-69.009
G1 F2400 X12 Y69.45 E12129.94911
G0 F6000 X11.913 Y69.329
G1 F2400 X11.542 Y69.699 E12129.97577
G1 X11.171 Y69.329 E12130.00845
G0 F6000 X11 Y69.45
G1 F2400 X10.999 Y-69.009 E12138.64313
G0 F6000 X11.499 Y-69.009
G1 F2400 X11.5 Y69.45 E12147.27775
G0 F6000 X12.5 Y69.45
G1 F2400 X12.499 Y-69.009 E12155.91244
G0 F6000 X12.841 Y-68.889
G1 F2400 X13.465 Y-69.698 E12155.97059
G1 X14.09 Y-68.889 E12156.0343
G0 F6000 X13.999 Y-69.009
G1 F2400 X14 Y69.45 E12164.66892
G0 F6000 X13.836 Y69.329
G1 F2400 X13.623 Y69.699 E12164.69554
G0 F6000 X13.5 Y69.45
G1 F2400 X13.499 Y-69.009 E12173.33023
G0 F6000 X12.999 Y-69.009
G1 F2400 X13 Y69.45 E12181.96485
G0 F6000 X13.095 Y69.329
G1 F2400 X13.308 Y69.699 E12181.99147
G0 F6000 X14.5 Y69.45
G1 F2400 X14.499 Y-69.009 E12190.62616
G0 F6000 X14.765 Y-68.889
G1 F2400 X15.389 Y-69.698 E12190.68431
G1 X16.014 Y-68.889 E12190.74802
G0 F6000 X15.999 Y-69.009
G1 F2400 X16 Y69.45 E12199.38264
G0 F6000 X15.76 Y69.329
G1 F2400 X15.547 Y69.699 E12199.40926
G0 F6000 X15.5 Y69.45
G1 F2400 X15.499 Y-69.009 E12208.04395
G0 F6000 X14.999 Y-69.009
G1 F2400 X15 Y69.45 E12216.67857
G0 F6000 X15.019 Y69.329
G1 F2400 X15.232 Y69.699 E12216.70519
G0 F6000 X16.5 Y69.45
G1 F2400 X16.499 Y-69.009 E12225.33988
G0 F6000 X16.688 Y-68.889
G1 F2400 X17.313 Y-69.698 E12225.39807
G1 X17.938 Y-68.889 E12225.46177
G0 F6000 X17.999 Y-69.009
G1 F2400 X18 Y69.45 E12234.09639
G0 F6000 X17.684 Y69.329
G1 F2400 X17.47 Y69.699 E12234.12305
G0 F6000 X17.5 Y69.45
G1 F2400 X17.499 Y-69.009 E12242.75773
G0 F6000 X16.999 Y-69.009
G1 F2400 X17 Y69.45 E12251.39236
G0 F6000 X16.942 Y69.329
G1 F2400 X17.156 Y69.699 E12251.41901
G0 F6000 X18.5 Y69.45
G1 F2400 X18.499 Y-69.009 E12260.0537
G0 F6000 X18.612 Y-68.889
G1 F2400 X19.237 Y-69.698 E12260.11188
G1 X19.862 Y-68.889 E12260.17559
G0 F6000 X19.999 Y-69.009
G1 F2400 X20 Y69.45 E12268.81021
G0 F6000 X19.608 Y69.329
G1 F2400 X19.394 Y69.699 E12268.83687
G0 F6000 X19.5 Y69.45
G1 F2400 X19.499 Y-69.009 E12277.47155
G0 F6000 X18.999 Y-69.009
G1 F2400 X19 Y69.45 E12286.10617
G0 F6000 X18.866 Y69.329
G1 F2400 X19.08 Y69.699 E12286.13283
G0 F6000 X20.5 Y69.45
G1 F2400 X20.499 Y-69.009 E12294.76751
G0 F6000 X20.536 Y-68.889
G1 F2400 X21.161 Y-69.698 E12294.8257
G1 X21.786 Y-68.889 E12294.88941
G0 F6000 X21.999 Y-69.009
G1 F2400 X22 Y69.45 E12303.52403
G0 F6000 X21.532 Y69.329
G1 F2400 X21.318 Y69.699 E12303.55068
G0 F6000 X21.5 Y69.45
G1 F2400 X21.499 Y-69.009 E12312.18537
G0 F6000 X20.999 Y-69.009
G1 F2400 X21 Y69.45 E12320.81999
G0 F6000 X20.79 Y69.329
G1 F2400 X21.004 Y69.7 E12320.8467
G0 F6000 X22.5 Y69.45
G1 F2400 X22.499 Y-69.009 E12329.48138
G0 F6000 X22.459 Y-68.889
G1 F2400 X23.084 Y-69.698 E12329.53957
G1 X23.709 Y-68.889 E12329.60328
G0 F6000 X23.499 Y-69.009
G1 F2400 X23.5 Y69.45 E12338.2379
G0 F6000 X23.455 Y69.329
G1 F2400 X23.084 Y69.699 E12338.2645
G1 X22.713 Y69.329 E12338.29717
G0 F6000 X23 Y69.45
G1 F2400 X22.999 Y-69.009 E12346.93186
G0 F6000 X23.999 Y-69.009
G1 F2400 X24 Y69.45 E12355.56648
G0 F6000 X24.5 Y69.45
G1 F2400 X24.499 Y-69.009 E12364.20117
G0 F6000 X24.383 Y-68.889
G1 F2400 X25.008 Y-69.698 E12364.25935
G1 X25.633 Y-68.889 E12364.32306
G0 F6000 X25.499 Y-69.009
G1 F2400 X25.5 Y69.45 E12372.95768
G0 F6000 X25.379 Y69.329
G1 F2400 X25.166 Y69.698 E12372.98425
G0 F6000 X25 Y69.45
G1 F2400 X24.999 Y-69.009 E12381.61893
G0 F6000 X25.999 Y-69.009
G1 F2400 X26 Y69.45 E12390.25356
G0 F6000 X26.5 Y69.45
G1 F2400 X26.499 Y-69.009 E12398.88824
G0 F6000 X26.307 Y-68.889
G1 F2400 X26.931 Y-69.698 E12398.94639
G1 X27.556 Y-68.889 E12399.0101
G0 F6000 X27.499 Y-69.009
G1 F2400 X27.5 Y69.45 E12407.64472
G0 F6000 X27.302 Y69.329
G1 F2400 X27.089 Y69.699 E12407.67135
G0 F6000 X27 Y69.45
G1 F2400 X26.999 Y-69.009 E12416.30603
G0 F6000 X27.999 Y-69.009
G1 F2400 X28 Y69.45 E12424.94065
G0 F6000 X28.485 Y69.329
G1 F2400 X28.855 Y69.699 E12424.96721
G1 X29.226 Y69.329 E12424.99989
G0 F6000 X29 Y69.45
G1 F2400 X28.999 Y-69.009 E12433.63458
G0 F6000 X29.48 Y-68.889
G1 F2400 X28.855 Y-69.698 E12433.69276
G1 X28.231 Y-68.889 E12433.75643
G0 F6000 X28.499 Y-69.009
G1 F2400 X28.5 Y69.45 E12442.39105
G0 F6000 X29.5 Y69.45
G1 F2400 X29.499 Y-69.009 E12451.02574
G0 F6000 X29.999 Y-69.009
G1 F2400 X30 Y69.45 E12459.66036
G0 F6000 X30.409 Y69.329
G1 F2400 X30.622 Y69.699 E12459.68698
G0 F6000 X30.5 Y69.45
G1 F2400 X30.499 Y-69.009 E12468.32167
G0 F6000 X30.155 Y-68.89
G1 F2400 X30.779 Y-69.698 E12468.3799
G1 X31.404 Y-68.889 E12468.44361
G0 F6000 X31.499 Y-69.009
G1 F2400 X31.5 Y69.45 E12477.07823
G0 F6000 X31.15 Y69.329
G1 F2400 X30.937 Y69.699 E12477.10485
G0 F6000 X31 Y69.45
G1 F2400 X30.999 Y-69.009 E12485.73954
G0 F6000 X31.999 Y-69.009
G1 F2400 X32 Y69.45 E12494.37416
G0 F6000 X32.332 Y69.329
G1 F2400 X32.546 Y69.699 E12494.40082
G0 F6000 X32.5 Y69.45
G1 F2400 X32.499 Y-69.009 E12503.0355
G0 F6000 X32.078 Y-68.889
G1 F2400 X32.703 Y-69.698 E12503.09369
G1 X33.328 Y-68.889 E12503.15739
G0 F6000 X33.499 Y-69.009
G1 F2400 X33.5 Y69.45 E12511.79202
G0 F6000 X33.074 Y69.329
G1 F2400 X32.86 Y69.699 E12511.81867
G0 F6000 X33 Y69.45
G1 F2400 X32.999 Y-69.009 E12520.45336
G0 F6000 X33.999 Y-69.009
G1 F2400 X34 Y69.45 E12529.08798
G0 F6000 X34.256 Y69.329
G1 F2400 X34.47 Y69.699 E12529.11463
G0 F6000 X34.5 Y69.45
G1 F2400 X34.499 Y-69.009 E12537.74932
G0 F6000 X34.999 Y-69.009
G1 F2400 X35 Y69.45 E12546.38394
G0 F6000 X34.998 Y69.329
G1 F2400 X34.784 Y69.699 E12546.4106
G0 F6000 X35.5 Y69.45
G1 F2400 X35.499 Y-69.009 E12555.04528
G0 F6000 X35.252 Y-68.889
G1 F2400 X34.627 Y-69.698 E12555.10347
G1 X34.002 Y-68.889 E12555.16717
G0 F6000 X35.925 Y-68.889
G1 F2400 X36.55 Y-69.698 E12555.22536
G1 X37.175 Y-68.889 E12555.28907
G0 F6000 X36.999 Y-69.009
G1 F2400 X37 Y69.45 E12563.92369
G0 F6000 X36.921 Y69.329
G1 F2400 X36.55 Y69.699 E12563.95029
G1 X36.179 Y69.329 E12563.98296
G0 F6000 X36 Y69.45
G1 F2400 X35.999 Y-69.009 E12572.61765
G0 F6000 X36.499 Y-69.009
G1 F2400 X36.5 Y69.45 E12581.25227
G0 F6000 X37.5 Y69.45
G1 F2400 X37.499 Y-69.009 E12589.88695
G0 F6000 X37.849 Y-68.889
G1 F2400 X38.474 Y-69.698 E12589.94514
G1 X39.099 Y-68.889 E12590.00885
G0 F6000 X38.999 Y-69.009
G1 F2400 X39 Y69.45 E12598.64347
G0 F6000 X38.845 Y69.329
G1 F2400 X38.632 Y69.699 E12598.67009
G0 F6000 X38.5 Y69.45
G1 F2400 X38.499 Y-69.009 E12607.30478
G0 F6000 X37.999 Y-69.009
G1 F2400 X38 Y69.45 E12615.9394
G0 F6000 X38.103 Y69.329
G1 F2400 X38.317 Y69.7 E12615.96611
G0 F6000 X39.5 Y69.45
G1 F2400 X39.499 Y-69.009 E12624.60079
G0 F6000 X39.773 Y-68.889
G1 F2400 X40.398 Y-69.698 E12624.65898
G1 X41.023 Y-68.889 E12624.72269
G0 F6000 X40.999 Y-69.009
G1 F2400 X41 Y69.45 E12633.35731
G0 F6000 X40.769 Y69.329
G1 F2400 X40.556 Y69.698 E12633.38388
G0 F6000 X40.5 Y69.45
G1 F2400 X40.499 Y-69.009 E12642.01856
G0 F6000 X39.999 Y-69.009
G1 F2400 X40 Y69.45 E12650.65319
G0 F6000 X40.027 Y69.329
G1 F2400 X40.24 Y69.699 E12650.67981
G0 F6000 X41.5 Y69.45
