; Generated with MatterSlice 1.0
; filamentDiameter = 1.75
; extrusionWidth = 0.5
; firstLayerExtrusionWidth = 0.4
; layerThickness = 0.3
; firstLayerThickness = 0.3
; automatic settings before start_gcode
G21 ; set units to millimeters
M107 ; fan off
T0 ; set the active extruder to 0
; settings from start_gcode
M104 S215
M190 S60
M109 S215
G28
; automatic settings after start_gcode
T0 ; set the active extruder to 0
G90 ; use absolute coordinates
G92 E0 ; reset the expected extruder position
M82 ; use absolute distance for extrusion
; Layer count: 30
; LAYER:0
M107
G0 F6000 X99.335 Y82.04 Z0.3
; TYPE:SKIRT
G1 Z0.3
G1 F6600 E0
G1 F720 X-99.333 Y82.04 E9.91159
G1 X-99.333 Y-82.039 E18.09752
G1 X99.335 Y-82.039 E28.00906
G1 X99.335 Y82.04 E36.19494
G0 F6000 X98.935 Y81.64
G1 F720 X-98.933 Y81.64 E46.06662
G1 X-98.933 Y-81.639 E54.21264
G1 X98.935 Y-81.639 E64.08426
G1 X98.935 Y81.64 E72.23024
G0 F6000 X95.535 Y78.24
; TYPE:WALL-OUTER
G1 F720 X-95.533 Y78.24 E81.76266
G1 X-95.533 Y-78.239 E89.56943
G1 X95.535 Y-78.239 E99.1018
G1 X95.535 Y78.24 E106.90852
G0 F6000 X95.135 Y77.84
; TYPE:WALL-INNER
G1 F720 X-95.133 Y77.84 E116.40103
G1 X-95.133 Y-77.839 E124.16788
G1 X95.135 Y-77.839 E133.66034
G1 X95.135 Y77.84 E141.42715
G0 F6000 X94.995 Y77.6
; TYPE:FILL
G1 F720 X-94.993 Y77.6 E150.90569
G0 F6000 X-94.993 Y77.2
G1 F720 X94.995 Y77.2 E160.38418
G0 F6000 X94.995 Y76.8
G1 F720 X-94.993 Y76.8 E169.86272
G0 F6000 X-94.993 Y76.4
G1 F720 X94.995 Y76.4 E179.34121
G0 F6000 X94.995 Y76
G1 F720 X-94.993 Y76 E188.81975
G0 F6000 X-94.993 Y75.6
G1 F720 X94.995 Y75.6 E198.29824
G0 F6000 X94.995 Y75.2
G1 F720 X-94.993 Y75.2 E207.77678
G0 F6000 X-94.993 Y74.8
G1 F720 X94.995 Y74.8 E217.25527
G0 F6000 X94.995 Y74.4
G1 F720 X-94.993 Y74.4 E226.73381
G0 F6000 X-94.993 Y74
G1 F720 X94.995 Y74 E236.2123
G0 F6000 X94.995 Y73.6
G1 F720 X-94.993 Y73.6 E245.69084
G0 F6000 X-94.993 Y73.2
G1 F720 X94.995 Y73.2 E255.16933
G0 F6000 X94.995 Y72.8
G1 F720 X-94.993 Y72.8 E264.64787
G0 F6000 X-94.993 Y72.4
G1 F720 X94.995 Y72.4 E274.12636
G0 F6000 X94.995 Y72
G1 F720 X-94.993 Y72 E283.6049
G0 F6000 X-94.993 Y71.6
G1 F720 X94.995 Y71.6 E293.08339
G0 F6000 X94.995 Y71.2
G1 F720 X-94.993 Y71.2 E302.56193
G0 F6000 X-94.993 Y70.8
G1 F720 X94.995 Y70.8 E312.04042
G0 F6000 X94.995 Y70.4
G1 F720 X-94.993 Y70.4 E321.51896
G0 F6000 X-94.993 Y70
G1 F720 X94.995 Y70 E330.99745
G0 F6000 X94.995 Y69.6
G1 F720 X-94.993 Y69.6 E340.47599
G0 F6000 X-94.993 Y69.2
G1 F720 X94.995 Y69.2 E349.95448
G0 F6000 X94.995 Y68.8
G1 F720 X-94.993 Y68.8 E359.43302
G0 F6000 X-94.993 Y68.4
G1 F720 X94.995 Y68.4 E368.91151
G0 F6000 X94.995 Y68
G1 F720 X-94.993 Y68 E378.39005
G0 F6000 X-94.993 Y67.6
G1 F720 X94.995 Y67.6 E387.86854
G0 F6000 X94.995 Y67.2
G1 F720 X-94.993 Y67.2 E397.34708
G0 F6000 X-94.993 Y66.8
G1 F720 X94.995 Y66.8 E406.82557
G0 F6000 X94.995 Y66.4
G1 F720 X-94.993 Y66.4 E416.30411
G0 F6000 X-94.993 Y66
G1 F720 X94.995 Y66 E425.7826
G0 F6000 X94.995 Y65.6
G1 F720 X-94.993 Y65.6 E435.26114
G0 F6000 X-94.993 Y65.2
G1 F720 X94.995 Y65.199 E444.73963
G0 F6000 X94.995 Y64.799
G1 F720 X-94.993 Y64.8 E454.21817
G0 F6000 X-94.993 Y64.4
G1 F720 X94.995 Y64.399 E463.69666
G0 F6000 X94.995 Y63.999
G1 F720 X-94.993 Y64 E473.17519
G0 F6000 X-94.993 Y63.6
G1 F720 X94.995 Y63.599 E482.65368
G0 F6000 X94.995 Y63.199
G1 F720 X-94.993 Y63.2 E492.13222
G0 F6000 X-94.993 Y62.8
G1 F720 X94.995 Y62.799 E501.61071
G0 F6000 X94.995 Y62.399
G1 F720 X-94.993 Y62.4 E511.08925
G0 F6000 X-94.993 Y62
G1 F720 X94.995 Y61.999 E520.56774
G0 F6000 X94.995 Y61.599
G1 F720 X-94.993 Y61.6 E530.04628
G0 F6000 X-94.993 Y61.2
G1 F720 X94.995 Y61.199 E539.52477
G0 F6000 X94.995 Y60.799
G1 F720 X-94.993 Y60.8 E549.00331
G0 F6000 X-94.993 Y60.4
G1 F720 X94.995 Y60.399 E558.4818
G0 F6000 X94.995 Y59.999
G1 F720 X-94.993 Y60 E567.96034
G0 F6000 X-94.993 Y59.6
G1 F720 X94.995 Y59.599 E577.43883
G0 F6000 X94.995 Y59.199
G1 F720 X-94.993 Y59.2 E586.91737
G0 F6000 X-94.993 Y58.8
G1 F720 X94.995 Y58.799 E596.39586
G0 F6000 X94.995 Y58.399
G1 F720 X-94.993 Y58.4 E605.8744
G0 F6000 X-94.993 Y58
G1 F720 X94.995 Y57.999 E615.35289
G0 F6000 X94.995 Y57.599
G1 F720 X-94.993 Y57.6 E624.83143
G0 F6000 X-94.993 Y57.2
G1 F720 X94.995 Y57.199 E634.30992
G0 F6000 X94.995 Y56.799
G1 F720 X-94.993 Y56.8 E643.78846
G0 F6000 X-94.993 Y56.4
G1 F720 X94.995 Y56.399 E653.26695
G0 F6000 X94.995 Y55.999
G1 F720 X-94.993 Y56 E662.74549
G0 F6000 X-94.993 Y55.6
G1 F720 X94.995 Y55.599 E672.22398
G0 F6000 X94.995 Y55.199
G1 F720 X-94.993 Y55.2 E681.70252
G0 F6000 X-94.993 Y54.8
G1 F720 X94.995 Y54.799 E691.18101
G0 F6000 X94.995 Y54.399
G1 F720 X-94.993 Y54.4 E700.65955
G0 F6000 X-94.993 Y54
G1 F720 X94.995 Y53.999 E710.13804
G0 F6000 X94.995 Y53.599
G1 F720 X-94.993 Y53.6 E719.61658
G0 F6000 X-94.993 Y53.2
G1 F720 X94.995 Y53.199 E729.09507
G0 F6000 X94.995 Y52.799
G1 F720 X-94.993 Y52.8 E738.57361
G0 F6000 X-94.993 Y52.4
G1 F720 X94.995 Y52.399 E748.0521
G0 F6000 X94.995 Y51.999
G1 F720 X-94.993 Y52 E757.53064
G0 F6000 X-94.993 Y51.6
G1 F720 X94.995 Y51.599 E767.00913
G0 F6000 X94.995 Y51.199
G1 F720 X-94.993 Y51.2 E776.48767
G0 F6000 X-94.993 Y50.8
G1 F720 X94.995 Y50.799 E785.96616
G0 F6000 X94.995 Y50.399
G1 F720 X-94.993 Y50.4 E795.4447
G0 F6000 X-94.993 Y50
G1 F720 X94.995 Y49.999 E804.92319
G0 F6000 X94.995 Y49.599
G1 F720 X-94.993 Y49.6 E814.40173
G0 F6000 X-94.993 Y49.2
G1 F720 X94.995 Y49.199 E823.88022
G0 F6000 X94.995 Y48.799
G1 F720 X-94.993 Y48.8 E833.35876
G0 F6000 X-94.993 Y48.4
G1 F720 X94.995 Y48.399 E842.83725
G0 F6000 X94.995 Y47.999
G1 F720 X-94.993 Y48 E852.31579
G0 F6000 X-94.993 Y47.6
G1 F720 X94.995 Y47.599 E861.79428
G0 F6000 X94.995 Y47.199
G1 F720 X-94.993 Y47.2 E871.27282
G0 F6000 X-94.993 Y46.8
G1 F720 X94.995 Y46.799 E880.75131
G0 F6000 X94.995 Y46.399
G1 F720 X-94.993 Y46.4 E890.22985
G0 F6000 X-94.993 Y46
G1 F720 X94.995 Y45.999 E899.70834
G0 F6000 X94.995 Y45.599
G1 F720 X-94.993 Y45.6 E909.18688
G0 F6000 X-94.993 Y45.2
G1 F720 X94.995 Y45.199 E918.66537
G0 F6000 X94.995 Y44.799
G1 F720 X-94.993 Y44.8 E928.14391
G0 F6000 X-94.993 Y44.4
G1 F720 X94.995 Y44.399 E937.6224
G0 F6000 X94.995 Y43.999
G1 F720 X-94.993 Y44 E947.10094
G0 F6000 X-94.993 Y43.6
G1 F720 X94.995 Y43.599 E956.57943
G0 F6000 X94.995 Y43.199
G1 F720 X-94.993 Y43.2 E966.05797
G0 F6000 X-94.993 Y42.8
G1 F720 X94.995 Y42.799 E975.53646
G0 F6000 X94.995 Y42.399
G1 F720 X-94.993 Y42.4 E985.015
G0 F6000 X-94.993 Y42
G1 F720 X94.995 Y41.999 E994.49349
G0 F6000 X94.995 Y41.599
G1 F720 X-94.993 Y41.6 E1003.97203
G0 F6000 X-94.993 Y41.2
G1 F720 X94.995 Y41.199 E1013.45052
G0 F6000 X94.995 Y40.799
G1 F720 X-94.993 Y40.8 E1022.92906
G0 F6000 X-94.993 Y40.4
G1 F720 X94.995 Y40.399 E1032.40755
G0 F6000 X94.995 Y39.999
G1 F720 X-94.993 Y40 E1041.88609
G0 F6000 X-94.993 Y39.6
G1 F720 X94.995 Y39.599 E1051.36458
G0 F6000 X94.995 Y39.199
G1 F720 X-94.993 Y39.2 E1060.84312
G0 F6000 X-94.993 Y38.8
G1 F720 X94.995 Y38.799 E1070.32161
G0 F6000 X94.995 Y38.399
G1 F720 X-94.993 Y38.4 E1079.80015
G0 F6000 X-94.993 Y38
G1 F720 X94.995 Y37.999 E1089.27864
G0 F6000 X94.995 Y37.599
G1 F720 X-94.993 Y37.6 E1098.75718
G0 F6000 X-94.993 Y37.2
G1 F720 X94.995 Y37.199 E1108.23567
G0 F6000 X94.995 Y36.799
G1 F720 X-94.993 Y36.8 E1117.71421
G0 F6000 X-94.993 Y36.4
G1 F720 X94.995 Y36.399 E1127.1927
G0 F6000 X94.995 Y35.999
G1 F720 X-94.993 Y36 E1136.67124
G0 F6000 X-94.993 Y35.6
G1 F720 X94.995 Y35.599 E1146.14972
G0 F6000 X94.995 Y35.199
G1 F720 X-94.993 Y35.2 E1155.62826
G0 F6000 X-94.993 Y34.8
G1 F720 X94.995 Y34.799 E1165.10675
G0 F6000 X94.995 Y34.399
G1 F720 X-94.993 Y34.4 E1174.58529
G0 F6000 X-94.993 Y34
G1 F720 X94.995 Y33.999 E1184.06378
G0 F6000 X94.995 Y33.599
G1 F720 X-94.993 Y33.6 E1193.54232
G0 F6000 X-94.993 Y33.2
G1 F720 X94.995 Y33.199 E1203.02081
G0 F6000 X94.995 Y32.799
G1 F720 X-94.993 Y32.8 E1212.49935
G0 F6000 X-94.993 Y32.4
G1 F720 X94.995 Y32.399 E1221.97784
G0 F6000 X94.995 Y31.999
G1 F720 X-94.993 Y32 E1231.45638
G0 F6000 X-94.993 Y31.6
G1 F720 X94.995 Y31.599 E1240.93487
G0 F6000 X94.995 Y31.199
G1 F720 X-94.993 Y31.2 E1250.41341
G0 F6000 X-94.993 Y30.8
G1 F720 X94.995 Y30.799 E1259.8919
G0 F6000 X94.995 Y30.399
G1 F720 X-94.993 Y30.4 E1269.37044
G0 F6000 X-94.993 Y30
G1 F720 X94.995 Y29.999 E1278.84893
G0 F6000 X94.995 Y29.599
G1 F720 X-94.993 Y29.6 E1288.32747
G0 F6000 X-94.993 Y29.2
G1 F720 X94.995 Y29.199 E1297.80596
G0 F6000 X94.995 Y28.799
G1 F720 X-94.993 Y28.8 E1307.2845
G0 F6000 X-94.993 Y28.4
G1 F720 X94.995 Y28.399 E1316.76299
G0 F6000 X94.995 Y27.999
G1 F720 X-94.993 Y28 E1326.24153
G0 F6000 X-94.993 Y27.6
G1 F720 X94.995 Y27.599 E1335.72002
G0 F6000 X94.995 Y27.199
G1 F720 X-94.993 Y27.2 E1345.19856
G0 F6000 X-94.993 Y26.8
G1 F720 X94.995 Y26.799 E1354.67705
G0 F6000 X94.995 Y26.399
G1 F720 X-94.993 Y26.4 E1364.15559
G0 F6000 X-94.993 Y26
G1 F720 X94.995 Y25.999 E1373.63408
G0 F6000 X94.995 Y25.599
G1 F720 X-94.993 Y25.6 E1383.11262
G0 F6000 X-94.993 Y25.2
G1 F720 X94.995 Y25.199 E1392.59111
G0 F6000 X94.995 Y24.799
G1 F720 X-94.993 Y24.8 E1402.06965
G0 F6000 X-94.993 Y24.4
G1 F720 X94.995 Y24.399 E1411.54814
G0 F6000 X94.995 Y23.999
G1 F720 X-94.993 Y24 E1421.02668
G0 F6000 X-94.993 Y23.6
G1 F720 X94.995 Y23.599 E1430.50517
G0 F6000 X94.995 Y23.199
G1 F720 X-94.993 Y23.2 E1439.98371
G0 F6000 X-94.993 Y22.8
G1 F720 X94.995 Y22.799 E1449.4622
G0 F6000 X94.995 Y22.399
G1 F720 X-94.993 Y22.4 E1458.94074
G0 F6000 X-94.993 Y22
G1 F720 X94.995 Y21.999 E1468.41923
G0 F6000 X94.995 Y21.599
G1 F720 X-94.993 Y21.6 E1477.89777
G0 F6000 X-94.993 Y21.2
G1 F720 X94.995 Y21.199 E1487.37626
G0 F6000 X94.995 Y20.799
G1 F720 X-94.993 Y20.8 E1496.8548
G0 F6000 X-94.993 Y20.4
G1 F720 X94.995 Y20.399 E1506.33329
G0 F6000 X94.995 Y19.999
G1 F720 X-94.993 Y20 E1515.81183
G0 F6000 X-94.993 Y19.6
G1 F720 X94.995 Y19.599 E1525.29032
G0 F6000 X94.995 Y19.199
G1 F720 X-94.993 Y19.2 E1534.76886
G0 F6000 X-94.993 Y18.8
G1 F720 X94.995 Y18.799 E1544.24735
G0 F6000 X94.995 Y18.399
G1 F720 X-94.993 Y18.4 E1553.72589
G0 F6000 X-94.993 Y18
G1 F720 X94.995 Y17.999 E1563.20438
G0 F6000 X94.995 Y17.599
G1 F720 X-94.993 Y17.6 E1572.68292
G0 F6000 X-94.993 Y17.2
G1 F720 X94.995 Y17.199 E1582.16141
G0 F6000 X94.995 Y16.799
G1 F720 X-94.993 Y16.8 E1591.63995
G0 F6000 X-94.993 Y16.4
G1 F720 X94.995 Y16.399 E1601.11844
G0 F6000 X94.995 Y15.999
G1 F720 X-94.993 Y16 E1610.59698
G0 F6000 X-94.993 Y15.6
G1 F720 X94.995 Y15.599 E1620.07547
G0 F6000 X94.995 Y15.199
G1 F720 X-94.993 Y15.2 E1629.55401
G0 F6000 X-94.993 Y14.8
G1 F720 X94.995 Y14.799 E1639.0325
G0 F6000 X94.995 Y14.399
G1 F720 X-94.993 Y14.4 E1648.51104
G0 F6000 X-94.993 Y14
G1 F720 X94.995 Y13.999 E1657.98953
G0 F6000 X94.995 Y13.599
G1 F720 X-94.993 Y13.6 E1667.46807
G0 F6000 X-94.993 Y13.2
G1 F720 X94.995 Y13.199 E1676.94656
G0 F6000 X94.995 Y12.799
G1 F720 X-94.993 Y12.8 E1686.4251
G0 F6000 X-94.993 Y12.4
G1 F720 X94.995 Y12.399 E1695.90359
G0 F6000 X94.995 Y11.999
G1 F720 X-94.993 Y12 E1705.38213
G0 F6000 X-94.993 Y11.6
G1 F720 X94.995 Y11.599 E1714.86062
G0 F6000 X94.995 Y11.199
G1 F720 X-94.993 Y11.2 E1724.33916
G0 F6000 X-94.993 Y10.8
G1 F720 X94.995 Y10.799 E1733.81765
G0 F6000 X94.995 Y10.399
G1 F720 X-94.993 Y10.4 E1743.29619
G0 F6000 X-94.993 Y10
G1 F720 X94.995 Y9.999 E1752.77468
G0 F6000 X94.995 Y9.599
G1 F720 X-94.993 Y9.6 E1762.25322
G0 F6000 X-94.993 Y9.2
G1 F720 X94.995 Y9.199 E1771.73171
G0 F6000 X94.995 Y8.799
G1 F720 X-94.993 Y8.8 E1781.21025
G0 F6000 X-94.993 Y8.4
G1 F720 X94.995 Y8.399 E1790.68874
G0 F6000 X94.995 Y7.999
G1 F720 X-94.993 Y8 E1800.16728
G0 F6000 X-94.993 Y7.6
G1 F720 X94.995 Y7.599 E1809.64577
G0 F6000 X94.995 Y7.199
G1 F720 X-94.993 Y7.2 E1819.12431
G0 F6000 X-94.993 Y6.8
G1 F720 X94.995 Y6.799 E1828.60279
G0 F6000 X94.995 Y6.399
G1 F720 X-94.993 Y6.4 E1838.08133
G0 F6000 X-94.993 Y6
G1 F720 X94.995 Y5.999 E1847.55982
G0 F6000 X94.995 Y5.599
G1 F720 X-94.993 Y5.6 E1857.03836
G0 F6000 X-94.993 Y5.2
G1 F720 X94.995 Y5.199 E1866.51685
G0 F6000 X94.995 Y4.799
G1 F720 X-94.993 Y4.8 E1875.99539
G0 F6000 X-94.993 Y4.4
G1 F720 X94.995 Y4.399 E1885.47388
G0 F6000 X94.995 Y3.999
G1 F720 X-94.993 Y4 E1894.95242
G0 F6000 X-94.993 Y3.6
G1 F720 X94.995 Y3.599 E1904.43091
G0 F6000 X94.995 Y3.199
G1 F720 X-94.993 Y3.2 E1913.90945
G0 F6000 X-94.993 Y2.8
G1 F720 X94.995 Y2.799 E1923.38794
G0 F6000 X94.995 Y2.399
G1 F720 X-94.993 Y2.4 E1932.86648
G0 F6000 X-94.993 Y2
G1 F720 X94.995 Y1.999 E1942.34497
G0 F6000 X94.995 Y1.599
G1 F720 X-94.993 Y1.6 E1951.82351
G0 F6000 X-94.993 Y1.2
G1 F720 X94.995 Y1.199 E1961.302
G0 F6000 X94.995 Y0.799
G1 F720 X-94.993 Y0.8 E1970.78054
G0 F6000 X-94.993 Y0.4
G1 F720 X94.995 Y0.399 E1980.25903
G0 F6000 X94.995 Y0
G1 F720 X-94.993 Y0 E1989.73757
G0 F6000 X-94.993 Y-0.399
G1 F720 X94.995 Y-0.4 E1999.21606
G0 F6000 X94.995 Y-0.8
G1 F720 X-94.993 Y-0.799 E2008.6946
G0 F6000 X-94.993 Y-1.199
G1 F720 X94.995 Y-1.2 E2018.17309
G0 F6000 X94.995 Y-1.6
G1 F720 X-94.993 Y-1.599 E2027.65163
G0 F6000 X-94.993 Y-1.999
G1 F720 X94.995 Y-2 E2037.13012
G0 F6000 X94.995 Y-2.4
G1 F720 X-94.993 Y-2.399 E2046.60866
G0 F6000 X-94.993 Y-2.799
G1 F720 X94.995 Y-2.8 E2056.08715
G0 F6000 X94.995 Y-3.2
G1 F720 X-94.993 Y-3.199 E2065.56569
G0 F6000 X-94.993 Y-3.599
G1 F720 X94.995 Y-3.6 E2075.04418
G0 F6000 X94.995 Y-4
G1 F720 X-94.993 Y-3.999 E2084.52272
G0 F6000 X-94.993 Y-4.399
G1 F720 X94.995 Y-4.4 E2094.00121
G0 F6000 X94.995 Y-4.8
G1 F720 X-94.993 Y-4.799 E2103.47975
G0 F6000 X-94.993 Y-5.199
G1 F720 X94.995 Y-5.2 E2112.95824
G0 F6000 X94.995 Y-5.6
G1 F720 X-94.993 Y-5.599 E2122.43678
G0 F6000 X-94.993 Y-5.999
G1 F720 X94.995 Y-6 E2131.91527
G0 F6000 X94.995 Y-6.4
G1 F720 X-94.993 Y-6.399 E2141.39381
G0 F6000 X-94.993 Y-6.799
G1 F720 X94.995 Y-6.8 E2150.8723
G0 F6000 X94.995 Y-7.2
G1 F720 X-94.993 Y-7.199 E2160.35084
G0 F6000 X-94.993 Y-7.599
G1 F720 X94.995 Y-7.6 E2169.82933
G0 F6000 X94.995 Y-8
G1 F720 X-94.993 Y-7.999 E2179.30787
G0 F6000 X-94.993 Y-8.399
G1 F720 X94.995 Y-8.4 E2188.78636
G0 F6000 X94.995 Y-8.8
G1 F720 X-94.993 Y-8.799 E2198.2649
G0 F6000 X-94.993 Y-9.199
G1 F720 X94.995 Y-9.2 E2207.74339
G0 F6000 X94.995 Y-9.6
G1 F720 X-94.993 Y-9.599 E2217.22193
G0 F6000 X-94.993 Y-9.999
G1 F720 X94.995 Y-10 E2226.70042
G0 F6000 X94.995 Y-10.4
G1 F720 X-94.993 Y-10.399 E2236.17896
G0 F6000 X-94.993 Y-10.799
G1 F720 X94.995 Y-10.8 E2245.65745
G0 F6000 X94.995 Y-11.2
G1 F720 X-94.993 Y-11.199 E2255.13599
G0 F6000 X-94.993 Y-11.599
G1 F720 X94.995 Y-11.6 E2264.61448
G0 F6000 X94.995 Y-12
G1 F720 X-94.993 Y-11.999 E2274.09302
G0 F6000 X-94.993 Y-12.399
G1 F720 X94.995 Y-12.4 E2283.57151
G0 F6000 X94.995 Y-12.8
G1 F720 X-94.993 Y-12.799 E2293.05005
G0 F6000 X-94.993 Y-13.199
G1 F720 X94.995 Y-13.2 E2302.52854
G0 F6000 X94.995 Y-13.6
G1 F720 X-94.993 Y-13.599 E2312.00708
G0 F6000 X-94.993 Y-13.999
G1 F720 X94.995 Y-14 E2321.48557
G0 F6000 X94.995 Y-14.4
G1 F720 X-94.993 Y-14.399 E2330.96411
G0 F6000 X-94.993 Y-14.799
G1 F720 X94.995 Y-14.8 E2340.4426
G0 F6000 X94.995 Y-15.2
G1 F720 X-94.993 Y-15.199 E2349.92114
G0 F6000 X-94.993 Y-15.599
G1 F720 X94.995 Y-15.6 E2359.39963
G0 F6000 X94.995 Y-16
G1 F720 X-94.993 Y-15.999 E2368.87817
G0 F6000 X-94.993 Y-16.399
G1 F720 X94.995 Y-16.4 E2378.35666
G0 F6000 X94.995 Y-16.8
G1 F720 X-94.993 Y-16.799 E2387.8352
G0 F6000 X-94.993 Y-17.199
G1 F720 X94.995 Y-17.2 E2397.31369
G0 F6000 X94.995 Y-17.6
G1 F720 X-94.993 Y-17.599 E2406.79223
G0 F6000 X-94.993 Y-17.999
G1 F720 X94.995 Y-18 E2416.27072
G0 F6000 X94.995 Y-18.4
G1 F720 X-94.993 Y-18.399 E2425.74926
G0 F6000 X-94.993 Y-18.799
G1 F720 X94.995 Y-18.8 E2435.22775
G0 F6000 X94.995 Y-19.2
G1 F720 X-94.993 Y-19.199 E2444.70629
G0 F6000 X-94.993 Y-19.599
G1 F720 X94.995 Y-19.6 E2454.18478
G0 F6000 X94.995 Y-20
G1 F720 X-94.993 Y-19.999 E2463.66332
G0 F6000 X-94.993 Y-20.399
G1 F720 X94.995 Y-20.4 E2473.14181
G0 F6000 X94.995 Y-20.8
G1 F720 X-94.993 Y-20.799 E2482.62035
G0 F6000 X-94.993 Y-21.199
G1 F720 X94.995 Y-21.2 E2492.09884
G0 F6000 X94.995 Y-21.6
G1 F720 X-94.993 Y-21.599 E2501.57738
G0 F6000 X-94.993 Y-21.999
G1 F720 X94.995 Y-22 E2511.05586
G0 F6000 X94.995 Y-22.4
G1 F720 X-94.993 Y-22.399 E2520.5344
G0 F6000 X-94.993 Y-22.799
G1 F720 X94.995 Y-22.8 E2530.01289
G0 F6000 X94.995 Y-23.2
G1 F720 X-94.993 Y-23.199 E2539.49143
G0 F6000 X-94.993 Y-23.599
G1 F720 X94.995 Y-23.6 E2548.96992
G0 F6000 X94.995 Y-24
G1 F720 X-94.993 Y-23.999 E2558.44846
G0 F6000 X-94.993 Y-24.399
G1 F720 X94.995 Y-24.4 E2567.92695
G0 F6000 X94.995 Y-24.8
G1 F720 X-94.993 Y-24.799 E2577.40549
G0 F6000 X-94.993 Y-25.199
G1 F720 X94.995 Y-25.2 E2586.88398
G0 F6000 X94.995 Y-25.6
G1 F720 X-94.993 Y-25.599 E2596.36252
G0 F6000 X-94.993 Y-25.999
G1 F720 X94.995 Y-26 E2605.84101
G0 F6000 X94.995 Y-26.4
G1 F720 X-94.993 Y-26.399 E2615.31955
G0 F6000 X-94.993 Y-26.799
G1 F720 X94.995 Y-26.8 E2624.79804
G0 F6000 X94.995 Y-27.2
G1 F720 X-94.993 Y-27.199 E2634.27658
G0 F6000 X-94.993 Y-27.599
G1 F720 X94.995 Y-27.6 E2643.75507
G0 F6000 X94.995 Y-28
G1 F720 X-94.993 Y-27.999 E2653.23361
G0 F6000 X-94.993 Y-28.399
G1 F720 X94.995 Y-28.4 E2662.7121
G0 F6000 X94.995 Y-28.8
G1 F720 X-94.993 Y-28.799 E2672.19064
G0 F6000 X-94.993 Y-29.199
G1 F720 X94.995 Y-29.2 E2681.66913
G0 F6000 X94.995 Y-29.6
G1 F720 X-94.993 Y-29.599 E2691.14767
G0 F6000 X-94.993 Y-29.999
G1 F720 X94.995 Y-30 E2700.62616
G0 F6000 X94.995 Y-30.4
G1 F720 X-94.993 Y-30.399 E2710.1047
G0 F6000 X-94.993 Y-30.799
G1 F720 X94.995 Y-30.8 E2719.58319
G0 F6000 X94.995 Y-31.2
G1 F720 X-94.993 Y-31.199 E2729.06173
G0 F6000 X-94.993 Y-31.599
G1 F720 X94.995 Y-31.6 E2738.54022
G0 F6000 X94.995 Y-32
G1 F720 X-94.993 Y-31.999 E2748.01876
G0 F6000 X-94.993 Y-32.399
G1 F720 X94.995 Y-32.4 E2757.49725
G0 F6000 X94.995 Y-32.8
G1 F720 X-94.993 Y-32.799 E2766.97579
G0 F6000 X-94.993 Y-33.199
G1 F720 X94.995 Y-33.2 E2776.45428
G0 F6000 X94.995 Y-33.6
G1 F720 X-94.993 Y-33.599 E2785.93282
G0 F6000 X-94.993 Y-33.999
G1 F720 X94.995 Y-34 E2795.41131
G0 F6000 X94.995 Y-34.4
G1 F720 X-94.993 Y-34.399 E2804.88985
G0 F6000 X-94.993 Y-34.799
G1 F720 X94.995 Y-34.8 E2814.36834
G0 F6000 X94.995 Y-35.2
G1 F720 X-94.993 Y-35.199 E2823.84688
G0 F6000 X-94.993 Y-35.599
G1 F720 X94.995 Y-35.6 E2833.32537
G0 F6000 X94.995 Y-36
G1 F720 X-94.993 Y-35.999 E2842.80391
G0 F6000 X-94.993 Y-36.399
G1 F720 X94.995 Y-36.4 E2852.2824
G0 F6000 X94.995 Y-36.8
G1 F720 X-94.993 Y-36.799 E2861.76094
G0 F6000 X-94.993 Y-37.199
G1 F720 X94.995 Y-37.2 E2871.23943
G0 F6000 X94.995 Y-37.6
G1 F720 X-94.993 Y-37.599 E2880.71797
G0 F6000 X-94.993 Y-37.999
G1 F720 X94.995 Y-38 E2890.19646
G0 F6000 X94.995 Y-38.4
G1 F720 X-94.993 Y-38.399 E2899.675
G0 F6000 X-94.993 Y-38.799
G1 F720 X94.995 Y-38.8 E2909.15349
G0 F6000 X94.995 Y-39.2
G1 F720 X-94.993 Y-39.199 E2918.63203
G0 F6000 X-94.993 Y-39.599
G1 F720 X94.995 Y-39.6 E2928.11052
G0 F6000 X94.995 Y-40
G1 F720 X-94.993 Y-39.999 E2937.58906
G0 F6000 X-94.993 Y-40.399
G1 F720 X94.995 Y-40.4 E2947.06755
G0 F6000 X94.995 Y-40.8
G1 F720 X-94.993 Y-40.799 E2956.54609
G0 F6000 X-94.993 Y-41.199
G1 F720 X94.995 Y-41.2 E2966.02458
G0 F6000 X94.995 Y-41.6
G1 F720 X-94.993 Y-41.599 E2975.50312
G0 F6000 X-94.993 Y-41.999
G1 F720 X94.995 Y-42 E2984.98161
G0 F6000 X94.995 Y-42.4
G1 F720 X-94.993 Y-42.399 E2994.46015
G0 F6000 X-94.993 Y-42.799
G1 F720 X94.995 Y-42.8 E3003.93864
G0 F6000 X94.995 Y-43.2
G1 F720 X-94.993 Y-43.199 E3013.41718
G0 F6000 X-94.993 Y-43.599
G1 F720 X94.995 Y-43.6 E3022.89567
G0 F6000 X94.995 Y-44
G1 F720 X-94.993 Y-43.999 E3032.37421
G0 F6000 X-94.993 Y-44.399
G1 F720 X94.995 Y-44.4 E3041.8527
G0 F6000 X94.995 Y-44.8
G1 F720 X-94.993 Y-44.799 E3051.33124
G0 F6000 X-94.993 Y-45.199
G1 F720 X94.995 Y-45.2 E3060.80973
G0 F6000 X94.995 Y-45.6
G1 F720 X-94.993 Y-45.599 E3070.28827
G0 F6000 X-94.993 Y-45.999
G1 F720 X94.995 Y-46 E3079.76676
G0 F6000 X94.995 Y-46.4
G1 F720 X-94.993 Y-46.399 E3089.2453
G0 F6000 X-94.993 Y-46.799
G1 F720 X94.995 Y-46.8 E3098.72379
G0 F6000 X94.995 Y-47.2
G1 F720 X-94.993 Y-47.199 E3108.20233
G0 F6000 X-94.993 Y-47.599
G1 F720 X94.995 Y-47.6 E3117.68082
G0 F6000 X94.995 Y-48
G1 F720 X-94.993 Y-47.999 E3127.15936
G0 F6000 X-94.993 Y-48.399
G1 F720 X94.995 Y-48.4 E3136.63785
G0 F6000 X94.995 Y-48.8
G1 F720 X-94.993 Y-48.799 E3146.11639
G0 F6000 X-94.993 Y-49.199
G1 F720 X94.995 Y-49.2 E3155.59488
G0 F6000 X94.995 Y-49.6
G1 F720 X-94.993 Y-49.599 E3165.07342
G0 F6000 X-94.993 Y-49.999
G1 F720 X94.995 Y-50 E3174.55191
G0 F6000 X94.995 Y-50.4
G1 F720 X-94.993 Y-50.399 E3184.03045
G0 F6000 X-94.993 Y-50.799
G1 F720 X94.995 Y-50.8 E3193.50893
G0 F6000 X94.995 Y-51.2
G1 F720 X-94.993 Y-51.199 E3202.98747
G0 F6000 X-94.993 Y-51.599
G1 F720 X94.995 Y-51.6 E3212.46596
G0 F6000 X94.995 Y-52
G1 F720 X-94.993 Y-51.999 E3221.9445
G0 F6000 X-94.993 Y-52.399
G1 F720 X94.995 Y-52.4 E3231.42299
G0 F6000 X94.995 Y-52.8
G1 F720 X-94.993 Y-52.799 E3240.90153
G0 F6000 X-94.993 Y-53.199
G1 F720 X94.995 Y-53.2 E3250.38002
G0 F6000 X94.995 Y-53.6
G1 F720 X-94.993 Y-53.599 E3259.85856
G0 F6000 X-94.993 Y-53.999
G1 F720 X94.995 Y-54 E3269.33705
G0 F6000 X94.995 Y-54.4
G1 F720 X-94.993 Y-54.399 E3278.81559
G0 F6000 X-94.993 Y-54.799
G1 F720 X94.995 Y-54.8 E3288.29408
G0 F6000 X94.995 Y-55.2
G1 F720 X-94.993 Y-55.199 E3297.77262
G0 F6000 X-94.993 Y-55.599
G1 F720 X94.995 Y-55.6 E3307.25111
G0 F6000 X94.995 Y-56
G1 F720 X-94.993 Y-55.999 E3316.72965
G0 F6000 X-94.993 Y-56.399
G1 F720 X94.995 Y-56.4 E3326.20814
G0 F6000 X94.995 Y-56.8
G1 F720 X-94.993 Y-56.799 E3335.68668
G0 F6000 X-94.993 Y-57.199
G1 F720 X94.995 Y-57.2 E3345.16517
G0 F6000 X94.995 Y-57.6
G1 F720 X-94.993 Y-57.599 E3354.64371
G0 F6000 X-94.993 Y-57.999
G1 F720 X94.995 Y-58 E3364.1222
G0 F6000 X94.995 Y-58.4
G1 F720 X-94.993 Y-58.399 E3373.60074
G0 F6000 X-94.993 Y-58.799
G1 F720 X94.995 Y-58.8 E3383.07923
G0 F6000 X94.995 Y-59.2
G1 F720 X-94.993 Y-59.199 E3392.55777
G0 F6000 X-94.993 Y-59.599
G1 F720 X94.995 Y-59.6 E3402.03626
G0 F6000 X94.995 Y-60
G1 F720 X-94.993 Y-59.999 E3411.5148
G0 F6000 X-94.993 Y-60.399
G1 F720 X94.995 Y-60.4 E3420.99329
G0 F6000 X94.995 Y-60.8
G1 F720 X-94.993 Y-60.799 E3430.47183
G0 F6000 X-94.993 Y-61.199
G1 F720 X94.995 Y-61.2 E3439.95032
G0 F6000 X94.995 Y-61.6
G1 F720 X-94.993 Y-61.599 E3449.42886
G0 F6000 X-94.993 Y-61.999
G1 F720 X94.995 Y-62 E3458.90735
G0 F6000 X94.995 Y-62.4
G1 F720 X-94.993 Y-62.399 E3468.38589
G0 F6000 X-94.993 Y-62.799
G1 F720 X94.995 Y-62.8 E3477.86438
G0 F6000 X94.995 Y-63.2
G1 F720 X-94.993 Y-63.199 E3487.34292
G0 F6000 X-94.993 Y-63.599
G1 F720 X94.995 Y-63.6 E3496.82141
G0 F6000 X94.995 Y-64
G1 F720 X-94.993 Y-63.999 E3506.29995
G0 F6000 X-94.993 Y-64.399
G1 F720 X94.995 Y-64.4 E3515.77844
G0 F6000 X94.995 Y-64.8
G1 F720 X-94.993 Y-64.799 E3525.25698
G0 F6000 X-94.993 Y-65.199
G1 F720 X94.995 Y-65.2 E3534.73547
G0 F6000 X94.995 Y-65.6
G1 F720 X-94.993 Y-65.6 E3544.21401
G0 F6000 X-94.993 Y-66
G1 F720 X94.995 Y-66 E3553.6925
G0 F6000 X94.995 Y-66.4
G1 F720 X-94.993 Y-66.4 E3563.17104
G0 F6000 X-94.993 Y-66.8
G1 F720 X94.995 Y-66.8 E3572.64953
G0 F6000 X94.995 Y-67.2
G1 F720 X-94.993 Y-67.2 E3582.12807
G0 F6000 X-94.993 Y-67.6
G1 F720 X94.995 Y-67.6 E3591.60656
G0 F6000 X94.995 Y-68
G1 F720 X-94.993 Y-68 E3601.0851
G0 F6000 X-94.993 Y-68.4
G1 F720 X94.995 Y-68.4 E3610.56359
G0 F6000 X94.995 Y-68.8
G1 F720 X-94.993 Y-68.8 E3620.04213
G0 F6000 X-94.993 Y-69.2
G1 F720 X94.995 Y-69.2 E3629.52062
G0 F6000 X94.995 Y-69.6
G1 F720 X-94.993 Y-69.6 E3638.99916
G0 F6000 X-94.993 Y-70
G1 F720 X94.995 Y-70 E3648.47765
G0 F6000 X94.995 Y-70.4
G1 F720 X-94.993 Y-70.4 E3657.95619
G0 F6000 X-94.993 Y-70.8
G1 F720 X94.995 Y-70.8 E3667.43468
G0 F6000 X94.995 Y-71.2
G1 F720 X-94.993 Y-71.2 E3676.91322
G0 F6000 X-94.993 Y-71.6
G1 F720 X94.995 Y-71.6 E3686.39171
G0 F6000 X94.995 Y-72
G1 F720 X-94.993 Y-72 E3695.87025
G0 F6000 X-94.993 Y-72.4
G1 F720 X94.995 Y-72.4 E3705.34874
G0 F6000 X94.995 Y-72.8
G1 F720 X-94.993 Y-72.8 E3714.82728
G0 F6000 X-94.993 Y-73.2
G1 F720 X94.995 Y-73.2 E3724.30577
G0 F6000 X94.995 Y-73.6
G1 F720 X-94.993 Y-73.6 E3733.78431
G0 F6000 X-94.993 Y-74
G1 F720 X94.995 Y-74 E3743.2628
G0 F6000 X94.995 Y-74.4
G1 F720 X-94.993 Y-74.4 E3752.74134
G0 F6000 X-94.993 Y-74.8
G1 F720 X94.995 Y-74.8 E3762.21983
G0 F6000 X94.995 Y-75.2
G1 F720 X-94.993 Y-75.2 E3771.69837
G0 F6000 X-94.993 Y-75.6
G1 F720 X94.995 Y-75.6 E3781.17686
G0 F6000 X94.995 Y-76
G1 F720 X-94.993 Y-76 E3790.6554
G0 F6000 X-94.993 Y-76.4
G1 F720 X94.995 Y-76.4 E3800.13389
G0 F6000 X94.995 Y-76.8
G1 F720 X-94.993 Y-76.8 E3809.61243
G0 F6000 X-94.993 Y-77.2
G1 F720 X94.995 Y-77.2 E3819.09092
G0 F6000 X94.995 Y-77.6
G1 F720 X-94.993 Y-77.6 E3828.56946
; LAYER:1
G0 F6000 X-94.983 Y-77.689 Z0.6
; TYPE:WALL-INNER
G1 F2400 X94.985 Y-77.689 E3840.41632
G1 X94.985 Y77.69 E3850.10612
G1 X-94.983 Y77.69 E3861.95305
G1 X-94.983 Y-77.689 E3871.64291
G0 F6000 X-95.483 Y-78.189
; TYPE:WALL-OUTER
G1 F2100 X95.485 Y-78.189 E3883.55214
G1 X95.485 Y78.19 E3893.3043
G1 X-95.483 Y78.19 E3905.21359
G1 X-95.483 Y-78.189 E3914.96582
G0 F6000 X-94.5 Y-77.498
; TYPE:FILL
G1 F2400 X-94.499 Y77.499 E3924.63179
G0 F6000 X-93.999 Y77.499
G1 F2400 X-94 Y-77.498 E3934.29783
G0 F6000 X-93.5 Y-77.498
G1 F2400 X-93.499 Y77.499 E3943.96381
G0 F6000 X-92.999 Y77.499
G1 F2400 X-93 Y-77.498 E3953.62985
G0 F6000 X-92.5 Y-77.498
G1 F2400 X-92.499 Y77.499 E3963.29583
G0 F6000 X-91.999 Y77.499
G1 F2400 X-92 Y-77.498 E3972.96187
G0 F6000 X-91.5 Y-77.498
G1 F2400 X-91.499 Y77.499 E3982.62784
G0 F6000 X-90.999 Y77.499
G1 F2400 X-91 Y-77.498 E3992.29388
G0 F6000 X-90.5 Y-77.498
G1 F2400 X-90.499 Y77.499 E4001.95986
G0 F6000 X-89.999 Y77.499
G1 F2400 X-90 Y-77.498 E4011.6259
G0 F6000 X-89.5 Y-77.498
G1 F2400 X-89.499 Y77.499 E4021.29188
G0 F6000 X-88.999 Y77.499
G1 F2400 X-89 Y-77.498 E4030.95792
G0 F6000 X-88.5 Y-77.498
G1 F2400 X-88.499 Y77.499 E4040.6239
G0 F6000 X-87.999 Y77.499
G1 F2400 X-88 Y-77.498 E4050.28993
G0 F6000 X-87.5 Y-77.498
G1 F2400 X-87.499 Y77.499 E4059.95591
G0 F6000 X-86.999 Y77.499
G1 F2400 X-87 Y-77.498 E4069.62195
G0 F6000 X-86.5 Y-77.498
G1 F2400 X-86.499 Y77.499 E4079.28793
G0 F6000 X-85.999 Y77.499
G1 F2400 X-86 Y-77.498 E4088.95397
G0 F6000 X-85.5 Y-77.498
G1 F2400 X-85.499 Y77.499 E4098.61995
G0 F6000 X-84.999 Y77.499
G1 F2400 X-85 Y-77.498 E4108.28599
G0 F6000 X-84.5 Y-77.498
G1 F2400 X-84.499 Y77.499 E4117.95196
G0 F6000 X-83.999 Y77.499
G1 F2400 X-84 Y-77.498 E4127.618
G0 F6000 X-83.5 Y-77.498
G1 F2400 X-83.499 Y77.499 E4137.28398
G0 F6000 X-82.999 Y77.499
G1 F2400 X-83 Y-77.498 E4146.95002
G0 F6000 X-82.5 Y-77.498
G1 F2400 X-82.499 Y77.499 E4156.616
G0 F6000 X-81.999 Y77.499
G1 F2400 X-82 Y-77.498 E4166.28204
G0 F6000 X-81.5 Y-77.498
G1 F2400 X-81.499 Y77.499 E4175.94801
G0 F6000 X-80.999 Y77.499
G1 F2400 X-81 Y-77.498 E4185.61405
G0 F6000 X-80.5 Y-77.498
G1 F2400 X-80.499 Y77.499 E4195.28003
G0 F6000 X-79.999 Y77.499
G1 F2400 X-80 Y-77.498 E4204.94607
G0 F6000 X-79.5 Y-77.498
G1 F2400 X-79.499 Y77.499 E4214.61205
G0 F6000 X-78.999 Y77.499
G1 F2400 X-79 Y-77.498 E4224.27809
G0 F6000 X-78.5 Y-77.498
G1 F2400 X-78.499 Y77.499 E4233.94406
G0 F6000 X-77.999 Y77.499
G1 F2400 X-78 Y-77.498 E4243.6101
G0 F6000 X-77.5 Y-77.498
G1 F2400 X-77.499 Y77.499 E4253.27608
G0 F6000 X-76.999 Y77.499
G1 F2400 X-77 Y-77.498 E4262.94212
G0 F6000 X-76.5 Y-77.498
G1 F2400 X-76.499 Y77.499 E4272.6081
G0 F6000 X-75.999 Y77.499
G1 F2400 X-76 Y-77.498 E4282.27414
G0 F6000 X-75.5 Y-77.498
G1 F2400 X-75.499 Y77.499 E4291.94012
G0 F6000 X-74.999 Y77.499
G1 F2400 X-75 Y-77.498 E4301.60616
G0 F6000 X-74.5 Y-77.498
G1 F2400 X-74.499 Y77.499 E4311.27213
G0 F6000 X-73.999 Y77.499
G1 F2400 X-74 Y-77.498 E4320.93817
G0 F6000 X-73.5 Y-77.498
G1 F2400 X-73.499 Y77.499 E4330.60415
G0 F6000 X-72.999 Y77.499
G1 F2400 X-73 Y-77.498 E4340.27019
G0 F6000 X-72.5 Y-77.498
G1 F2400 X-72.499 Y77.499 E4349.93617
G0 F6000 X-71.999 Y77.499
G1 F2400 X-72 Y-77.498 E4359.60221
G0 F6000 X-71.5 Y-77.498
G1 F2400 X-71.499 Y77.499 E4369.26818
G0 F6000 X-70.999 Y77.499
G1 F2400 X-71 Y-77.498 E4378.93422
G0 F6000 X-70.5 Y-77.498
G1 F2400 X-70.499 Y77.499 E4388.6002
G0 F6000 X-69.999 Y77.499
G1 F2400 X-70 Y-77.498 E4398.26624
G0 F6000 X-69.5 Y-77.498
G1 F2400 X-69.499 Y77.499 E4407.93222
G0 F6000 X-68.999 Y77.499
G1 F2400 X-69 Y-77.498 E4417.59826
G0 F6000 X-68.5 Y-77.498
G1 F2400 X-68.499 Y77.499 E4427.26423
G0 F6000 X-67.999 Y77.499
G1 F2400 X-68 Y-77.498 E4436.93027
G0 F6000 X-67.5 Y-77.498
G1 F2400 X-67.499 Y77.499 E4446.59625
G0 F6000 X-66.999 Y77.499
G1 F2400 X-67 Y-77.498 E4456.26229
G0 F6000 X-66.5 Y-77.498
G1 F2400 X-66.499 Y77.499 E4465.92827
G0 F6000 X-65.999 Y77.499
G1 F2400 X-66 Y-77.498 E4475.59431
G0 F6000 X-65.5 Y-77.498
G1 F2400 X-65.499 Y77.499 E4485.26029
G0 F6000 X-64.999 Y77.499
G1 F2400 X-65 Y-77.498 E4494.92632
G0 F6000 X-64.5 Y-77.498
G1 F2400 X-64.499 Y77.499 E4504.5923
G0 F6000 X-63.999 Y77.499
G1 F2400 X-64 Y-77.498 E4514.25834
G0 F6000 X-63.5 Y-77.498
G1 F2400 X-63.499 Y77.499 E4523.92432
G0 F6000 X-62.999 Y77.499
G1 F2400 X-63 Y-77.498 E4533.59036
G0 F6000 X-62.5 Y-77.498
G1 F2400 X-62.499 Y77.499 E4543.25634
G0 F6000 X-61.999 Y77.499
G1 F2400 X-62 Y-77.498 E4552.92238
G0 F6000 X-61.5 Y-77.498
G1 F2400 X-61.499 Y77.499 E4562.58835
G0 F6000 X-60.999 Y77.499
G1 F2400 X-61 Y-77.498 E4572.25439
G0 F6000 X-60.5 Y-77.498
G1 F2400 X-60.499 Y77.499 E4581.92037
G0 F6000 X-59.999 Y77.499
G1 F2400 X-60 Y-77.498 E4591.58641
G0 F6000 X-59.5 Y-77.498
G1 F2400 X-59.499 Y77.499 E4601.25239
G0 F6000 X-58.999 Y77.499
G1 F2400 X-59 Y-77.499 E4610.91849
G0 F6000 X-58.5 Y-77.499
G1 F2400 X-58.499 Y77.499 E4620.58453
G0 F6000 X-57.999 Y77.499
G1 F2400 X-58 Y-77.499 E4630.25063
G0 F6000 X-57.5 Y-77.499
G1 F2400 X-57.499 Y77.499 E4639.91667
G0 F6000 X-56.999 Y77.499
G1 F2400 X-57 Y-77.499 E4649.58277
G0 F6000 X-56.5 Y-77.499
G1 F2400 X-56.499 Y77.499 E4659.24881
G0 F6000 X-55.999 Y77.499
G1 F2400 X-56 Y-77.499 E4668.91491
G0 F6000 X-55.5 Y-77.499
G1 F2400 X-55.499 Y77.499 E4678.58095
G0 F6000 X-54.999 Y77.499
G1 F2400 X-55 Y-77.499 E4688.24706
G0 F6000 X-54.5 Y-77.499
G1 F2400 X-54.499 Y77.499 E4697.9131
G0 F6000 X-53.999 Y77.499
G1 F2400 X-54 Y-77.499 E4707.5792
G0 F6000 X-53.5 Y-77.499
G1 F2400 X-53.499 Y77.499 E4717.24524
G0 F6000 X-52.999 Y77.499
G1 F2400 X-53 Y-77.499 E4726.91134
G0 F6000 X-52.5 Y-77.499
G1 F2400 X-52.499 Y77.499 E4736.57738
G0 F6000 X-51.999 Y77.499
G1 F2400 X-52 Y-77.499 E4746.24348
G0 F6000 X-51.5 Y-77.499
G1 F2400 X-51.499 Y77.499 E4755.90952
G0 F6000 X-50.999 Y77.499
G1 F2400 X-51 Y-77.499 E4765.57562
G0 F6000 X-50.5 Y-77.499
G1 F2400 X-50.499 Y77.499 E4775.24166
G0 F6000 X-49.999 Y77.499
G1 F2400 X-50 Y-77.499 E4784.90776
G0 F6000 X-49.5 Y-77.499
G1 F2400 X-49.499 Y77.499 E4794.5738
G0 F6000 X-48.999 Y77.499
G1 F2400 X-49 Y-77.499 E4804.23991
G0 F6000 X-48.5 Y-77.499
G1 F2400 X-48.499 Y77.499 E4813.90595
G0 F6000 X-47.999 Y77.499
G1 F2400 X-48 Y-77.499 E4823.57205
G0 F6000 X-47.5 Y-77.499
G1 F2400 X-47.499 Y77.499 E4833.23809
G0 F6000 X-46.999 Y77.499
G1 F2400 X-47 Y-77.499 E4842.90419
G0 F6000 X-46.5 Y-77.499
G1 F2400 X-46.499 Y77.499 E4852.57023
G0 F6000 X-45.999 Y77.499
G1 F2400 X-46 Y-77.499 E4862.23633
G0 F6000 X-45.5 Y-77.499
G1 F2400 X-45.499 Y77.499 E4871.90237
G0 F6000 X-44.999 Y77.499
G1 F2400 X-45 Y-77.499 E4881.56847
G0 F6000 X-44.5 Y-77.499
G1 F2400 X-44.499 Y77.499 E4891.23451
G0 F6000 X-43.999 Y77.499
G1 F2400 X-44 Y-77.499 E4900.90061
G0 F6000 X-43.5 Y-77.499
G1 F2400 X-43.499 Y77.499 E4910.56665
G0 F6000 X-42.999 Y77.499
G1 F2400 X-43 Y-77.499 E4920.23276
G0 F6000 X-42.5 Y-77.499
G1 F2400 X-42.499 Y77.499 E4929.8988
G0 F6000 X-41.999 Y77.499
G1 F2400 X-42 Y-77.499 E4939.5649
G0 F6000 X-41.5 Y-77.499
G1 F2400 X-41.499 Y77.499 E4949.23094
G0 F6000 X-40.999 Y77.499
G1 F2400 X-41 Y-77.499 E4958.89704
G0 F6000 X-40.5 Y-77.499
G1 F2400 X-40.499 Y77.499 E4968.56308
G0 F6000 X-39.999 Y77.499
G1 F2400 X-40 Y-77.499 E4978.22918
G0 F6000 X-39.5 Y-77.499
G1 F2400 X-39.499 Y77.499 E4987.89522
G0 F6000 X-38.999 Y77.499
G1 F2400 X-39 Y-77.499 E4997.56132
G0 F6000 X-38.5 Y-77.499
G1 F2400 X-38.499 Y77.499 E5007.22736
G0 F6000 X-37.999 Y77.499
G1 F2400 X-38 Y-77.499 E5016.89346
G0 F6000 X-37.5 Y-77.499
G1 F2400 X-37.499 Y77.499 E5026.5595
G0 F6000 X-36.999 Y77.499
G1 F2400 X-37 Y-77.499 E5036.22561
G0 F6000 X-36.5 Y-77.499
G1 F2400 X-36.499 Y77.499 E5045.89165
G0 F6000 X-35.999 Y77.499
G1 F2400 X-36 Y-77.499 E5055.55775
G0 F6000 X-35.5 Y-77.499
G1 F2400 X-35.499 Y77.499 E5065.22379
G0 F6000 X-34.999 Y77.499
G1 F2400 X-35 Y-77.499 E5074.88989
G0 F6000 X-34.5 Y-77.499
G1 F2400 X-34.499 Y77.499 E5084.55593
G0 F6000 X-33.999 Y77.499
G1 F2400 X-34 Y-77.499 E5094.22203
G0 F6000 X-33.5 Y-77.499
G1 F2400 X-33.499 Y77.499 E5103.88807
G0 F6000 X-32.999 Y77.499
G1 F2400 X-33 Y-77.499 E5113.55417
G0 F6000 X-32.5 Y-77.499
G1 F2400 X-32.499 Y77.499 E5123.22021
G0 F6000 X-31.999 Y77.499
G1 F2400 X-32 Y-77.499 E5132.88631
G0 F6000 X-31.5 Y-77.499
G1 F2400 X-31.499 Y77.499 E5142.55235
G0 F6000 X-30.999 Y77.499
G1 F2400 X-31 Y-77.499 E5152.21846
G0 F6000 X-30.5 Y-77.499
G1 F2400 X-30.499 Y77.499 E5161.8845
G0 F6000 X-29.999 Y77.499
G1 F2400 X-30 Y-77.499 E5171.5506
G0 F6000 X-29.5 Y-77.499
G1 F2400 X-29.499 Y77.499 E5181.21664
G0 F6000 X-28.999 Y77.499
G1 F2400 X-29 Y-77.499 E5190.88274
G0 F6000 X-28.5 Y-77.499
G1 F2400 X-28.499 Y77.499 E5200.54878
G0 F6000 X-27.999 Y77.499
G1 F2400 X-28 Y-77.499 E5210.21488
G0 F6000 X-27.5 Y-77.499
G1 F2400 X-27.499 Y77.499 E5219.88092
G0 F6000 X-26.999 Y77.499
G1 F2400 X-27 Y-77.499 E5229.54702
G0 F6000 X-26.5 Y-77.499
G1 F2400 X-26.499 Y77.499 E5239.21306
G0 F6000 X-25.999 Y77.499
G1 F2400 X-26 Y-77.499 E5248.87916
G0 F6000 X-25.5 Y-77.499
G1 F2400 X-25.499 Y77.499 E5258.5452
G0 F6000 X-24.999 Y77.499
G1 F2400 X-25 Y-77.499 E5268.21131
G0 F6000 X-24.5 Y-77.499
G1 F2400 X-24.499 Y77.499 E5277.87735
G0 F6000 X-23.999 Y77.499
G1 F2400 X-24 Y-77.499 E5287.54345
G0 F6000 X-23.5 Y-77.499
G1 F2400 X-23.499 Y77.499 E5297.20949
G0 F6000 X-22.999 Y77.499
G1 F2400 X-23 Y-77.499 E5306.87559
G0 F6000 X-22.5 Y-77.499
G1 F2400 X-22.499 Y77.499 E5316.54163
G0 F6000 X-21.999 Y77.499
G1 F2400 X-22 Y-77.499 E5326.20773
G0 F6000 X-21.5 Y-77.499
G1 F2400 X-21.499 Y77.499 E5335.87377
G0 F6000 X-20.999 Y77.499
G1 F2400 X-21 Y-77.499 E5345.53987
G0 F6000 X-20.5 Y-77.499
G1 F2400 X-20.499 Y77.499 E5355.20591
G0 F6000 X-19.999 Y77.499
G1 F2400 X-20 Y-77.499 E5364.87201
G0 F6000 X-19.5 Y-77.499
G1 F2400 X-19.499 Y77.499 E5374.53805
G0 F6000 X-18.999 Y77.499
G1 F2400 X-19 Y-77.499 E5384.20416
G0 F6000 X-18.5 Y-77.499
G1 F2400 X-18.499 Y77.499 E5393.8702
G0 F6000 X-17.999 Y77.499
G1 F2400 X-18 Y-77.499 E5403.5363
G0 F6000 X-17.5 Y-77.499
G1 F2400 X-17.499 Y77.499 E5413.20234
G0 F6000 X-16.999 Y77.499
G1 F2400 X-17 Y-77.499 E5422.86844
G0 F6000 X-16.5 Y-77.499
G1 F2400 X-16.499 Y77.499 E5432.53448
G0 F6000 X-15.999 Y77.499
G1 F2400 X-16 Y-77.499 E5442.20058
G0 F6000 X-15.5 Y-77.499
G1 F2400 X-15.499 Y77.499 E5451.86662
G0 F6000 X-14.999 Y77.499
G1 F2400 X-15 Y-77.499 E5461.53272
G0 F6000 X-14.5 Y-77.499
G1 F2400 X-14.499 Y77.499 E5471.19876
G0 F6000 X-13.999 Y77.499
G1 F2400 X-14 Y-77.499 E5480.86486
G0 F6000 X-13.5 Y-77.499
G1 F2400 X-13.499 Y77.499 E5490.5309
G0 F6000 X-12.999 Y77.499
G1 F2400 X-13 Y-77.499 E5500.19701
G0 F6000 X-12.5 Y-77.499
G1 F2400 X-12.499 Y77.499 E5509.86305
G0 F6000 X-11.999 Y77.499
G1 F2400 X-12 Y-77.499 E5519.52915
G0 F6000 X-11.5 Y-77.499
G1 F2400 X-11.499 Y77.499 E5529.19519
G0 F6000 X-10.999 Y77.499
G1 F2400 X-11 Y-77.499 E5538.86129
G0 F6000 X-10.5 Y-77.499
G1 F2400 X-10.499 Y77.499 E5548.52733
G0 F6000 X-9.999 Y77.499
G1 F2400 X-10 Y-77.499 E5558.19343
G0 F6000 X-9.5 Y-77.499
G1 F2400 X-9.499 Y77.499 E5567.85947
G0 F6000 X-8.999 Y77.499
G1 F2400 X-9 Y-77.499 E5577.52557
G0 F6000 X-8.5 Y-77.499
G1 F2400 X-8.499 Y77.499 E5587.19161
G0 F6000 X-7.999 Y77.499
G1 F2400 X-8 Y-77.499 E5596.85771
G0 F6000 X-7.5 Y-77.499
G1 F2400 X-7.499 Y77.499 E5606.52375
G0 F6000 X-6.999 Y77.499
G1 F2400 X-7 Y-77.499 E5616.18986
G0 F6000 X-6.5 Y-77.499
G1 F2400 X-6.499 Y77.499 E5625.8559
G0 F6000 X-5.999 Y77.499
G1 F2400 X-6 Y-77.499 E5635.522
G0 F6000 X-5.5 Y-77.499
G1 F2400 X-5.499 Y77.499 E5645.18804
G0 F6000 X-4.999 Y77.499
G1 F2400 X-5 Y-77.499 E5654.85414
G0 F6000 X-4.5 Y-77.499
G1 F2400 X-4.499 Y77.499 E5664.52018
G0 F6000 X-3.999 Y77.499
G1 F2400 X-4 Y-77.499 E5674.18628
G0 F6000 X-3.5 Y-77.499
G1 F2400 X-3.499 Y77.499 E5683.85232
G0 F6000 X-2.999 Y77.499
G1 F2400 X-3 Y-77.499 E5693.51842
G0 F6000 X-2.5 Y-77.499
G1 F2400 X-2.499 Y77.499 E5703.18446
G0 F6000 X-1.999 Y77.499
G1 F2400 X-2 Y-77.499 E5712.85056
G0 F6000 X-1.5 Y-77.499
G1 F2400 X-1.499 Y77.499 E5722.5166
G0 F6000 X-0.999 Y77.499
G1 F2400 X-1 Y-77.499 E5732.18271
G0 F6000 X-0.5 Y-77.499
G1 F2400 X-0.499 Y77.499 E5741.84875
G0 F6000 X0 Y77.499
G1 F2400 X0 Y-77.499 E5751.51485
G0 F6000 X0.499 Y-77.498
G1 F2400 X0.5 Y77.5 E5761.18089
G0 F6000 X1 Y77.5
G1 F2400 X0.999 Y-77.498 E5770.84699
G0 F6000 X1.499 Y-77.498
G1 F2400 X1.5 Y77.5 E5780.51303
G0 F6000 X2 Y77.5
G1 F2400 X1.999 Y-77.498 E5790.17913
G0 F6000 X2.499 Y-77.498
G1 F2400 X2.5 Y77.5 E5799.84517
G0 F6000 X3 Y77.5
G1 F2400 X2.999 Y-77.498 E5809.51127
G0 F6000 X3.499 Y-77.498
G1 F2400 X3.5 Y77.5 E5819.17731
G0 F6000 X4 Y77.5
G1 F2400 X3.999 Y-77.498 E5828.84341
G0 F6000 X4.499 Y-77.498
G1 F2400 X4.5 Y77.5 E5838.50945
G0 F6000 X5 Y77.5
G1 F2400 X4.999 Y-77.498 E5848.17556
G0 F6000 X5.499 Y-77.498
G1 F2400 X5.5 Y77.5 E5857.8416
G0 F6000 X6 Y77.5
G1 F2400 X5.999 Y-77.498 E5867.5077
G0 F6000 X6.499 Y-77.498
G1 F2400 X6.5 Y77.5 E5877.17374
G0 F6000 X7 Y77.5
G1 F2400 X6.999 Y-77.498 E5886.83984
G0 F6000 X7.499 Y-77.498
G1 F2400 X7.5 Y77.5 E5896.50588
G0 F6000 X8 Y77.5
G1 F2400 X7.999 Y-77.498 E5906.17198
G0 F6000 X8.499 Y-77.498
G1 F2400 X8.5 Y77.5 E5915.83802
G0 F6000 X9 Y77.5
G1 F2400 X8.999 Y-77.498 E5925.50412
G0 F6000 X9.499 Y-77.498
G1 F2400 X9.5 Y77.5 E5935.17016
G0 F6000 X10 Y77.5
G1 F2400 X9.999 Y-77.498 E5944.83626
G0 F6000 X10.499 Y-77.498
G1 F2400 X10.5 Y77.5 E5954.5023
G0 F6000 X11 Y77.5
G1 F2400 X10.999 Y-77.498 E5964.16841
G0 F6000 X11.499 Y-77.498
G1 F2400 X11.5 Y77.5 E5973.83445
G0 F6000 X12 Y77.5
G1 F2400 X11.999 Y-77.498 E5983.50055
G0 F6000 X12.499 Y-77.498
G1 F2400 X12.5 Y77.5 E5993.16659
G0 F6000 X13 Y77.5
G1 F2400 X12.999 Y-77.498 E6002.83269
G0 F6000 X13.499 Y-77.498
G1 F2400 X13.5 Y77.5 E6012.49873
G0 F6000 X14 Y77.5
G1 F2400 X13.999 Y-77.498 E6022.16483
G0 F6000 X14.499 Y-77.498
G1 F2400 X14.5 Y77.5 E6031.83087
G0 F6000 X15 Y77.5
G1 F2400 X14.999 Y-77.498 E6041.49697
G0 F6000 X15.499 Y-77.498
G1 F2400 X15.5 Y77.5 E6051.16301
G0 F6000 X16 Y77.5
G1 F2400 X15.999 Y-77.498 E6060.82912
G0 F6000 X16.499 Y-77.498
G1 F2400 X16.5 Y77.5 E6070.49515
G0 F6000 X17 Y77.5
G1 F2400 X16.999 Y-77.498 E6080.16126
G0 F6000 X17.499 Y-77.498
G1 F2400 X17.5 Y77.5 E6089.8273
G0 F6000 X18 Y77.5
G1 F2400 X17.999 Y-77.498 E6099.4934
G0 F6000 X18.499 Y-77.498
G1 F2400 X18.5 Y77.5 E6109.15944
G0 F6000 X19 Y77.5
G1 F2400 X18.999 Y-77.498 E6118.82554
G0 F6000 X19.499 Y-77.498
G1 F2400 X19.5 Y77.5 E6128.49158
G0 F6000 X20 Y77.5
G1 F2400 X19.999 Y-77.498 E6138.15768
G0 F6000 X20.499 Y-77.498
G1 F2400 X20.5 Y77.5 E6147.82372
G0 F6000 X21 Y77.5
G1 F2400 X20.999 Y-77.498 E6157.48982
G0 F6000 X21.499 Y-77.498
G1 F2400 X21.5 Y77.5 E6167.15586
G0 F6000 X22 Y77.5
G1 F2400 X21.999 Y-77.498 E6176.82197
G0 F6000 X22.499 Y-77.498
G1 F2400 X22.5 Y77.5 E6186.488
G0 F6000 X23 Y77.5
G1 F2400 X22.999 Y-77.498 E6196.15411
G0 F6000 X23.499 Y-77.498
G1 F2400 X23.5 Y77.5 E6205.82015
G0 F6000 X24 Y77.5
G1 F2400 X23.999 Y-77.498 E6215.48625
G0 F6000 X24.499 Y-77.498
G1 F2400 X24.5 Y77.5 E6225.15229
G0 F6000 X25 Y77.5
G1 F2400 X24.999 Y-77.498 E6234.81839
G0 F6000 X25.499 Y-77.498
G1 F2400 X25.5 Y77.5 E6244.48443
G0 F6000 X26 Y77.5
G1 F2400 X25.999 Y-77.498 E6254.15053
G0 F6000 X26.499 Y-77.498
G1 F2400 X26.5 Y77.5 E6263.81657
G0 F6000 X27 Y77.5
G1 F2400 X26.999 Y-77.498 E6273.48267
G0 F6000 X27.499 Y-77.498
G1 F2400 X27.5 Y77.5 E6283.14871
G0 F6000 X28 Y77.5
G1 F2400 X27.999 Y-77.498 E6292.81482
G0 F6000 X28.499 Y-77.498
G1 F2400 X28.5 Y77.5 E6302.48085
G0 F6000 X29 Y77.5
G1 F2400 X28.999 Y-77.498 E6312.14696
G0 F6000 X29.499 Y-77.498
G1 F2400 X29.5 Y77.5 E6321.813
G0 F6000 X30 Y77.5
G1 F2400 X29.999 Y-77.498 E6331.4791
G0 F6000 X30.499 Y-77.498
G1 F2400 X30.5 Y77.5 E6341.14514
G0 F6000 X31 Y77.5
G1 F2400 X30.999 Y-77.498 E6350.81124
G0 F6000 X31.499 Y-77.498
G1 F2400 X31.5 Y77.5 E6360.47728
G0 F6000 X32 Y77.5
G1 F2400 X31.999 Y-77.498 E6370.14338
G0 F6000 X32.499 Y-77.498
G1 F2400 X32.5 Y77.5 E6379.80942
G0 F6000 X33 Y77.5
G1 F2400 X32.999 Y-77.498 E6389.47552
G0 F6000 X33.499 Y-77.498
G1 F2400 X33.5 Y77.5 E6399.14156
G0 F6000 X34 Y77.5
G1 F2400 X33.999 Y-77.498 E6408.80767
G0 F6000 X34.499 Y-77.498
G1 F2400 X34.5 Y77.5 E6418.4737
G0 F6000 X35 Y77.5
G1 F2400 X34.999 Y-77.498 E6428.13981
G0 F6000 X35.499 Y-77.498
G1 F2400 X35.5 Y77.5 E6437.80585
G0 F6000 X36 Y77.5
G1 F2400 X35.999 Y-77.498 E6447.47195
G0 F6000 X36.499 Y-77.498
G1 F2400 X36.5 Y77.5 E6457.13799
G0 F6000 X37 Y77.5
G1 F2400 X36.999 Y-77.498 E6466.80409
G0 F6000 X37.499 Y-77.498
G1 F2400 X37.5 Y77.5 E6476.47013
G0 F6000 X38 Y77.5
G1 F2400 X37.999 Y-77.498 E6486.13623
G0 F6000 X38.499 Y-77.498
G1 F2400 X38.5 Y77.5 E6495.80227
G0 F6000 X39 Y77.5
G1 F2400 X38.999 Y-77.498 E6505.46837
G0 F6000 X39.499 Y-77.498
G1 F2400 X39.5 Y77.5 E6515.13441
G0 F6000 X40 Y77.5
G1 F2400 X39.999 Y-77.498 E6524.80052
G0 F6000 X40.499 Y-77.498
G1 F2400 X40.5 Y77.5 E6534.46656
G0 F6000 X41 Y77.5
G1 F2400 X40.999 Y-77.498 E6544.13266
G0 F6000 X41.499 Y-77.498
G1 F2400 X41.5 Y77.5 E6553.7987
G0 F6000 X42 Y77.5
G1 F2400 X41.999 Y-77.498 E6563.4648
G0 F6000 X42.499 Y-77.498
G1 F2400 X42.5 Y77.5 E6573.13084
G0 F6000 X43 Y77.5
G1 F2400 X42.999 Y-77.498 E6582.79694
G0 F6000 X43.499 Y-77.498
G1 F2400 X43.5 Y77.5 E6592.46298
G0 F6000 X44 Y77.5
G1 F2400 X43.999 Y-77.498 E6602.12908
G0 F6000 X44.499 Y-77.498
G1 F2400 X44.5 Y77.5 E6611.79512
G0 F6000 X45 Y77.5
G1 F2400 X44.999 Y-77.498 E6621.46122
G0 F6000 X45.499 Y-77.498
G1 F2400 X45.5 Y77.5 E6631.12726
G0 F6000 X46 Y77.5
G1 F2400 X45.999 Y-77.498 E6640.79337
G0 F6000 X46.499 Y-77.498
G1 F2400 X46.5 Y77.5 E6650.45941
G0 F6000 X47 Y77.5
G1 F2400 X46.999 Y-77.498 E6660.12551
G0 F6000 X47.499 Y-77.498
G1 F2400 X47.5 Y77.5 E6669.79155
G0 F6000 X48 Y77.5
G1 F2400 X47.999 Y-77.498 E6679.45765
G0 F6000 X48.499 Y-77.498
G1 F2400 X48.5 Y77.5 E6689.12369
G0 F6000 X49 Y77.5
G1 F2400 X48.999 Y-77.498 E6698.78979
G0 F6000 X49.499 Y-77.498
G1 F2400 X49.5 Y77.5 E6708.45583
G0 F6000 X50 Y77.5
G1 F2400 X49.999 Y-77.498 E6718.12193
G0 F6000 X50.499 Y-77.498
G1 F2400 X50.5 Y77.5 E6727.78797
G0 F6000 X51 Y77.5
G1 F2400 X50.999 Y-77.498 E6737.45407
G0 F6000 X51.499 Y-77.498
G1 F2400 X51.5 Y77.5 E6747.12011
G0 F6000 X52 Y77.5
G1 F2400 X51.999 Y-77.498 E6756.78622
G0 F6000 X52.499 Y-77.498
G1 F2400 X52.5 Y77.5 E6766.45226
G0 F6000 X53 Y77.5
G1 F2400 X52.999 Y-77.498 E6776.11836
G0 F6000 X53.499 Y-77.498
G1 F2400 X53.5 Y77.5 E6785.7844
G0 F6000 X54 Y77.5
G1 F2400 X53.999 Y-77.498 E6795.4505
G0 F6000 X54.499 Y-77.498
G1 F2400 X54.5 Y77.5 E6805.11654
G0 F6000 X55 Y77.5
G1 F2400 X54.999 Y-77.498 E6814.78264
G0 F6000 X55.499 Y-77.498
G1 F2400 X55.5 Y77.5 E6824.44868
G0 F6000 X56 Y77.5
G1 F2400 X55.999 Y-77.498 E6834.11478
G0 F6000 X56.499 Y-77.498
G1 F2400 X56.5 Y77.5 E6843.78082
G0 F6000 X57 Y77.5
G1 F2400 X56.999 Y-77.498 E6853.44692
G0 F6000 X57.499 Y-77.498
G1 F2400 X57.5 Y77.5 E6863.11296
G0 F6000 X58 Y77.5
G1 F2400 X57.999 Y-77.498 E6872.77907
G0 F6000 X58.499 Y-77.498
G1 F2400 X58.5 Y77.5 E6882.44511
G0 F6000 X59 Y77.5
G1 F2400 X58.999 Y-77.498 E6892.11121
G0 F6000 X59.499 Y-77.498
G1 F2400 X59.5 Y77.499 E6901.77718
G0 F6000 X60 Y77.499
G1 F2400 X59.999 Y-77.498 E6911.44322
G0 F6000 X60.499 Y-77.498
G1 F2400 X60.5 Y77.499 E6921.1092
G0 F6000 X61 Y77.499
G1 F2400 X60.999 Y-77.498 E6930.77524
G0 F6000 X61.499 Y-77.498
G1 F2400 X61.5 Y77.499 E6940.44122
G0 F6000 X62 Y77.499
G1 F2400 X61.999 Y-77.498 E6950.10726
G0 F6000 X62.499 Y-77.498
G1 F2400 X62.5 Y77.499 E6959.77324
G0 F6000 X63 Y77.499
G1 F2400 X62.999 Y-77.498 E6969.43928
G0 F6000 X63.499 Y-77.498
G1 F2400 X63.5 Y77.499 E6979.10525
G0 F6000 X64 Y77.499
G1 F2400 X63.999 Y-77.498 E6988.77129
G0 F6000 X64.499 Y-77.498
G1 F2400 X64.5 Y77.499 E6998.43727
G0 F6000 X65 Y77.499
G1 F2400 X64.999 Y-77.498 E7008.10331
G0 F6000 X65.499 Y-77.498
G1 F2400 X65.5 Y77.499 E7017.76929
G0 F6000 X66 Y77.499
G1 F2400 X65.999 Y-77.498 E7027.43533
G0 F6000 X66.499 Y-77.498
G1 F2400 X66.5 Y77.499 E7037.1013
G0 F6000 X67 Y77.499
G1 F2400 X66.999 Y-77.498 E7046.76734
G0 F6000 X67.499 Y-77.498
G1 F2400 X67.5 Y77.499 E7056.43332
G0 F6000 X68 Y77.499
G1 F2400 X67.999 Y-77.498 E7066.09936
G0 F6000 X68.499 Y-77.498
G1 F2400 X68.5 Y77.499 E7075.76534
G0 F6000 X69 Y77.499
G1 F2400 X68.999 Y-77.498 E7085.43138
G0 F6000 X69.499 Y-77.498
G1 F2400 X69.5 Y77.499 E7095.09735
G0 F6000 X70 Y77.499
G1 F2400 X69.999 Y-77.498 E7104.76339
G0 F6000 X70.499 Y-77.498
G1 F2400 X70.5 Y77.499 E7114.42937
G0 F6000 X71 Y77.499
G1 F2400 X70.999 Y-77.498 E7124.09541
G0 F6000 X71.499 Y-77.498
G1 F2400 X71.5 Y77.499 E7133.76139
G0 F6000 X72 Y77.499
G1 F2400 X71.999 Y-77.498 E7143.42743
G0 F6000 X72.499 Y-77.498
G1 F2400 X72.5 Y77.499 E7153.09341
G0 F6000 X73 Y77.499
G1 F2400 X72.999 Y-77.498 E7162.75944
G0 F6000 X73.499 Y-77.498
G1 F2400 X73.5 Y77.499 E7172.42542
G0 F6000 X74 Y77.499
G1 F2400 X73.999 Y-77.498 E7182.09146
G0 F6000 X74.499 Y-77.498
G1 F2400 X74.5 Y77.499 E7191.75744
G0 F6000 X75 Y77.499
G1 F2400 X74.999 Y-77.498 E7201.42348
G0 F6000 X75.499 Y-77.498
G1 F2400 X75.5 Y77.499 E7211.08946
G0 F6000 X76 Y77.499
G1 F2400 X75.999 Y-77.498 E7220.7555
G0 F6000 X76.499 Y-77.498
G1 F2400 X76.5 Y77.499 E7230.42147
G0 F6000 X77 Y77.499
G1 F2400 X76.999 Y-77.498 E7240.08751
G0 F6000 X77.499 Y-77.498
G1 F2400 X77.5 Y77.499 E7249.75349
G0 F6000 X78 Y77.499
G1 F2400 X77.999 Y-77.498 E7259.41953
G0 F6000 X78.499 Y-77.498
G1 F2400 X78.5 Y77.499 E7269.08551
G0 F6000 X79 Y77.499
G1 F2400 X78.999 Y-77.498 E7278.75155
G0 F6000 X79.499 Y-77.498
G1 F2400 X79.5 Y77.499 E7288.41752
G0 F6000 X80 Y77.499
G1 F2400 X79.999 Y-77.498 E7298.08356
G0 F6000 X80.499 Y-77.498
G1 F2400 X80.5 Y77.499 E7307.74954
G0 F6000 X81 Y77.499
G1 F2400 X80.999 Y-77.498 E7317.41558
G0 F6000 X81.499 Y-77.498
G1 F2400 X81.5 Y77.499 E7327.08156
G0 F6000 X82 Y77.499
G1 F2400 X81.999 Y-77.498 E7336.7476
G0 F6000 X82.499 Y-77.498
G1 F2400 X82.5 Y77.499 E7346.41357
G0 F6000 X83 Y77.499
G1 F2400 X82.999 Y-77.498 E7356.07961
G0 F6000 X83.499 Y-77.498
G1 F2400 X83.5 Y77.499 E7365.74559
G0 F6000 X84 Y77.499
G1 F2400 X83.999 Y-77.498 E7375.41163
G0 F6000 X84.499 Y-77.498
G1 F2400 X84.5 Y77.499 E7385.07761
G0 F6000 X85 Y77.499
G1 F2400 X84.999 Y-77.498 E7394.74365
G0 F6000 X85.499 Y-77.498
G1 F2400 X85.5 Y77.499 E7404.40963
G0 F6000 X86 Y77.499
G1 F2400 X85.999 Y-77.498 E7414.07567
G0 F6000 X86.499 Y-77.498
G1 F2400 X86.5 Y77.499 E7423.74164
G0 F6000 X87 Y77.499
G1 F2400 X86.999 Y-77.498 E7433.40768
G0 F6000 X87.499 Y-77.498
G1 F2400 X87.5 Y77.499 E7443.07366
G0 F6000 X88 Y77.499
G1 F2400 X87.999 Y-77.498 E7452.7397
G0 F6000 X88.499 Y-77.498
G1 F2400 X88.5 Y77.499 E7462.40568
G0 F6000 X89 Y77.499
G1 F2400 X88.999 Y-77.498 E7472.07172
G0 F6000 X89.499 Y-77.498
G1 F2400 X89.5 Y77.499 E7481.73769
G0 F6000 X90 Y77.499
G1 F2400 X89.999 Y-77.498 E7491.40373
G0 F6000 X90.499 Y-77.498
G1 F2400 X90.5 Y77.499 E7501.06971
G0 F6000 X91 Y77.499
G1 F2400 X90.999 Y-77.498 E7510.73575
G0 F6000 X91.499 Y-77.498
G1 F2400 X91.5 Y77.499 E7520.40173
G0 F6000 X92 Y77.499
G1 F2400 X91.999 Y-77.498 E7530.06777
G0 F6000 X92.499 Y-77.498
G1 F2400 X92.5 Y77.499 E7539.73374
G0 F6000 X93 Y77.499
G1 F2400 X92.999 Y-77.498 E7549.39978
G0 F6000 X93.499 Y-77.498
G1 F2400 X93.5 Y77.499 E7559.06576
G0 F6000 X94 Y77.499
G1 F2400 X93.999 Y-77.498 E7568.7318
G0 F6000 X94.499 Y-77.498
G1 F2400 X94.5 Y77.499 E7578.39778
; LAYER:2
M106 S153
G0 F6000 X94.985 Y77.69 Z0.9
; TYPE:WALL-INNER
G1 F2400 X-94.983 Y77.69 E7590.24471
G1 X-94.983 Y-77.689 E7599.93457
G1 X94.985 Y-77.689 E7611.78143
G1 X94.985 Y77.69 E7621.47123
G0 F6000 X95.485 Y78.19
; TYPE:WALL-OUTER
G1 F2100 X-95.483 Y78.19 E7633.38052
G1 X-95.483 Y-78.189 E7643.13275
G1 X95.485 Y-78.189 E7655.04198
G1 X95.485 Y78.19 E7664.79414
G0 F6000 X94.795 Y77
; TYPE:FILL
G1 F2400 X-94.793 Y77 E7676.61737
G0 F6000 X-94.793 Y76.5
G1 F2400 X94.795 Y76.5 E7688.44054
G0 F6000 X94.795 Y76
G1 F2400 X-94.793 Y76 E7700.26377
G0 F6000 X-94.793 Y75.5
G1 F2400 X94.795 Y75.5 E7712.08693
G0 F6000 X94.795 Y75
G1 F2400 X-94.793 Y75 E7723.91016
G0 F6000 X-94.793 Y74.5
G1 F2400 X94.795 Y74.5 E7735.73333
G0 F6000 X94.795 Y74
G1 F2400 X-94.793 Y74 E7747.55656
G0 F6000 X-94.793 Y73.5
G1 F2400 X94.795 Y73.5 E7759.37973
G0 F6000 X94.795 Y73
G1 F2400 X-94.793 Y73 E7771.20296
G0 F6000 X-94.793 Y72.5
G1 F2400 X94.795 Y72.5 E7783.02612
G0 F6000 X94.795 Y72
G1 F2400 X-94.793 Y72 E7794.84935
G0 F6000 X-94.793 Y71.5
G1 F2400 X94.795 Y71.5 E7806.67252
G0 F6000 X94.795 Y71
G1 F2400 X-94.793 Y71 E7818.49575
G0 F6000 X-94.793 Y70.5
G1 F2400 X94.795 Y70.5 E7830.31892
G0 F6000 X94.795 Y70
G1 F2400 X-94.793 Y70 E7842.14215
G0 F6000 X-94.793 Y69.5
G1 F2400 X94.795 Y69.5 E7853.96531
G0 F6000 X94.795 Y69
G1 F2400 X-94.793 Y69 E7865.78854
G0 F6000 X-94.793 Y68.5
G1 F2400 X94.795 Y68.5 E7877.61171
G0 F6000 X94.795 Y68
G1 F2400 X-94.793 Y68 E7889.43494
G0 F6000 X-94.793 Y67.5
G1 F2400 X94.795 Y67.5 E7901.25811
G0 F6000 X94.795 Y67
G1 F2400 X-94.793 Y67 E7913.08134
G0 F6000 X-94.793 Y66.5
G1 F2400 X94.795 Y66.5 E7924.90451
G0 F6000 X94.795 Y66
G1 F2400 X-94.793 Y66 E7936.72773
G0 F6000 X-94.793 Y65.5
G1 F2400 X94.795 Y65.499 E7948.5509
G0 F6000 X94.795 Y64.999
G1 F2400 X-94.793 Y65 E7960.37413
G0 F6000 X-94.793 Y64.5
G1 F2400 X94.795 Y64.499 E7972.1973
G0 F6000 X94.795 Y63.999
G1 F2400 X-94.793 Y64 E7984.02053
G0 F6000 X-94.793 Y63.5
G1 F2400 X94.795 Y63.499 E7995.8437
G0 F6000 X94.795 Y62.999
G1 F2400 X-94.793 Y63 E8007.66693
G0 F6000 X-94.793 Y62.5
G1 F2400 X94.795 Y62.499 E8019.49009
G0 F6000 X94.795 Y61.999
G1 F2400 X-94.793 Y62 E8031.31332
G0 F6000 X-94.793 Y61.5
G1 F2400 X94.795 Y61.499 E8043.13649
G0 F6000 X94.795 Y60.999
G1 F2400 X-94.793 Y61 E8054.95972
G0 F6000 X-94.793 Y60.5
G1 F2400 X94.795 Y60.499 E8066.78289
G0 F6000 X94.795 Y59.999
G1 F2400 X-94.793 Y60 E8078.60612
G0 F6000 X-94.793 Y59.5
G1 F2400 X94.795 Y59.499 E8090.42928
G0 F6000 X94.795 Y58.999
G1 F2400 X-94.793 Y59 E8102.25251
G0 F6000 X-94.793 Y58.5
G1 F2400 X94.795 Y58.499 E8114.07568
G0 F6000 X94.795 Y57.999
G1 F2400 X-94.793 Y58 E8125.89891
G0 F6000 X-94.793 Y57.5
G1 F2400 X94.795 Y57.499 E8137.72208
G0 F6000 X94.795 Y56.999
G1 F2400 X-94.793 Y57 E8149.54531
G0 F6000 X-94.793 Y56.5
G1 F2400 X94.795 Y56.499 E8161.36847
G0 F6000 X94.795 Y55.999
G1 F2400 X-94.793 Y56 E8173.1917
G0 F6000 X-94.793 Y55.5
G1 F2400 X94.795 Y55.499 E8185.01487
G0 F6000 X94.795 Y54.999
G1 F2400 X-94.793 Y55 E8196.8381
G0 F6000 X-94.793 Y54.5
G1 F2400 X94.795 Y54.499 E8208.66127
G0 F6000 X94.795 Y53.999
G1 F2400 X-94.793 Y54 E8220.4845
G0 F6000 X-94.793 Y53.5
G1 F2400 X94.795 Y53.499 E8232.30767
G0 F6000 X94.795 Y52.999
G1 F2400 X-94.793 Y53 E8244.1309
G0 F6000 X-94.793 Y52.5
G1 F2400 X94.795 Y52.499 E8255.95406
G0 F6000 X94.795 Y51.999
G1 F2400 X-94.793 Y52 E8267.77729
G0 F6000 X-94.793 Y51.5
G1 F2400 X94.795 Y51.499 E8279.60046
G0 F6000 X94.795 Y50.999
G1 F2400 X-94.793 Y51 E8291.42369
G0 F6000 X-94.793 Y50.5
G1 F2400 X94.795 Y50.499 E8303.24686
G0 F6000 X94.795 Y49.999
G1 F2400 X-94.793 Y50 E8315.07009
G0 F6000 X-94.793 Y49.5
G1 F2400 X94.795 Y49.499 E8326.89325
G0 F6000 X94.795 Y48.999
G1 F2400 X-94.793 Y49 E8338.71648
G0 F6000 X-94.793 Y48.5
G1 F2400 X94.795 Y48.499 E8350.53965
G0 F6000 X94.795 Y47.999
G1 F2400 X-94.793 Y48 E8362.36288
G0 F6000 X-94.793 Y47.5
G1 F2400 X94.795 Y47.499 E8374.18605
G0 F6000 X94.795 Y46.999
G1 F2400 X-94.793 Y47 E8386.00928
G0 F6000 X-94.793 Y46.5
G1 F2400 X94.795 Y46.499 E8397.83244
G0 F6000 X94.795 Y45.999
G1 F2400 X-94.793 Y46 E8409.65567
G0 F6000 X-94.793 Y45.5
G1 F2400 X94.795 Y45.499 E8421.47884
G0 F6000 X94.795 Y44.999
G1 F2400 X-94.793 Y45 E8433.30207
G0 F6000 X-94.793 Y44.5
G1 F2400 X94.795 Y44.499 E8445.12524
G0 F6000 X94.795 Y43.999
G1 F2400 X-94.793 Y44 E8456.94847
G0 F6000 X-94.793 Y43.5
G1 F2400 X94.795 Y43.499 E8468.77163
G0 F6000 X94.795 Y42.999
G1 F2400 X-94.793 Y43 E8480.59486
G0 F6000 X-94.793 Y42.5
G1 F2400 X94.795 Y42.499 E8492.41803
G0 F6000 X94.795 Y41.999
G1 F2400 X-94.793 Y42 E8504.24126
G0 F6000 X-94.793 Y41.5
G1 F2400 X94.795 Y41.499 E8516.06443
G0 F6000 X94.795 Y40.999
G1 F2400 X-94.793 Y41 E8527.88766
G0 F6000 X-94.793 Y40.5
G1 F2400 X94.795 Y40.499 E8539.71083
G0 F6000 X94.795 Y39.999
G1 F2400 X-94.793 Y40 E8551.53406
G0 F6000 X-94.793 Y39.5
G1 F2400 X94.795 Y39.499 E8563.35722
G0 F6000 X94.795 Y38.999
G1 F2400 X-94.793 Y39 E8575.18045
G0 F6000 X-94.793 Y38.5
G1 F2400 X94.795 Y38.499 E8587.00362
G0 F6000 X94.795 Y37.999
G1 F2400 X-94.793 Y38 E8598.82685
G0 F6000 X-94.793 Y37.5
G1 F2400 X94.795 Y37.499 E8610.65002
G0 F6000 X94.795 Y36.999
G1 F2400 X-94.793 Y37 E8622.47325
G0 F6000 X-94.793 Y36.5
G1 F2400 X94.795 Y36.499 E8634.29641
G0 F6000 X94.795 Y35.999
G1 F2400 X-94.793 Y36 E8646.11964
G0 F6000 X-94.793 Y35.5
G1 F2400 X94.795 Y35.499 E8657.94281
G0 F6000 X94.795 Y34.999
G1 F2400 X-94.793 Y35 E8669.76604
G0 F6000 X-94.793 Y34.5
G1 F2400 X94.795 Y34.499 E8681.58921
G0 F6000 X94.795 Y33.999
G1 F2400 X-94.793 Y34 E8693.41244
G0 F6000 X-94.793 Y33.5
G1 F2400 X94.795 Y33.499 E8705.2356
G0 F6000 X94.795 Y32.999
G1 F2400 X-94.793 Y33 E8717.05883
G0 F6000 X-94.793 Y32.5
G1 F2400 X94.795 Y32.499 E8728.882
G0 F6000 X94.795 Y31.999
G1 F2400 X-94.793 Y32 E8740.70523
G0 F6000 X-94.793 Y31.5
G1 F2400 X94.795 Y31.499 E8752.5284
G0 F6000 X94.795 Y30.999
G1 F2400 X-94.793 Y31 E8764.35163
G0 F6000 X-94.793 Y30.5
G1 F2400 X94.795 Y30.499 E8776.1748
G0 F6000 X94.795 Y29.999
G1 F2400 X-94.793 Y30 E8787.99802
G0 F6000 X-94.793 Y29.5
G1 F2400 X94.795 Y29.499 E8799.82119
G0 F6000 X94.795 Y28.999
G1 F2400 X-94.793 Y29 E8811.64442
G0 F6000 X-94.793 Y28.5
G1 F2400 X94.795 Y28.499 E8823.46759
G0 F6000 X94.795 Y27.999
G1 F2400 X-94.793 Y28 E8835.29082
G0 F6000 X-94.793 Y27.5
G1 F2400 X94.795 Y27.499 E8847.11399
G0 F6000 X94.795 Y26.999
G1 F2400 X-94.793 Y27 E8858.93722
G0 F6000 X-94.793 Y26.5
G1 F2400 X94.795 Y26.499 E8870.76038
G0 F6000 X94.795 Y25.999
G1 F2400 X-94.793 Y26 E8882.58361
G0 F6000 X-94.793 Y25.5
G1 F2400 X94.795 Y25.499 E8894.40678
G0 F6000 X94.795 Y24.999
G1 F2400 X-94.793 Y25 E8906.23001
G0 F6000 X-94.793 Y24.5
G1 F2400 X94.795 Y24.499 E8918.05318
G0 F6000 X94.795 Y23.999
G1 F2400 X-94.793 Y24 E8929.87641
G0 F6000 X-94.793 Y23.5
G1 F2400 X94.795 Y23.499 E8941.69957
G0 F6000 X94.795 Y22.999
G1 F2400 X-94.793 Y23 E8953.5228
G0 F6000 X-94.793 Y22.5
G1 F2400 X94.795 Y22.499 E8965.34597
G0 F6000 X94.795 Y21.999
G1 F2400 X-94.793 Y22 E8977.1692
G0 F6000 X-94.793 Y21.5
G1 F2400 X94.795 Y21.499 E8988.99237
G0 F6000 X94.795 Y20.999
G1 F2400 X-94.793 Y21 E9000.8156
G0 F6000 X-94.793 Y20.5
G1 F2400 X94.795 Y20.499 E9012.63876
G0 F6000 X94.795 Y19.999
G1 F2400 X-94.793 Y20 E9024.46199
G0 F6000 X-94.793 Y19.5
G1 F2400 X94.795 Y19.499 E9036.28516
G0 F6000 X94.795 Y18.999
G1 F2400 X-94.793 Y19 E9048.10839
G0 F6000 X-94.793 Y18.5
G1 F2400 X94.795 Y18.499 E9059.93156
G0 F6000 X94.795 Y17.999
G1 F2400 X-94.793 Y18 E9071.75479
G0 F6000 X-94.793 Y17.5
G1 F2400 X94.795 Y17.499 E9083.57796
G0 F6000 X94.795 Y16.999
G1 F2400 X-94.793 Y17 E9095.40119
G0 F6000 X-94.793 Y16.5
G1 F2400 X94.795 Y16.499 E9107.22435
G0 F6000 X94.795 Y15.999
G1 F2400 X-94.793 Y16 E9119.04758
G0 F6000 X-94.793 Y15.5
G1 F2400 X94.795 Y15.499 E9130.87075
G0 F6000 X94.795 Y14.999
G1 F2400 X-94.793 Y15 E9142.69398
G0 F6000 X-94.793 Y14.5
G1 F2400 X94.795 Y14.499 E9154.51715
G0 F6000 X94.795 Y13.999
G1 F2400 X-94.793 Y14 E9166.34038
G0 F6000 X-94.793 Y13.5
G1 F2400 X94.795 Y13.499 E9178.16354
G0 F6000 X94.795 Y12.999
G1 F2400 X-94.793 Y13 E9189.98677
G0 F6000 X-94.793 Y12.5
G1 F2400 X94.795 Y12.499 E9201.80994
G0 F6000 X94.795 Y11.999
G1 F2400 X-94.793 Y12 E9213.63317
G0 F6000 X-94.793 Y11.5
G1 F2400 X94.795 Y11.499 E9225.45634
G0 F6000 X94.795 Y10.999
G1 F2400 X-94.793 Y11 E9237.27957
G0 F6000 X-94.793 Y10.5
G1 F2400 X94.795 Y10.499 E9249.10273
G0 F6000 X94.795 Y9.999
G1 F2400 X-94.793 Y10 E9260.92596
G0 F6000 X-94.793 Y9.5
G1 F2400 X94.795 Y9.499 E9272.74913
G0 F6000 X94.795 Y8.999
G1 F2400 X-94.793 Y9 E9284.57236
G0 F6000 X-94.793 Y8.5
G1 F2400 X94.795 Y8.499 E9296.39553
G0 F6000 X94.795 Y7.999
G1 F2400 X-94.793 Y8 E9308.21876
G0 F6000 X-94.793 Y7.5
G1 F2400 X94.795 Y7.499 E9320.04193
G0 F6000 X94.795 Y6.999
G1 F2400 X-94.793 Y7 E9331.86515
G0 F6000 X-94.793 Y6.5
G1 F2400 X94.795 Y6.499 E9343.68832
G0 F6000 X94.795 Y5.999
G1 F2400 X-94.793 Y6 E9355.51155
G0 F6000 X-94.793 Y5.5
G1 F2400 X94.795 Y5.499 E9367.33472
G0 F6000 X94.795 Y4.999
G1 F2400 X-94.793 Y5 E9379.15795
G0 F6000 X-94.793 Y4.5
G1 F2400 X94.795 Y4.499 E9390.98112
G0 F6000 X94.795 Y3.999
G1 F2400 X-94.793 Y4 E9402.80435
G0 F6000 X-94.793 Y3.5
G1 F2400 X94.795 Y3.499 E9414.62751
G0 F6000 X94.795 Y2.999
G1 F2400 X-94.793 Y3 E9426.45074
G0 F6000 X-94.793 Y2.5
G1 F2400 X94.795 Y2.499 E9438.27391
G0 F6000 X94.795 Y1.999
G1 F2400 X-94.793 Y2 E9450.09714
G0 F6000 X-94.793 Y1.5
G1 F2400 X94.795 Y1.499 E9461.92031
G0 F6000 X94.795 Y0.999
G1 F2400 X-94.793 Y1 E9473.74354
G0 F6000 X-94.793 Y0.5
G1 F2400 X94.795 Y0.499 E9485.5667
G0 F6000 X94.795 Y0
G1 F2400 X-94.793 Y0 E9497.38993
G0 F6000 X-94.793 Y-0.499
G1 F2400 X94.795 Y-0.5 E9509.2131
G0 F6000 X94.795 Y-1
G1 F2400 X-94.793 Y-0.999 E9521.03633
G0 F6000 X-94.793 Y-1.499
G1 F2400 X94.795 Y-1.5 E9532.8595
G0 F6000 X94.795 Y-2
G1 F2400 X-94.793 Y-1.999 E9544.68273
G0 F6000 X-94.793 Y-2.499
G1 F2400 X94.795 Y-2.5 E9556.50589
G0 F6000 X94.795 Y-3
G1 F2400 X-94.793 Y-2.999 E9568.32912
G0 F6000 X-94.793 Y-3.499
G1 F2400 X94.795 Y-3.5 E9580.15229
G0 F6000 X94.795 Y-4
G1 F2400 X-94.793 Y-3.999 E9591.97552
G0 F6000 X-94.793 Y-4.499
G1 F2400 X94.795 Y-4.5 E9603.79869
G0 F6000 X94.795 Y-5
G1 F2400 X-94.793 Y-4.999 E9615.62192
G0 F6000 X-94.793 Y-5.499
G1 F2400 X94.795 Y-5.5 E9627.44509
G0 F6000 X94.795 Y-6
G1 F2400 X-94.793 Y-5.999 E9639.26832
G0 F6000 X-94.793 Y-6.499
G1 F2400 X94.795 Y-6.5 E9651.09148
G0 F6000 X94.795 Y-7
G1 F2400 X-94.793 Y-6.999 E9662.91471
G0 F6000 X-94.793 Y-7.499
G1 F2400 X94.795 Y-7.5 E9674.73788
G0 F6000 X94.795 Y-8
G1 F2400 X-94.793 Y-7.999 E9686.56111
G0 F6000 X-94.793 Y-8.499
G1 F2400 X94.795 Y-8.5 E9698.38428
G0 F6000 X94.795 Y-9
G1 F2400 X-94.793 Y-8.999 E9710.20751
G0 F6000 X-94.793 Y-9.499
G1 F2400 X94.795 Y-9.5 E9722.03067
G0 F6000 X94.795 Y-10
G1 F2400 X-94.793 Y-9.999 E9733.8539
G0 F6000 X-94.793 Y-10.499
G1 F2400 X94.795 Y-10.5 E9745.67707
G0 F6000 X94.795 Y-11
G1 F2400 X-94.793 Y-10.999 E9757.5003
G0 F6000 X-94.793 Y-11.499
G1 F2400 X94.795 Y-11.5 E9769.32347
G0 F6000 X94.795 Y-12
G1 F2400 X-94.793 Y-11.999 E9781.1467
G0 F6000 X-94.793 Y-12.499
G1 F2400 X94.795 Y-12.5 E9792.96986
G0 F6000 X94.795 Y-13
G1 F2400 X-94.793 Y-12.999 E9804.79309
G0 F6000 X-94.793 Y-13.499
G1 F2400 X94.795 Y-13.5 E9816.61626
G0 F6000 X94.795 Y-14
G1 F2400 X-94.793 Y-13.999 E9828.43949
G0 F6000 X-94.793 Y-14.499
G1 F2400 X94.795 Y-14.5 E9840.26266
G0 F6000 X94.795 Y-15
G1 F2400 X-94.793 Y-14.999 E9852.08589
G0 F6000 X-94.793 Y-15.499
G1 F2400 X94.795 Y-15.5 E9863.90905
G0 F6000 X94.795 Y-16
G1 F2400 X-94.793 Y-15.999 E9875.73228
G0 F6000 X-94.793 Y-16.499
G1 F2400 X94.795 Y-16.5 E9887.55545
G0 F6000 X94.795 Y-17
G1 F2400 X-94.793 Y-16.999 E9899.37868
G0 F6000 X-94.793 Y-17.499
G1 F2400 X94.795 Y-17.5 E9911.20185
G0 F6000 X94.795 Y-18
G1 F2400 X-94.793 Y-17.999 E9923.02508
G0 F6000 X-94.793 Y-18.499
G1 F2400 X94.795 Y-18.5 E9934.84825
G0 F6000 X94.795 Y-19
G1 F2400 X-94.793 Y-18.999 E9946.67148
G0 F6000 X-94.793 Y-19.499
G1 F2400 X94.795 Y-19.5 E9958.49464
G0 F6000 X94.795 Y-20
G1 F2400 X-94.793 Y-19.999 E9970.31787
G0 F6000 X-94.793 Y-20.499
G1 F2400 X94.795 Y-20.5 E9982.14104
G0 F6000 X94.795 Y-21
G1 F2400 X-94.793 Y-20.999 E9993.96427
G0 F6000 X-94.793 Y-21.499
G1 F2400 X94.795 Y-21.5 E10005.78744
G0 F6000 X94.795 Y-22
G1 F2400 X-94.793 Y-21.999 E10017.61067
G0 F6000 X-94.793 Y-22.499
G1 F2400 X94.795 Y-22.5 E10029.43383
G0 F6000 X94.795 Y-23
G1 F2400 X-94.793 Y-22.999 E10041.25706
G0 F6000 X-94.793 Y-23.499
G1 F2400 X94.795 Y-23.5 E10053.08023
G0 F6000 X94.795 Y-24
G1 F2400 X-94.793 Y-23.999 E10064.90346
G0 F6000 X-94.793 Y-24.499
G1 F2400 X94.795 Y-24.5 E10076.72663
G0 F6000 X94.795 Y-25
G1 F2400 X-94.793 Y-24.999 E10088.54986
G0 F6000 X-94.793 Y-25.499
G1 F2400 X94.795 Y-25.5 E10100.37302
G0 F6000 X94.795 Y-26
G1 F2400 X-94.793 Y-25.999 E10112.19625
G0 F6000 X-94.793 Y-26.499
G1 F2400 X94.795 Y-26.5 E10124.01942
G0 F6000 X94.795 Y-27
G1 F2400 X-94.793 Y-26.999 E10135.84265
G0 F6000 X-94.793 Y-27.499
G1 F2400 X94.795 Y-27.5 E10147.66582
G0 F6000 X94.795 Y-28
G1 F2400 X-94.793 Y-27.999 E10159.48905
G0 F6000 X-94.793 Y-28.499
G1 F2400 X94.795 Y-28.5 E10171.31222
G0 F6000 X94.795 Y-29
G1 F2400 X-94.793 Y-28.999 E10183.13544
G0 F6000 X-94.793 Y-29.499
G1 F2400 X94.795 Y-29.5 E10194.95861
G0 F6000 X94.795 Y-30
G1 F2400 X-94.793 Y-29.999 E10206.78184
G0 F6000 X-94.793 Y-30.499
G1 F2400 X94.795 Y-30.5 E10218.60501
G0 F6000 X94.795 Y-31
G1 F2400 X-94.793 Y-30.999 E10230.42824
G0 F6000 X-94.793 Y-31.499
G1 F2400 X94.795 Y-31.5 E10242.25141
G0 F6000 X94.795 Y-32
G1 F2400 X-94.793 Y-31.999 E10254.07464
G0 F6000 X-94.793 Y-32.499
G1 F2400 X94.795 Y-32.5 E10265.8978
G0 F6000 X94.795 Y-33
G1 F2400 X-94.793 Y-32.999 E10277.72103
G0 F6000 X-94.793 Y-33.499
G1 F2400 X94.795 Y-33.5 E10289.5442
G0 F6000 X94.795 Y-34
G1 F2400 X-94.793 Y-33.999 E10301.36743
G0 F6000 X-94.793 Y-34.499
G1 F2400 X94.795 Y-34.5 E10313.1906
G0 F6000 X94.795 Y-35
G1 F2400 X-94.793 Y-34.999 E10325.01383
G0 F6000 X-94.793 Y-35.499
G1 F2400 X94.795 Y-35.5 E10336.83699
G0 F6000 X94.795 Y-36
G1 F2400 X-94.793 Y-35.999 E10348.66022
G0 F6000 X-94.793 Y-36.499
G1 F2400 X94.795 Y-36.5 E10360.48339
G0 F6000 X94.795 Y-37
G1 F2400 X-94.793 Y-36.999 E10372.30662
G0 F6000 X-94.793 Y-37.499
G1 F2400 X94.795 Y-37.5 E10384.12979
G0 F6000 X94.795 Y-38
G1 F2400 X-94.793 Y-37.999 E10395.95302
G0 F6000 X-94.793 Y-38.499
G1 F2400 X94.795 Y-38.5 E10407.77618
G0 F6000 X94.795 Y-39
G1 F2400 X-94.793 Y-38.999 E10419.59941
G0 F6000 X-94.793 Y-39.499
G1 F2400 X94.795 Y-39.5 E10431.42258
G0 F6000 X94.795 Y-40
G1 F2400 X-94.793 Y-39.999 E10443.24581
G0 F6000 X-94.793 Y-40.499
G1 F2400 X94.795 Y-40.5 E10455.06898
G0 F6000 X94.795 Y-41
G1 F2400 X-94.793 Y-40.999 E10466.89221
G0 F6000 X-94.793 Y-41.499
G1 F2400 X94.795 Y-41.5 E10478.71538
G0 F6000 X94.795 Y-42
G1 F2400 X-94.793 Y-41.999 E10490.53861
G0 F6000 X-94.793 Y-42.499
G1 F2400 X94.795 Y-42.5 E10502.36177
G0 F6000 X94.795 Y-43
G1 F2400 X-94.793 Y-42.999 E10514.185
G0 F6000 X-94.793 Y-43.499
G1 F2400 X94.795 Y-43.5 E10526.00817
G0 F6000 X94.795 Y-44
G1 F2400 X-94.793 Y-43.999 E10537.8314
G0 F6000 X-94.793 Y-44.499
G1 F2400 X94.795 Y-44.5 E10549.65457
G0 F6000 X94.795 Y-45
G1 F2400 X-94.793 Y-44.999 E10561.4778
G0 F6000 X-94.793 Y-45.499
G1 F2400 X94.795 Y-45.5 E10573.30096
G0 F6000 X94.795 Y-46
G1 F2400 X-94.793 Y-45.999 E10585.12419
G0 F6000 X-94.793 Y-46.499
G1 F2400 X94.795 Y-46.5 E10596.94736
G0 F6000 X94.795 Y-47
G1 F2400 X-94.793 Y-46.999 E10608.77059
G0 F6000 X-94.793 Y-47.499
G1 F2400 X94.795 Y-47.5 E10620.59376
G0 F6000 X94.795 Y-48
G1 F2400 X-94.793 Y-47.999 E10632.41699
G0 F6000 X-94.793 Y-48.499
G1 F2400 X94.795 Y-48.5 E10644.24015
G0 F6000 X94.795 Y-49
G1 F2400 X-94.793 Y-48.999 E10656.06338
G0 F6000 X-94.793 Y-49.499
G1 F2400 X94.795 Y-49.5 E10667.88655
G0 F6000 X94.795 Y-50
G1 F2400 X-94.793 Y-49.999 E10679.70978
G0 F6000 X-94.793 Y-50.499
G1 F2400 X94.795 Y-50.5 E10691.53295
G0 F6000 X94.795 Y-51
G1 F2400 X-94.793 Y-50.999 E10703.35618
G0 F6000 X-94.793 Y-51.499
G1 F2400 X94.795 Y-51.5 E10715.17935
G0 F6000 X94.795 Y-52
G1 F2400 X-94.793 Y-51.999 E10727.00257
G0 F6000 X-94.793 Y-52.499
G1 F2400 X94.795 Y-52.5 E10738.82574
G0 F6000 X94.795 Y-53
G1 F2400 X-94.793 Y-52.999 E10750.64897
G0 F6000 X-94.793 Y-53.499
G1 F2400 X94.795 Y-53.5 E10762.47214
G0 F6000 X94.795 Y-54
G1 F2400 X-94.793 Y-53.999 E10774.29537
G0 F6000 X-94.793 Y-54.499
G1 F2400 X94.795 Y-54.5 E10786.11854
G0 F6000 X94.795 Y-55
G1 F2400 X-94.793 Y-54.999 E10797.94177
G0 F6000 X-94.793 Y-55.499
G1 F2400 X94.795 Y-55.5 E10809.76493
G0 F6000 X94.795 Y-56
G1 F2400 X-94.793 Y-55.999 E10821.58816
G0 F6000 X-94.793 Y-56.499
G1 F2400 X94.795 Y-56.5 E10833.41133
G0 F6000 X94.795 Y-57
G1 F2400 X-94.793 Y-56.999 E10845.23456
G0 F6000 X-94.793 Y-57.499
G1 F2400 X94.795 Y-57.5 E10857.05773
G0 F6000 X94.795 Y-58
G1 F2400 X-94.793 Y-57.999 E10868.88096
G0 F6000 X-94.793 Y-58.499
G1 F2400 X94.795 Y-58.5 E10880.70412
G0 F6000 X94.795 Y-59
G1 F2400 X-94.793 Y-58.999 E10892.52735
G0 F6000 X-94.793 Y-59.499
G1 F2400 X94.795 Y-59.5 E10904.35052
G0 F6000 X94.795 Y-60
G1 F2400 X-94.793 Y-59.999 E10916.17375
G0 F6000 X-94.793 Y-60.499
G1 F2400 X94.795 Y-60.5 E10927.99692
G0 F6000 X94.795 Y-61
G1 F2400 X-94.793 Y-60.999 E10939.82015
G0 F6000 X-94.793 Y-61.499
G1 F2400 X94.795 Y-61.5 E10951.64331
G0 F6000 X94.795 Y-62
G1 F2400 X-94.793 Y-61.999 E10963.46654
G0 F6000 X-94.793 Y-62.499
G1 F2400 X94.795 Y-62.5 E10975.28971
G0 F6000 X94.795 Y-63
G1 F2400 X-94.793 Y-62.999 E10987.11294
G0 F6000 X-94.793 Y-63.499
G1 F2400 X94.795 Y-63.5 E10998.93611
G0 F6000 X94.795 Y-64
G1 F2400 X-94.793 Y-63.999 E11010.75934
G0 F6000 X-94.793 Y-64.499
G1 F2400 X94.795 Y-64.5 E11022.58251
G0 F6000 X94.795 Y-65
G1 F2400 X-94.793 Y-64.999 E11034.40574
G0 F6000 X-94.793 Y-65.499
G1 F2400 X94.795 Y-65.5 E11046.2289
G0 F6000 X94.795 Y-66
G1 F2400 X-94.793 Y-66 E11058.05213
G0 F6000 X-94.793 Y-66.5
G1 F2400 X94.795 Y-66.5 E11069.8753
G0 F6000 X94.795 Y-67
G1 F2400 X-94.793 Y-67 E11081.69853
G0 F6000 X-94.793 Y-67.5
G1 F2400 X94.795 Y-67.5 E11093.5217
G0 F6000 X94.795 Y-68
G1 F2400 X-94.793 Y-68 E11105.34493
G0 F6000 X-94.793 Y-68.5
G1 F2400 X94.795 Y-68.5 E11117.16809
G0 F6000 X94.795 Y-69
G1 F2400 X-94.793 Y-69 E11128.99132
G0 F6000 X-94.793 Y-69.5
G1 F2400 X94.795 Y-69.5 E11140.81449
G0 F6000 X94.795 Y-70
G1 F2400 X-94.793 Y-70 E11152.63772
G0 F6000 X-94.793 Y-70.5
G1 F2400 X94.795 Y-70.5 E11164.46089
G0 F6000 X94.795 Y-71
G1 F2400 X-94.793 Y-71 E11176.28412
G0 F6000 X-94.793 Y-71.5
G1 F2400 X94.795 Y-71.5 E11188.10728
G0 F6000 X94.795 Y-72
G1 F2400 X-94.793 Y-72 E11199.93051
G0 F6000 X-94.793 Y-72.5
G1 F2400 X94.795 Y-72.5 E11211.75368
G0 F6000 X94.795 Y-73
G1 F2400 X-94.793 Y-73 E11223.57691
G0 F6000 X-94.793 Y-73.5
G1 F2400 X94.795 Y-73.5 E11235.40008
G0 F6000 X94.795 Y-74
G1 F2400 X-94.793 Y-74 E11247.22331
G0 F6000 X-94.793 Y-74.5
G1 F2400 X94.795 Y-74.5 E11259.04647
G0 F6000 X94.795 Y-75
G1 F2400 X-94.793 Y-75 E11270.8697
G0 F6000 X-94.793 Y-75.5
G1 F2400 X94.795 Y-75.5 E11282.69287
G0 F6000 X94.795 Y-76
G1 F2400 X-94.793 Y-76 E11294.5161
G0 F6000 X-94.793 Y-76.5
G1 F2400 X94.795 Y-76.5 E11306.33927
G0 F6000 X94.795 Y-77
G1 F2400 X-94.793 Y-77 E11318.1625
; LAYER:3
G0 F6000 X-94.983 Y-77.689 Z1.2
; TYPE:WALL-INNER
G1 F2400 X94.985 Y-77.689 E11330.00936
G1 X94.985 Y77.69 E11339.69916
G1 X-94.983 Y77.69 E11351.54609
G1 X-94.983 Y-77.689 E11361.23595
G0 F6000 X-95.483 Y-78.189
; TYPE:WALL-OUTER
G1 F2100 X95.485 Y-78.189 E11373.14518
G1 X95.485 Y78.19 E11382.89734
G1 X-95.483 Y78.19 E11394.80663
G1 X-95.483 Y-78.189 E11404.55886
G0 F6000 X-94.5 Y-77.498
; TYPE:FILL
G1 F2400 X-94.499 Y77.499 E11414.22484
G0 F6000 X-93.999 Y77.499
G1 F2400 X-94 Y-77.498 E11423.89088
G0 F6000 X-93.5 Y-77.498
G1 F2400 X-93.499 Y77.499 E11433.55685
G0 F6000 X-92.999 Y77.499
G1 F2400 X-93 Y-77.498 E11443.22289
G0 F6000 X-92.5 Y-77.498
G1 F2400 X-92.5 Y-75.188 E11443.36689
G0 F6000 X-92 Y-75.188
G1 F2400 X-92 Y-77.498 E11443.51101
G0 F6000 X-91.5 Y-77.498
G1 F2400 X-91.5 Y-75.188 E11443.655
G0 F6000 X-91.572 Y-75.309
G1 F2400 X-90.96 Y-74.248 E11443.7313
G0 F6000 X-91 Y-74.368
G1 F2400 X-90.999 Y75.249 E11453.06177
G0 F6000 X-91.285 Y75.129
G1 F2400 X-90.927 Y75.749 E11453.10639
G0 F6000 X-90.999 Y75.629
G1 F2400 X-90.999 Y77.499 E11453.22301
G0 F6000 X-91.499 Y77.499
G1 F2400 X-91.499 Y75.629 E11453.33962
G0 F6000 X-91.827 Y75.749
G1 F2400 X-91.469 Y75.129 E11453.38424
G0 F6000 X-91.499 Y75.249
G1 F2400 X-91.5 Y-74.368 E11462.71477
G0 F6000 X-91.793 Y-74.248
G1 F2400 X-91.181 Y-75.308 E11462.79112
G0 F6000 X-91 Y-75.188
G1 F2400 X-91 Y-77.498 E11462.93524
G0 F6000 X-90.5 Y-77.498
G1 F2400 X-90.5 Y-75.188 E11463.07924
G0 F6000 X-90 Y-75.188
G1 F2400 X-90 Y-77.498 E11463.22336
G0 F6000 X-89.5 Y-77.498
G1 F2400 X-89.5 Y-75.188 E11463.36735
G0 F6000 X-89.649 Y-75.308
G1 F2400 X-89.037 Y-74.248 E11463.4436
G0 F6000 X-89 Y-74.368
G1 F2400 X-88.999 Y75.249 E11472.77407
G0 F6000 X-88.999 Y75.629
G1 F2400 X-88.999 Y77.499 E11472.89068
G0 F6000 X-89.499 Y77.499
G1 F2400 X-89.499 Y75.629 E11473.0073
G0 F6000 X-89.499 Y75.249
G1 F2400 X-89.5 Y-74.368 E11482.33783
G0 F6000 X-89.87 Y-74.248
G1 F2400 X-89.258 Y-75.308 E11482.41418
G0 F6000 X-89 Y-75.188
G1 F2400 X-89 Y-77.498 E11482.5583
G0 F6000 X-88.5 Y-77.498
G1 F2400 X-88.5 Y-75.188 E11482.7023
G0 F6000 X-88 Y-75.188
G1 F2400 X-88 Y-77.498 E11482.84642
G0 F6000 X-87.5 Y-77.498
G1 F2400 X-87.5 Y-75.188 E11482.99042
G0 F6000 X-87.334 Y-75.307
G1 F2400 X-87.946 Y-74.248 E11483.06667
G0 F6000 X-88 Y-74.368
G1 F2400 X-87.999 Y75.249 E11492.39714
G0 F6000 X-87.999 Y75.629
G1 F2400 X-87.999 Y77.499 E11492.51376
G0 F6000 X-88.499 Y77.499
G1 F2400 X-88.499 Y75.629 E11492.63037
G0 F6000 X-88.499 Y75.249
G1 F2400 X-88.5 Y-74.368 E11501.9609
G0 F6000 X-87.5 Y-74.368
G1 F2400 X-87.499 Y75.249 E11511.29137
G0 F6000 X-87.437 Y75.129
G1 F2400 X-87.079 Y75.749 E11511.33598
G0 F6000 X-86.999 Y75.629
G1 F2400 X-86.999 Y77.499 E11511.4526
G0 F6000 X-87.499 Y77.499
G1 F2400 X-87.499 Y75.629 E11511.56922
G0 F6000 X-87.979 Y75.749
G1 F2400 X-87.621 Y75.129 E11511.61384
G0 F6000 X-86.999 Y75.249
G1 F2400 X-87 Y-74.368 E11520.94437
G0 F6000 X-87.113 Y-74.248
G1 F2400 X-87.725 Y-75.308 E11521.02078
G0 F6000 X-87 Y-75.188
G1 F2400 X-87 Y-77.498 E11521.1649
G0 F6000 X-86.5 Y-77.498
G1 F2400 X-86.5 Y-75.188 E11521.3089
G0 F6000 X-86 Y-75.188
G1 F2400 X-86 Y-77.498 E11521.45302
G0 F6000 X-85.5 Y-77.498
G1 F2400 X-85.5 Y-75.188 E11521.59701
G0 F6000 X-85.41 Y-75.307
G1 F2400 X-86.022 Y-74.248 E11521.67327
G0 F6000 X-86 Y-74.368
G1 F2400 X-85.999 Y75.249 E11531.00373
G0 F6000 X-85.698 Y75.129
G1 F2400 X-86.056 Y75.749 E11531.04841
G0 F6000 X-85.999 Y75.629
G1 F2400 X-85.999 Y77.499 E11531.16503
G0 F6000 X-86.499 Y77.499
G1 F2400 X-86.499 Y75.629 E11531.28165
G0 F6000 X-86.499 Y75.249
G1 F2400 X-86.5 Y-74.368 E11540.61218
G0 F6000 X-85.5 Y-74.368
G1 F2400 X-85.5 Y-7.748 E11544.76672
G0 F6000 X-85.339 Y-7.868
G1 F2400 X-80.363 Y0.75 E11545.38723
G0 F6000 X-80.5 Y0.629
G1 F2400 X-80.499 Y60.249 E11549.1053
G0 F6000 X-80.707 Y60.129
G1 F2400 X-77.423 Y65.817 E11549.51487
G0 F6000 X-77.424 Y66.64
G1 F2400 X-86.044 Y66.64 E11550.05249
G0 F6000 X-86.043 Y67.547
G1 F2400 X-85.349 Y68.749 E11550.13902
G0 F6000 X-85.499 Y68.629
G1 F2400 X-85.499 Y75.249 E11550.55186
G0 F6000 X-85.513 Y75.129
G1 F2400 X-85.155 Y75.749 E11550.59648
G0 F6000 X-84.999 Y75.629
G1 F2400 X-84.999 Y77.499 E11550.7131
G0 F6000 X-85.499 Y77.499
G1 F2400 X-85.499 Y75.629 E11550.82972
G0 F6000 X-84.999 Y75.249
G1 F2400 X-84.999 Y68.629 E11551.24256
G0 F6000 X-84.499 Y68.629
G1 F2400 X-84.499 Y75.249 E11551.6554
G0 F6000 X-84.499 Y75.629
G1 F2400 X-84.499 Y77.499 E11551.77202
G0 F6000 X-83.999 Y77.499
G1 F2400 X-83.999 Y75.629 E11551.88863
G0 F6000 X-84.132 Y75.75
G1 F2400 X-83.682 Y75.129 E11551.93317
G1 X-83.232 Y75.749 E11551.98091
G0 F6000 X-82.999 Y75.629
G1 F2400 X-82.999 Y77.499 E11552.09753
G0 F6000 X-83.499 Y77.499
G1 F2400 X-83.499 Y75.629 E11552.21415
G0 F6000 X-83.499 Y75.249
G1 F2400 X-83.499 Y68.629 E11552.62699
G0 F6000 X-83.426 Y68.749
G1 F2400 X-86.043 Y64.216 E11552.95344
G0 F6000 X-86.044 Y64.974
G1 F2400 X-77.424 Y64.974 E11553.49095
G0 F6000 X-77.423 Y64.129
G1 F2400 X-80.091 Y68.75 E11553.82374
G0 F6000 X-79.999 Y68.629
G1 F2400 X-79.999 Y75.249 E11554.23658
G0 F6000 X-79.927 Y75.129
G1 F2400 X-80.285 Y75.749 E11554.28126
G0 F6000 X-80.499 Y75.629
G1 F2400 X-80.499 Y77.499 E11554.39788
G0 F6000 X-80.999 Y77.499
G1 F2400 X-80.999 Y75.629 E11554.5145
G0 F6000 X-81.308 Y75.749
G1 F2400 X-81.758 Y75.129 E11554.55915
G1 X-82.208 Y75.75 E11554.60702
G0 F6000 X-81.999 Y75.629
G1 F2400 X-81.999 Y77.499 E11554.72363
G0 F6000 X-82.499 Y77.499
G1 F2400 X-82.499 Y75.629 E11554.84025
G0 F6000 X-82.499 Y75.249
G1 F2400 X-82.499 Y68.629 E11555.25309
G0 F6000 X-82.015 Y68.75
G1 F2400 X-77.423 Y60.797 E11555.82577
G0 F6000 X-77.999 Y60.249
G1 F2400 X-78 Y0.629 E11559.54384
G0 F6000 X-78.439 Y0.75
G1 F2400 X-83.416 Y-7.869 E11560.16455
G0 F6000 X-83.5 Y-7.748
G1 F2400 X-83.5 Y-15.415 E11560.64275
G0 F6000 X-83.508 Y-15.295
G1 F2400 X-81.841 Y-18.181 E11560.85062
G0 F6000 X-82 Y-18.192
G1 F2400 X-82 Y-63.934 E11563.70328
G0 F6000 X-82.5 Y-63.558
G1 F2400 X-82.5 Y-18.553 E11566.50985
G0 F6000 X-83 Y-18.711
G1 F2400 X-83 Y-63.41 E11569.29747
G0 F6000 X-82.848 Y-63.307
G1 F2400 X-83.592 Y-63.307 E11569.34393
G0 F6000 X-83.5 Y-63.415
G1 F2400 X-83.5 Y-18.703 E11572.13223
G0 F6000 X-83.387 Y-18.836
G1 F2400 X-84.855 Y-16.294 E11572.31527
G0 F6000 X-84.989 Y-16.659
G1 F2400 X-81.484 Y-16.659 E11572.53379
G0 F6000 X-82 Y-15.939
G1 F2400 X-82 Y-7.748 E11573.04454
G0 F6000 X-82.024 Y-7.868
G1 F2400 X-86.043 Y-0.908 E11573.54573
G0 F6000 X-86.044 Y-1.665
G1 F2400 X-77.424 Y-1.665 E11574.08323
G0 F6000 X-77.423 Y-0.821
G1 F2400 X-81.492 Y-7.869 E11574.59084
G0 F6000 X-81.5 Y-7.748
G1 F2400 X-81.5 Y-74.368 E11578.74551
G0 F6000 X-81.341 Y-74.248
G1 F2400 X-81.954 Y-75.309 E11578.82201
G0 F6000 X-82 Y-75.188
G1 F2400 X-82 Y-77.498 E11578.96613
G0 F6000 X-82.5 Y-77.498
G1 F2400 X-82.5 Y-75.188 E11579.11013
G0 F6000 X-83 Y-75.188
G1 F2400 X-83 Y-77.498 E11579.25425
G0 F6000 X-83.5 Y-77.498
G1 F2400 X-83.5 Y-75.188 E11579.39824
G0 F6000 X-83.487 Y-75.307
G1 F2400 X-84.098 Y-74.248 E11579.47446
G0 F6000 X-84 Y-74.368
G1 F2400 X-84 Y-66.544 E11579.96233
G0 F6000 X-84.087 Y-66.64
G1 F2400 X-82.393 Y-66.64 E11580.06791
G0 F6000 X-82.5 Y-66.555
G1 F2400 X-82.5 Y-74.368 E11580.55521
G0 F6000 X-82.174 Y-74.248
G1 F2400 X-81.563 Y-75.308 E11580.63153
G0 F6000 X-81.5 Y-75.188
G1 F2400 X-81.5 Y-77.498 E11580.77565
G0 F6000 X-81 Y-77.498
G1 F2400 X-81 Y-75.188 E11580.91965
G0 F6000 X-80.5 Y-75.188
G1 F2400 X-80.5 Y-77.498 E11581.06377
G0 F6000 X-80 Y-77.498
G1 F2400 X-80 Y-75.188 E11581.20777
G0 F6000 X-80.03 Y-75.309
G1 F2400 X-79.418 Y-74.248 E11581.28407
G0 F6000 X-79.5 Y-74.368
G1 F2400 X-79.5 Y-7.748 E11585.43861
G0 F6000 X-79.568 Y-7.868
G1 F2400 X-77.423 Y-4.152 E11585.7061
G0 F6000 X-77.424 Y-3.331
G1 F2400 X-86.044 Y-3.331 E11586.24373
G0 F6000 X-86.043 Y-2.423
G1 F2400 X-84.211 Y0.75 E11586.47214
G0 F6000 X-84 Y0.629
G1 F2400 X-83.999 Y60.249 E11590.1902
G0 F6000 X-83.499 Y60.249
G1 F2400 X-83.5 Y0.629 E11593.90827
G0 F6000 X-83.153 Y0.749
G1 F2400 X-78.177 Y-7.868 E11594.52878
G0 F6000 X-78 Y-7.748
G1 F2400 X-78 Y-74.368 E11598.68345
G0 F6000 X-78.327 Y-74.248
G1 F2400 X-77.715 Y-75.308 E11598.75981
G0 F6000 X-77.5 Y-75.188
G1 F2400 X-77.5 Y-77.498 E11598.90393
G0 F6000 X-78 Y-77.498
G1 F2400 X-78 Y-75.188 E11599.04792
G0 F6000 X-78.106 Y-75.309
G1 F2400 X-77.494 Y-74.248 E11599.12422
G0 F6000 X-77.5 Y-74.368
G1 F2400 X-77.499 Y75.249 E11608.45469
G0 F6000 X-77.819 Y75.129
G1 F2400 X-77.461 Y75.749 E11608.4993
G0 F6000 X-77.499 Y75.629
G1 F2400 X-77.499 Y77.499 E11608.61592
G0 F6000 X-77.999 Y77.499
G1 F2400 X-77.999 Y75.629 E11608.73254
G0 F6000 X-77.999 Y75.249
G1 F2400 X-77.999 Y68.629 E11609.14538
G0 F6000 X-78.167 Y68.75
G1 F2400 X-77.423 Y67.462 E11609.23811
G0 F6000 X-77.424 Y68.306
G1 F2400 X-86.044 Y68.306 E11609.77574
G0 F6000 X-85.862 Y68.749
G1 F2400 X-80.885 Y60.13 E11610.39639
G0 F6000 X-80.999 Y60.249
G1 F2400 X-81 Y0.629 E11614.11446
G0 F6000 X-81.229 Y0.749
G1 F2400 X-77.423 Y-5.842 E11614.58907
G0 F6000 X-77.424 Y-6.663
G1 F2400 X-86.044 Y-6.663 E11615.1267
G0 F6000 X-86.043 Y-5.755
G1 F2400 X-82.287 Y0.75 E11615.59505
G0 F6000 X-82.5 Y0.629
G1 F2400 X-82.499 Y60.249 E11619.31312
G0 F6000 X-82.631 Y60.129
G1 F2400 X-77.654 Y68.75 E11619.93388
G0 F6000 X-78.499 Y68.629
G1 F2400 X-78.499 Y75.249 E11620.34672
G0 F6000 X-78.499 Y75.629
G1 F2400 X-78.499 Y77.499 E11620.46334
G0 F6000 X-78.999 Y77.499
G1 F2400 X-78.999 Y75.629 E11620.57996
G0 F6000 X-78.999 Y75.249
G1 F2400 X-78.999 Y68.629 E11620.9928
G0 F6000 X-79.499 Y68.629
G1 F2400 X-79.499 Y75.249 E11621.40564
G0 F6000 X-79.743 Y75.128
G1 F2400 X-79.385 Y75.748 E11621.45026
G0 F6000 X-79.499 Y75.629
G1 F2400 X-79.499 Y77.499 E11621.56687
G0 F6000 X-79.999 Y77.499
G1 F2400 X-79.999 Y75.629 E11621.68349
G0 F6000 X-80.499 Y75.249
G1 F2400 X-80.499 Y68.629 E11622.09633
G0 F6000 X-80.999 Y68.629
G1 F2400 X-80.999 Y75.249 E11622.50918
G0 F6000 X-81.499 Y75.249
G1 F2400 X-81.499 Y68.629 E11622.92202
G0 F6000 X-81.502 Y68.749
G1 F2400 X-86.043 Y60.883 E11623.48847
G0 F6000 X-86.044 Y61.642
G1 F2400 X-77.424 Y61.642 E11624.02597
G0 F6000 X-77.424 Y62.485
G1 F2400 X-78.784 Y60.129 E11624.19565
G0 F6000 X-78.961 Y60.129
G1 F2400 X-83.938 Y68.749 E11624.81642
G0 F6000 X-83.999 Y68.629
G1 F2400 X-83.999 Y75.249 E11625.22926
G0 F6000 X-82.999 Y75.249
G1 F2400 X-82.999 Y68.629 E11625.6421
G0 F6000 X-81.999 Y68.629
G1 F2400 X-81.999 Y75.249 E11626.05494
G0 F6000 X-81.499 Y75.629
G1 F2400 X-81.499 Y77.499 E11626.17156
G0 F6000 X-78.361 Y75.749
G1 F2400 X-78.003 Y75.129 E11626.21618
G0 F6000 X-76.999 Y75.249
G1 F2400 X-77 Y-74.368 E11635.54671
G0 F6000 X-76.5 Y-74.368
G1 F2400 X-76.499 Y75.249 E11644.87717
G0 F6000 X-76.499 Y75.629
G1 F2400 X-76.499 Y77.499 E11644.99379
G0 F6000 X-76.999 Y77.499
G1 F2400 X-76.999 Y75.629 E11645.11041
G0 F6000 X-76.437 Y75.749
G1 F2400 X-76.079 Y75.129 E11645.15503
G0 F6000 X-75.999 Y75.249
G1 F2400 X-76 Y-74.368 E11654.48555
G0 F6000 X-76.403 Y-74.248
G1 F2400 X-75.791 Y-75.308 E11654.56191
G0 F6000 X-76 Y-75.188
G1 F2400 X-76 Y-77.498 E11654.70603
G0 F6000 X-76.5 Y-77.498
G1 F2400 X-76.5 Y-75.188 E11654.85002
G0 F6000 X-76.183 Y-75.308
G1 F2400 X-75.571 Y-74.248 E11654.92627
G0 F6000 X-75.5 Y-74.368
G1 F2400 X-75.499 Y75.249 E11664.25674
G0 F6000 X-75.499 Y75.629
G1 F2400 X-75.499 Y77.499 E11664.37335
G0 F6000 X-75.999 Y77.499
G1 F2400 X-75.999 Y75.629 E11664.48997
G0 F6000 X-75.537 Y75.749
G1 F2400 X-75.895 Y75.129 E11664.53465
G0 F6000 X-74.999 Y75.249
G1 F2400 X-75 Y-74.368 E11673.86518
G0 F6000 X-74.5 Y-74.368
G1 F2400 X-74.499 Y75.249 E11683.19565
G0 F6000 X-74.155 Y75.129
G1 F2400 X-74.513 Y75.749 E11683.24032
G0 F6000 X-74.499 Y75.629
G1 F2400 X-74.499 Y77.499 E11683.35694
G0 F6000 X-74.999 Y77.499
G1 F2400 X-74.999 Y75.629 E11683.47356
G0 F6000 X-73.999 Y75.629
G1 F2400 X-73.999 Y77.499 E11683.59018
G0 F6000 X-73.499 Y77.499
G1 F2400 X-73.499 Y75.629 E11683.7068
G0 F6000 X-73.613 Y75.749
G1 F2400 X-73.971 Y75.129 E11683.75148
G0 F6000 X-73.999 Y75.249
G1 F2400 X-74 Y-74.368 E11693.082
G0 F6000 X-73.647 Y-74.248
G1 F2400 X-74.259 Y-75.308 E11693.15842
G0 F6000 X-74.5 Y-75.188
G1 F2400 X-74.5 Y-77.498 E11693.30254
G0 F6000 X-75 Y-77.498
G1 F2400 X-75 Y-75.188 E11693.44654
G0 F6000 X-75.5 Y-75.188
G1 F2400 X-75.5 Y-77.498 E11693.59066
G0 F6000 X-77 Y-77.498
G1 F2400 X-77 Y-75.188 E11693.73465
G0 F6000 X-78.5 Y-75.188
G1 F2400 X-78.5 Y-77.498 E11693.87877
G0 F6000 X-79 Y-77.498
G1 F2400 X-79 Y-75.188 E11694.02277
G0 F6000 X-79.5 Y-75.188
G1 F2400 X-79.5 Y-77.498 E11694.16689
G0 F6000 X-79.639 Y-75.308
G1 F2400 X-80.251 Y-74.248 E11694.2432
G0 F6000 X-80.5 Y-74.368
G1 F2400 X-80.5 Y-7.748 E11698.39774
G0 F6000 X-80.101 Y-7.868
G1 F2400 X-85.077 Y0.749 E11699.01826
G0 F6000 X-85 Y0.629
G1 F2400 X-84.999 Y60.249 E11702.73633
G0 F6000 X-84.733 Y60.13
G1 F2400 X-86.043 Y62.4 E11702.89981
G0 F6000 X-86.044 Y63.308
G1 F2400 X-77.424 Y63.308 E11703.43731
G0 F6000 X-78.499 Y60.249
G1 F2400 X-78.5 Y0.629 E11707.15538
G0 F6000 X-79 Y0.629
G1 F2400 X-78.999 Y60.249 E11710.87345
G0 F6000 X-79.499 Y60.249
G1 F2400 X-79.5 Y0.629 E11714.59151
G0 F6000 X-79.305 Y0.749
G1 F2400 X-77.423 Y-2.51 E11714.82618
G0 F6000 X-77.424 Y-4.997
G1 F2400 X-86.044 Y-4.997 E11715.36381
G0 F6000 X-86.043 Y-4.24
G1 F2400 X-83.948 Y-7.868 E11715.62509
G0 F6000 X-84 Y-7.748
G1 F2400 X-84 Y-15.577 E11716.11339
G0 F6000 X-83.924 Y-15.413
G1 F2400 X-85.007 Y-17.289 E11716.24857
G0 F6000 X-84.5 Y-18.141
G1 F2400 X-84.5 Y-63.969 E11719.10659
G0 F6000 X-84.413 Y-63.707
G1 F2400 X-82.655 Y-66.751 E11719.32583
G0 F6000 X-82.813 Y-66.801
G1 F2400 X-81.51 Y-64.544 E11719.48827
G0 F6000 X-81.441 Y-64.973
G1 F2400 X-85.027 Y-64.973 E11719.71196
G0 F6000 X-84.5 Y-66.138
G1 F2400 X-84.5 Y-74.368 E11720.22527
G0 F6000 X-85 Y-74.368
G1 F2400 X-85 Y-7.748 E11724.37982
G0 F6000 X-84.5 Y-7.748
G1 F2400 X-84.5 Y-15.966 E11724.89237
G0 F6000 X-83 Y-15.41
G1 F2400 X-83 Y-7.748 E11725.37014
G0 F6000 X-82.5 Y-7.748
G1 F2400 X-82.5 Y-15.557 E11725.85719
G0 F6000 X-82.136 Y-15.649
G1 F2400 X-83.905 Y-18.712 E11726.07786
G0 F6000 X-84 Y-18.547
G1 F2400 X-84 Y-63.576 E11728.88605
G0 F6000 X-82.736 Y-63.335
G1 F2400 X-84.479 Y-66.354 E11729.10354
G0 F6000 X-83.5 Y-66.706
G1 F2400 X-83.5 Y-74.368 E11729.58142
G0 F6000 X-83.265 Y-74.248
G1 F2400 X-83.878 Y-75.309 E11729.65793
G0 F6000 X-84 Y-75.188
G1 F2400 X-84 Y-77.498 E11729.80205
G0 F6000 X-84.5 Y-77.498
G1 F2400 X-84.5 Y-75.188 E11729.94604
G0 F6000 X-85 Y-75.188
G1 F2400 X-85 Y-77.498 E11730.09016
G0 F6000 X-85.801 Y-75.308
G1 F2400 X-85.189 Y-74.248 E11730.16641
G0 F6000 X-83 Y-74.368
G1 F2400 X-83 Y-66.707 E11730.64411
G0 F6000 X-82 Y-66.192
G1 F2400 X-82 Y-74.368 E11731.15405
G0 F6000 X-81 Y-74.368
G1 F2400 X-81 Y-7.748 E11735.30859
G0 F6000 X-80 Y-7.748
G1 F2400 X-80 Y-74.368 E11739.46326
G0 F6000 X-79 Y-74.368
G1 F2400 X-79 Y-7.748 E11743.6178
G0 F6000 X-78.5 Y-7.748
G1 F2400 X-78.5 Y-74.368 E11747.77247
G0 F6000 X-74.48 Y-74.248
G0 X-74.48 Y-74.248
G1 F2400 X-73.868 Y-75.308 E11747.84883
G0 F6000 X-74 Y-75.188
G1 F2400 X-74 Y-77.498 E11747.99295
G0 F6000 X-73.5 Y-77.498
G1 F2400 X-73.5 Y-75.188 E11748.13694
G0 F6000 X-73 Y-75.188
G1 F2400 X-73 Y-77.498 E11748.28106
G0 F6000 X-72.5 Y-77.498
G1 F2400 X-72.5 Y-75.188 E11748.42506
G0 F6000 X-72.335 Y-75.308
G1 F2400 X-71.723 Y-74.248 E11748.50131
G0 F6000 X-71.5 Y-74.368
G1 F2400 X-71.499 Y75.249 E11757.83177
G0 F6000 X-71.499 Y75.629
G1 F2400 X-71.499 Y77.499 E11757.94839
G0 F6000 X-71.999 Y77.499
G1 F2400 X-71.999 Y75.629 E11758.06501
G0 F6000 X-71.689 Y75.749
G1 F2400 X-72.047 Y75.129 E11758.10969
G0 F6000 X-71.999 Y75.249
G1 F2400 X-72 Y-74.368 E11767.44021
G0 F6000 X-72.5 Y-74.368
G1 F2400 X-72.499 Y75.249 E11776.77068
G0 F6000 X-72.231 Y75.129
G1 F2400 X-72.589 Y75.749 E11776.81536
G0 F6000 X-72.499 Y75.629
G1 F2400 X-72.499 Y77.499 E11776.93198
G0 F6000 X-72.999 Y77.499
G1 F2400 X-72.999 Y75.629 E11777.0486
G0 F6000 X-72.999 Y75.249
G1 F2400 X-73 Y-74.368 E11786.37912
G0 F6000 X-72.556 Y-74.248
G1 F2400 X-71.944 Y-75.308 E11786.45548
G0 F6000 X-72 Y-75.188
G1 F2400 X-72 Y-77.498 E11786.5996
G0 F6000 X-71.5 Y-77.498
G1 F2400 X-71.5 Y-75.188 E11786.74359
G0 F6000 X-71 Y-75.188
G1 F2400 X-71 Y-77.498 E11786.88771
G0 F6000 X-70.5 Y-77.498
G1 F2400 X-70.5 Y-75.188 E11787.03171
G0 F6000 X-70.411 Y-75.308
G1 F2400 X-69.799 Y-74.248 E11787.10796
G0 F6000 X-70 Y-74.368
G1 F2400 X-69.999 Y75.249 E11796.43842
G0 F6000 X-70.124 Y75.129
G1 F2400 X-69.766 Y75.749 E11796.48304
G0 F6000 X-69.999 Y75.629
G1 F2400 X-69.999 Y77.499 E11796.59966
G0 F6000 X-70.499 Y77.499
G1 F2400 X-70.499 Y75.629 E11796.71627
G0 F6000 X-70.666 Y75.749
G1 F2400 X-70.308 Y75.129 E11796.76089
G0 F6000 X-70.499 Y75.249
G1 F2400 X-70.5 Y-74.368 E11806.09142
G0 F6000 X-70.632 Y-74.248
G1 F2400 X-70.021 Y-75.307 E11806.16769
G0 F6000 X-70 Y-75.188
G1 F2400 X-70 Y-77.498 E11806.31181
G0 F6000 X-69.5 Y-77.498
G1 F2400 X-69.5 Y-75.188 E11806.4558
G0 F6000 X-69 Y-75.188
G1 F2400 X-69 Y-77.498 E11806.59992
G0 F6000 X-68.5 Y-77.498
G1 F2400 X-68.5 Y-75.188 E11806.74392
G0 F6000 X-68.488 Y-75.309
G1 F2400 X-67.875 Y-74.248 E11806.82025
G0 F6000 X-68 Y-74.368
G1 F2400 X-67.999 Y75.249 E11816.15072
G0 F6000 X-68.2 Y75.129
G1 F2400 X-67.842 Y75.749 E11816.19533
G0 F6000 X-67.999 Y75.629
G1 F2400 X-67.999 Y77.499 E11816.31195
G0 F6000 X-68.499 Y77.499
G1 F2400 X-68.499 Y75.629 E11816.42857
G0 F6000 X-68.742 Y75.75
G1 F2400 X-68.384 Y75.13 E11816.47319
G0 F6000 X-68.499 Y75.249
G1 F2400 X-68.5 Y-74.368 E11825.80372
G0 F6000 X-68.708 Y-74.248
G1 F2400 X-68.097 Y-75.308 E11825.88004
G0 F6000 X-68 Y-75.188
G1 F2400 X-68 Y-77.498 E11826.02416
G0 F6000 X-67.5 Y-77.498
G1 F2400 X-67.5 Y-75.188 E11826.16815
G0 F6000 X-67 Y-75.188
G1 F2400 X-67 Y-77.498 E11826.31227
G0 F6000 X-66.5 Y-77.498
G1 F2400 X-66.5 Y-75.188 E11826.45627
G0 F6000 X-66.564 Y-75.309
G1 F2400 X-65.952 Y-74.248 E11826.53257
G0 F6000 X-66 Y-74.368
G1 F2400 X-65.999 Y75.249 E11835.86304
G0 F6000 X-66.276 Y75.129
G1 F2400 X-65.918 Y75.749 E11835.90765
G0 F6000 X-65.999 Y75.629
G1 F2400 X-65.999 Y77.499 E11836.02427
G0 F6000 X-66.499 Y77.499
G1 F2400 X-66.499 Y75.629 E11836.14089
G0 F6000 X-66.819 Y75.75
G1 F2400 X-66.461 Y75.129 E11836.18556
G0 F6000 X-66.499 Y75.249
G1 F2400 X-66.5 Y-74.368 E11845.51609
G0 F6000 X-66.785 Y-74.248
G1 F2400 X-66.173 Y-75.308 E11845.59244
G0 F6000 X-66 Y-75.188
G1 F2400 X-66 Y-77.498 E11845.73656
G0 F6000 X-65.5 Y-77.498
G1 F2400 X-65.5 Y-75.188 E11845.88056
G0 F6000 X-65 Y-75.188
G1 F2400 X-65 Y-77.498 E11846.02468
G0 F6000 X-64.5 Y-77.498
G1 F2400 X-64.5 Y-75.188 E11846.16867
G0 F6000 X-64.64 Y-75.309
G1 F2400 X-64.028 Y-74.248 E11846.24497
G0 F6000 X-64 Y-74.368
G1 F2400 X-63.999 Y75.249 E11855.57544
G0 F6000 X-64.353 Y75.128
G1 F2400 X-63.995 Y75.749 E11855.62011
G0 F6000 X-63.999 Y75.629
G1 F2400 X-63.999 Y77.499 E11855.73673
G0 F6000 X-64.499 Y77.499
G1 F2400 X-64.499 Y75.629 E11855.85335
G0 F6000 X-64.499 Y75.249
G1 F2400 X-64.5 Y-74.368 E11865.18387
G0 F6000 X-64.861 Y-74.249
G1 F2400 X-64.249 Y-75.308 E11865.26017
G0 F6000 X-64 Y-75.188
G1 F2400 X-64 Y-77.498 E11865.4043
G0 F6000 X-63.5 Y-77.498
G1 F2400 X-63.5 Y-75.188 E11865.54829
G0 F6000 X-63 Y-75.188
G1 F2400 X-63 Y-77.498 E11865.69241
G0 F6000 X-62.5 Y-77.498
G1 F2400 X-62.5 Y-75.188 E11865.83641
G0 F6000 X-62.325 Y-75.308
G1 F2400 X-62.937 Y-74.248 E11865.91272
G0 F6000 X-63 Y-74.368
G1 F2400 X-62.999 Y75.249 E11875.24318
G0 F6000 X-62.999 Y75.629
G1 F2400 X-62.999 Y77.499 E11875.3598
G0 F6000 X-63.499 Y77.499
G1 F2400 X-63.499 Y75.629 E11875.47642
G0 F6000 X-63.499 Y75.249
G1 F2400 X-63.5 Y-74.368 E11884.80695
G0 F6000 X-62.5 Y-74.368
G1 F2400 X-62.499 Y75.249 E11894.13741
G0 F6000 X-62.429 Y75.129
G1 F2400 X-62.071 Y75.749 E11894.18203
G0 F6000 X-61.999 Y75.629
G1 F2400 X-61.999 Y77.499 E11894.29865
G0 F6000 X-62.499 Y77.499
G1 F2400 X-62.499 Y75.629 E11894.41526
G0 F6000 X-62.971 Y75.749
G1 F2400 X-62.613 Y75.129 E11894.45988
G0 F6000 X-61.999 Y75.249
G1 F2400 X-62 Y-74.368 E11903.79041
G0 F6000 X-62.104 Y-74.248
G1 F2400 X-62.716 Y-75.309 E11903.86688
G0 F6000 X-62 Y-75.188
G1 F2400 X-62 Y-77.498 E11904.011
G0 F6000 X-61.5 Y-77.498
G1 F2400 X-61.5 Y-75.188 E11904.155
G0 F6000 X-61 Y-75.188
G1 F2400 X-61 Y-77.498 E11904.29912
G0 F6000 X-60.5 Y-77.498
G1 F2400 X-60.5 Y-75.188 E11904.44311
G0 F6000 X-60.402 Y-75.308
G1 F2400 X-61.014 Y-74.248 E11904.51942
G0 F6000 X-61 Y-74.368
G1 F2400 X-60.999 Y75.249 E11913.84989
G0 F6000 X-60.689 Y75.129
G1 F2400 X-61.047 Y75.749 E11913.89456
G0 F6000 X-60.999 Y75.629
G1 F2400 X-60.999 Y77.499 E11914.01118
G0 F6000 X-61.499 Y77.499
G1 F2400 X-61.499 Y75.629 E11914.1278
G0 F6000 X-61.499 Y75.249
G1 F2400 X-61.5 Y-74.368 E11923.45833
G0 F6000 X-60.5 Y-74.368
G1 F2400 X-60.499 Y75.249 E11932.78879
G0 F6000 X-60.505 Y75.129
G1 F2400 X-60.147 Y75.749 E11932.83341
G0 F6000 X-59.999 Y75.629
G1 F2400 X-59.999 Y77.499 E11932.95003
G0 F6000 X-60.499 Y77.499
G1 F2400 X-60.499 Y75.629 E11933.06665
G0 F6000 X-59.999 Y75.249
G1 F2400 X-60 Y-74.368 E11942.39718
G0 F6000 X-60.181 Y-74.248
G1 F2400 X-60.793 Y-75.308 E11942.47359
G0 F6000 X-60 Y-75.188
G1 F2400 X-60 Y-77.498 E11942.61771
G0 F6000 X-59.5 Y-77.498
G1 F2400 X-59.5 Y-75.188 E11942.76171
G0 F6000 X-59 Y-75.189
G1 F2400 X-59 Y-77.499 E11942.90583
G0 F6000 X-58.5 Y-77.499
G1 F2400 X-58.5 Y-75.189 E11943.04982
G0 F6000 X-58.478 Y-75.308
G1 F2400 X-59.09 Y-74.248 E11943.12613
G0 F6000 X-59 Y-74.369
G1 F2400 X-58.999 Y75.249 E11952.45666
G0 F6000 X-58.765 Y75.129
G1 F2400 X-59.123 Y75.749 E11952.50134
G0 F6000 X-58.999 Y75.629
G1 F2400 X-58.999 Y77.499 E11952.61796
G0 F6000 X-59.499 Y77.499
G1 F2400 X-59.499 Y75.629 E11952.73458
G0 F6000 X-59.499 Y75.249
G1 F2400 X-59.5 Y-74.368 E11962.0651
G0 F6000 X-58.5 Y-74.369
G1 F2400 X-58.499 Y75.249 E11971.39563
G0 F6000 X-58.581 Y75.129
G1 F2400 X-58.223 Y75.749 E11971.44025
G0 F6000 X-57.999 Y75.629
G1 F2400 X-57.999 Y77.499 E11971.55687
G0 F6000 X-58.499 Y77.499
G1 F2400 X-58.499 Y75.629 E11971.67349
G0 F6000 X-57.999 Y75.249
G1 F2400 X-58 Y-74.369 E11981.00408
G0 F6000 X-58.257 Y-74.248
G1 F2400 X-58.869 Y-75.308 E11981.08049
G0 F6000 X-58 Y-75.189
G1 F2400 X-58 Y-77.499 E11981.22461
G0 F6000 X-57.5 Y-77.499
G1 F2400 X-57.5 Y-75.189 E11981.36861
G0 F6000 X-57 Y-75.189
G1 F2400 X-57 Y-77.499 E11981.51273
G0 F6000 X-56.5 Y-77.499
G1 F2400 X-56.5 Y-75.189 E11981.65672
G0 F6000 X-56.554 Y-75.308
G1 F2400 X-57.166 Y-74.248 E11981.73303
G0 F6000 X-57 Y-74.369
G1 F2400 X-56.999 Y75.249 E11991.06356
G0 F6000 X-56.842 Y75.129
G1 F2400 X-57.2 Y75.749 E11991.10824
G0 F6000 X-56.999 Y75.629
G1 F2400 X-56.999 Y77.499 E11991.22486
G0 F6000 X-57.499 Y77.499
G1 F2400 X-57.499 Y75.629 E11991.34148
G0 F6000 X-57.499 Y75.249
G1 F2400 X-57.5 Y-74.369 E12000.67207
G0 F6000 X-56.5 Y-74.369
G1 F2400 X-56.499 Y75.249 E12010.0026
G0 F6000 X-56.658 Y75.129
G1 F2400 X-56.3 Y75.749 E12010.04721
G0 F6000 X-56.499 Y75.629
G1 F2400 X-56.499 Y77.499 E12010.16383
G0 F6000 X-55.999 Y77.499
G1 F2400 X-55.999 Y75.629 E12010.28045
G0 F6000 X-55.999 Y75.249
G1 F2400 X-56 Y-74.369 E12019.61104
G0 F6000 X-56.333 Y-74.248
G1 F2400 X-56.945 Y-75.308 E12019.68746
G0 F6000 X-56 Y-75.189
G1 F2400 X-56 Y-77.499 E12019.83158
G0 F6000 X-55.5 Y-77.499
G1 F2400 X-55.5 Y-75.189 E12019.97557
G0 F6000 X-55.021 Y-75.308
G1 F2400 X-54.409 Y-74.248 E12020.05182
G0 F6000 X-54.5 Y-74.369
G1 F2400 X-54.499 Y75.249 E12029.38235
G0 F6000 X-54.734 Y75.129
G1 F2400 X-54.376 Y75.749 E12029.42696
G0 F6000 X-54.499 Y75.629
G1 F2400 X-54.499 Y77.499 E12029.54358
G0 F6000 X-54.999 Y77.499
G1 F2400 X-54.999 Y75.629 E12029.6602
G0 F6000 X-55.276 Y75.749
G1 F2400 X-54.918 Y75.129 E12029.70482
G0 F6000 X-54.999 Y75.249
G1 F2400 X-55 Y-74.369 E12039.03541
G0 F6000 X-55.242 Y-74.248
G1 F2400 X-54.631 Y-75.307 E12039.11167
G0 F6000 X-54.5 Y-75.189
G1 F2400 X-54.5 Y-77.499 E12039.2558
G0 F6000 X-55 Y-77.499
G1 F2400 X-55 Y-75.189 E12039.39979
G0 F6000 X-55.5 Y-74.369
G1 F2400 X-55.499 Y75.249 E12048.73032
G0 F6000 X-55.499 Y75.629
G1 F2400 X-55.499 Y77.499 E12048.84694
G0 F6000 X-53.999 Y77.499
G1 F2400 X-53.999 Y75.629 E12048.96356
G0 F6000 X-53.999 Y75.249
G1 F2400 X-54 Y-74.369 E12058.29415
G0 F6000 X-53.5 Y-74.369
G1 F2400 X-53.499 Y75.249 E12067.62467
G0 F6000 X-53.499 Y75.629
G1 F2400 X-53.499 Y77.499 E12067.74129
G0 F6000 X-52.999 Y77.499
G1 F2400 X-52.999 Y75.629 E12067.85791
G0 F6000 X-53.352 Y75.75
G1 F2400 X-52.994 Y75.13 E12067.90253
G0 F6000 X-52.999 Y75.249
G1 F2400 X-53 Y-74.369 E12077.23312
G0 F6000 X-53.318 Y-74.248
G1 F2400 X-52.707 Y-75.308 E12077.30944
G0 F6000 X-52.5 Y-75.189
G1 F2400 X-52.5 Y-77.499 E12077.45356
G0 F6000 X-53 Y-77.499
G1 F2400 X-53 Y-75.189 E12077.59756
G0 F6000 X-53.098 Y-75.309
G1 F2400 X-52.485 Y-74.248 E12077.67389
G0 F6000 X-52.5 Y-74.369
G1 F2400 X-52.499 Y75.249 E12087.00442
G0 F6000 X-52.81 Y75.129
G1 F2400 X-52.452 Y75.749 E12087.04903
G0 F6000 X-52.499 Y75.629
G1 F2400 X-52.499 Y77.499 E12087.16565
G0 F6000 X-51.999 Y77.499
G1 F2400 X-51.999 Y75.629 E12087.28227
G0 F6000 X-51.999 Y75.249
G1 F2400 X-52 Y-74.369 E12096.61286
G0 F6000 X-51.5 Y-74.369
G1 F2400 X-51.499 Y75.249 E12105.94339
G0 F6000 X-51.499 Y75.629
G1 F2400 X-51.499 Y77.499 E12106.06001
G0 F6000 X-50.999 Y77.499
G1 F2400 X-50.999 Y75.629 E12106.17662
G0 F6000 X-50.999 Y75.249
G1 F2400 X-51 Y-74.369 E12115.50721
G0 F6000 X-51.395 Y-74.249
G1 F2400 X-50.783 Y-75.308 E12115.58351
G0 F6000 X-51 Y-75.189
G1 F2400 X-51 Y-77.499 E12115.72763
G0 F6000 X-51.5 Y-77.499
G1 F2400 X-51.5 Y-75.189 E12115.87163
G0 F6000 X-51.174 Y-75.309
G1 F2400 X-50.562 Y-74.248 E12115.94793
G0 F6000 X-50.5 Y-74.369
G1 F2400 X-50.499 Y75.249 E12125.27846
G0 F6000 X-50.499 Y75.629
G1 F2400 X-50.499 Y77.499 E12125.39508
G0 F6000 X-49.999 Y77.499
G1 F2400 X-49.999 Y75.629 E12125.5117
G0 F6000 X-49.999 Y75.249
G1 F2400 X-50 Y-74.369 E12134.84229
G0 F6000 X-49.5 Y-74.369
G1 F2400 X-49.499 Y75.249 E12144.17281
G0 F6000 X-49.147 Y75.129
G1 F2400 X-49.505 Y75.749 E12144.21749
G0 F6000 X-49.499 Y75.629
G1 F2400 X-49.499 Y77.499 E12144.33411
G0 F6000 X-48.999 Y77.499
G1 F2400 X-48.999 Y75.629 E12144.45073
G0 F6000 X-48.999 Y75.249
G1 F2400 X-49 Y-74.369 E12153.78132
G0 F6000 X-48.638 Y-74.248
G1 F2400 X-49.25 Y-75.309 E12153.85779
G0 F6000 X-49.5 Y-75.189
G1 F2400 X-49.5 Y-77.499 E12154.00191
G0 F6000 X-50 Y-77.499
G1 F2400 X-50 Y-75.189 E12154.14591
G0 F6000 X-50.5 Y-75.189
G1 F2400 X-50.5 Y-77.499 E12154.29003
G0 F6000 X-52 Y-77.499
G1 F2400 X-52 Y-75.189 E12154.43402
G0 F6000 X-53.5 Y-75.189
G1 F2400 X-53.5 Y-77.499 E12154.57814
G0 F6000 X-54 Y-77.499
G1 F2400 X-54 Y-75.189 E12154.72214
G0 F6000 X-49.471 Y-74.249
G1 F2400 X-48.859 Y-75.308 E12154.79844
G0 F6000 X-49 Y-75.189
G1 F2400 X-49 Y-77.499 E12154.94256
G0 F6000 X-48.5 Y-77.499
G1 F2400 X-48.5 Y-75.189 E12155.08655
G0 F6000 X-48 Y-75.189
G1 F2400 X-48 Y-77.499 E12155.23067
G0 F6000 X-47.5 Y-77.499
G1 F2400 X-47.5 Y-75.189 E12155.37467
G0 F6000 X-47.327 Y-75.308
G1 F2400 X-46.715 Y-74.248 E12155.45092
G0 F6000 X-46.5 Y-74.369
G1 F2400 X-46.499 Y75.249 E12164.78144
G0 F6000 X-46.499 Y75.629
G1 F2400 X-46.499 Y77.499 E12164.89806
G0 F6000 X-46.999 Y77.499
G1 F2400 X-46.999 Y75.629 E12165.01468
G0 F6000 X-46.681 Y75.749
G1 F2400 X-47.039 Y75.129 E12165.05936
G0 F6000 X-46.999 Y75.249
G1 F2400 X-47 Y-74.369 E12174.38995
G0 F6000 X-47.5 Y-74.369
G1 F2400 X-47.499 Y75.249 E12183.72048
G0 F6000 X-47.223 Y75.129
G1 F2400 X-47.581 Y75.749 E12183.76516
G0 F6000 X-47.499 Y75.629
G1 F2400 X-47.499 Y77.499 E12183.88178
G0 F6000 X-47.999 Y77.499
G1 F2400 X-47.999 Y75.629 E12183.99839
G0 F6000 X-47.999 Y75.249
G1 F2400 X-48 Y-74.369 E12193.32898
G0 F6000 X-47.548 Y-74.248
G1 F2400 X-46.936 Y-75.308 E12193.40534
G0 F6000 X-47 Y-75.189
G1 F2400 X-47 Y-77.499 E12193.54946
G0 F6000 X-46.5 Y-77.499
G1 F2400 X-46.5 Y-75.189 E12193.69345
G0 F6000 X-46 Y-75.189
G1 F2400 X-46 Y-77.499 E12193.83757
G0 F6000 X-45.5 Y-77.499
G1 F2400 X-45.5 Y-75.189 E12193.98157
G0 F6000 X-45.403 Y-75.308
G1 F2400 X-44.791 Y-74.248 E12194.05782
G0 F6000 X-45 Y-74.369
G1 F2400 X-44.999 Y75.249 E12203.38834
G0 F6000 X-45.115 Y75.129
G1 F2400 X-44.757 Y75.749 E12203.43296
G0 F6000 X-44.999 Y75.629
G1 F2400 X-44.999 Y77.499 E12203.54958
G0 F6000 X-45.499 Y77.499
G1 F2400 X-45.499 Y75.629 E12203.6662
G0 F6000 X-45.657 Y75.749
G1 F2400 X-45.299 Y75.129 E12203.71081
G0 F6000 X-45.499 Y75.249
G1 F2400 X-45.5 Y-74.369 E12213.0414
G0 F6000 X-45.624 Y-74.248
G1 F2400 X-45.012 Y-75.308 E12213.11776
G0 F6000 X-45 Y-75.189
G1 F2400 X-45 Y-77.499 E12213.26188
G0 F6000 X-44.5 Y-77.499
G1 F2400 X-44.5 Y-75.189 E12213.40587
G0 F6000 X-44 Y-75.189
G1 F2400 X-44 Y-77.499 E12213.55
G0 F6000 X-43.5 Y-77.499
G1 F2400 X-43.5 Y-75.189 E12213.69399
G0 F6000 X-43.479 Y-75.308
G1 F2400 X-42.867 Y-74.248 E12213.77024
G0 F6000 X-43 Y-74.369
G1 F2400 X-42.999 Y75.249 E12223.10076
G0 F6000 X-43.191 Y75.129
G1 F2400 X-42.833 Y75.749 E12223.14538
G0 F6000 X-42.999 Y75.629
G1 F2400 X-42.999 Y77.499 E12223.262
G0 F6000 X-43.499 Y77.499
G1 F2400 X-43.499 Y75.629 E12223.37862
G0 F6000 X-43.734 Y75.749
G1 F2400 X-43.376 Y75.129 E12223.42323
G0 F6000 X-43.499 Y75.249
G1 F2400 X-43.5 Y-74.369 E12232.75382
G0 F6000 X-43.7 Y-74.248
G1 F2400 X-43.088 Y-75.308 E12232.83018
G0 F6000 X-43 Y-75.189
G1 F2400 X-43 Y-77.499 E12232.9743
G0 F6000 X-42.5 Y-77.499
G1 F2400 X-42.5 Y-75.189 E12233.1183
G0 F6000 X-42 Y-75.189
G1 F2400 X-42 Y-77.499 E12233.26242
G0 F6000 X-41.5 Y-77.499
G1 F2400 X-41.5 Y-75.189 E12233.40641
G0 F6000 X-41.555 Y-75.308
G1 F2400 X-40.943 Y-74.248 E12233.48266
G0 F6000 X-41 Y-74.369
G1 F2400 X-40.999 Y75.249 E12242.81319
G0 F6000 X-41.268 Y75.129
G1 F2400 X-40.91 Y75.749 E12242.8578
G0 F6000 X-40.999 Y75.629
G1 F2400 X-40.999 Y77.499 E12242.97442
G0 F6000 X-41.499 Y77.499
G1 F2400 X-41.499 Y75.629 E12243.09104
G0 F6000 X-41.81 Y75.749
G1 F2400 X-41.452 Y75.129 E12243.13565
G0 F6000 X-41.499 Y75.249
G1 F2400 X-41.5 Y-74.369 E12252.46625
G0 F6000 X-41.776 Y-74.248
G1 F2400 X-41.164 Y-75.308 E12252.5426
G0 F6000 X-41 Y-75.189
G1 F2400 X-41 Y-77.499 E12252.68672
G0 F6000 X-40.5 Y-77.499
G1 F2400 X-40.5 Y-75.189 E12252.83072
G0 F6000 X-40 Y-75.189
G1 F2400 X-40 Y-77.499 E12252.97484
G0 F6000 X-39.5 Y-77.499
G1 F2400 X-39.5 Y-75.189 E12253.11883
G0 F6000 X-39.632 Y-75.309
G1 F2400 X-39.019 Y-74.248 E12253.19516
G0 F6000 X-39 Y-74.369
G1 F2400 X-38.999 Y75.249 E12262.52569
G0 F6000 X-39.344 Y75.129
G1 F2400 X-38.986 Y75.749 E12262.57031
G0 F6000 X-38.999 Y75.629
G1 F2400 X-38.999 Y77.499 E12262.68693
G0 F6000 X-39.499 Y77.499
G1 F2400 X-39.499 Y75.629 E12262.80354
G0 F6000 X-39.499 Y75.249
G1 F2400 X-39.5 Y-74.369 E12272.13413
G0 F6000 X-39.852 Y-74.248
G1 F2400 X-39.24 Y-75.308 E12272.21049
G0 F6000 X-39 Y-75.189
G1 F2400 X-39 Y-77.499 E12272.35461
G0 F6000 X-38.5 Y-77.499
G1 F2400 X-38.5 Y-75.189 E12272.4986
G0 F6000 X-38 Y-75.189
G1 F2400 X-38 Y-77.499 E12272.64272
G0 F6000 X-37.5 Y-77.499
G1 F2400 X-37.5 Y-75.189 E12272.78672
G0 F6000 X-37.317 Y-75.308
G1 F2400 X-37.929 Y-74.248 E12272.86303
G0 F6000 X-38 Y-74.369
G1 F2400 X-37.999 Y75.249 E12282.19356
G0 F6000 X-37.999 Y75.629
G1 F2400 X-37.999 Y77.499 E12282.31017
G0 F6000 X-38.499 Y77.499
G1 F2400 X-38.499 Y75.629 E12282.42679
G0 F6000 X-38.499 Y75.249
G1 F2400 X-38.5 Y-74.369 E12291.75738
G0 F6000 X-37.5 Y-74.369
G1 F2400 X-37.499 Y75.249 E12301.08791
G0 F6000 X-37.42 Y75.129
G1 F2400 X-37.062 Y75.749 E12301.13253
G0 F6000 X-36.999 Y75.629
G1 F2400 X-36.999 Y77.499 E12301.24915
G0 F6000 X-37.499 Y77.499
G1 F2400 X-37.499 Y75.629 E12301.36577
G0 F6000 X-37.963 Y75.75
G1 F2400 X-37.605 Y75.129 E12301.41044
G0 F6000 X-36.999 Y75.249
G1 F2400 X-37 Y-74.369 E12310.74103
G0 F6000 X-37.096 Y-74.248
G1 F2400 X-37.708 Y-75.309 E12310.8175
G0 F6000 X-37 Y-75.189
G1 F2400 X-37 Y-77.499 E12310.96162
G0 F6000 X-36.5 Y-77.499
G1 F2400 X-36.5 Y-75.189 E12311.10561
G0 F6000 X-36 Y-75.189
G1 F2400 X-36 Y-77.499 E12311.24973
G0 F6000 X-35.5 Y-77.499
G1 F2400 X-35.5 Y-75.189 E12311.39373
G0 F6000 X-35.393 Y-75.308
G1 F2400 X-36.005 Y-74.249 E12311.46998
G0 F6000 X-36 Y-74.369
G1 F2400 X-35.999 Y75.249 E12320.80051
G0 F6000 X-35.681 Y75.129
G1 F2400 X-36.039 Y75.749 E12320.84519
G0 F6000 X-35.999 Y75.629
G1 F2400 X-35.999 Y77.499 E12320.96181
G0 F6000 X-36.499 Y77.499
G1 F2400 X-36.499 Y75.629 E12321.07843
G0 F6000 X-36.499 Y75.249
G1 F2400 X-36.5 Y-74.369 E12330.40902
G0 F6000 X-35.5 Y-74.369
G1 F2400 X-35.499 Y75.249 E12339.73955
G0 F6000 X-35.497 Y75.128
G1 F2400 X-35.139 Y75.749 E12339.78422
G0 F6000 X-34.999 Y75.629
G1 F2400 X-34.999 Y77.499 E12339.90083
G0 F6000 X-35.499 Y77.499
G1 F2400 X-35.499 Y75.629 E12340.01745
G0 F6000 X-34.999 Y75.249
G1 F2400 X-35 Y-74.369 E12349.34804
G0 F6000 X-35.172 Y-74.248
G1 F2400 X-35.784 Y-75.309 E12349.42451
G0 F6000 X-35 Y-75.189
G1 F2400 X-35 Y-77.499 E12349.56863
G0 F6000 X-34.5 Y-77.499
G1 F2400 X-34.5 Y-75.189 E12349.71263
G0 F6000 X-34 Y-75.189
G1 F2400 X-34 Y-77.499 E12349.85675
G0 F6000 X-33.5 Y-77.499
G1 F2400 X-33.5 Y-75.189 E12350.00075
G0 F6000 X-33.469 Y-75.308
G1 F2400 X-34.081 Y-74.249 E12350.077
G0 F6000 X-34 Y-74.369
G1 F2400 X-33.999 Y75.249 E12359.40753
G0 F6000 X-33.757 Y75.129
G1 F2400 X-34.115 Y75.749 E12359.45221
G0 F6000 X-33.999 Y75.629
G1 F2400 X-33.999 Y77.499 E12359.56882
G0 F6000 X-34.499 Y77.499
G1 F2400 X-34.499 Y75.629 E12359.68544
G0 F6000 X-34.499 Y75.249
G1 F2400 X-34.5 Y-74.369 E12369.01603
G0 F6000 X-33.5 Y-74.369
G1 F2400 X-33.499 Y75.249 E12378.34656
G0 F6000 X-33.573 Y75.129
G1 F2400 X-33.215 Y75.749 E12378.39118
G0 F6000 X-32.999 Y75.629
