; Generated with MatterSlice 1.0
; filamentDiameter = 1.75
; extrusionWidth = 0.5
; firstLayerExtrusionWidth = 0.4
; layerThickness = 0.3
; firstLayerThickness = 0.3
; automatic settings before start_gcode
G21 ; set units to millimeters
M107 ; fan off
T0 ; set the active extruder to 0
; settings from start_gcode
M104 S210
M190 S60
M109 S210
G28
; automatic settings after start_gcode
T0 ; set the active extruder to 0
G90 ; use absolute coordinates
G92 E0 ; reset the expected extruder position
M82 ; use absolute distance for extrusion
; Layer count: 350
; LAYER:0
M107
G0 F18000 X3.178 Y-46.963 Z0.3
G0 X3.178 Y-46.963
; TYPE:SKIRT
G1 Z0.3
G1 F6600 E0
G1 F720 X14.907 Y-42.106 E0.63333
G1 X24.979 Y-34.376 E1.26673
G1 X32.695 Y-24.319 E1.89909
G1 X37.558 Y-12.593 E2.53237
G1 X39.218 Y-0.019 E3.16509
G1 X37.57 Y12.562 E3.79807
G1 X32.718 Y24.298 E4.43164
G1 X24.991 Y34.38 E5.06537
G1 X14.907 Y42.124 E5.6997
G1 X3.178 Y46.982 E6.33307
G1 X-9.407 Y48.64 E6.96636
G1 X-21.994 Y46.982 E7.5998
G1 X-33.723 Y42.125 E8.2332
G1 X-43.799 Y34.39 E8.86697
G1 X-51.513 Y24.337 E9.49919
G1 X-56.373 Y12.612 E10.13243
G1 X-58.036 Y0.027 E10.76577
G1 X-56.383 Y-12.558 E11.39902
G1 X-51.53 Y-24.287 E12.03232
G1 X-43.795 Y-34.376 E12.66658
G1 X-33.723 Y-42.106 E13.3
G1 X-21.994 Y-46.963 E13.93332
G1 X-9.407 Y-48.62 E14.56666
G1 X3.178 Y-46.963 E15.19989
G0 F18000 X3.073 Y-46.574
G1 F720 X14.705 Y-41.756 E15.82801
G1 X24.693 Y-34.091 E16.4561
G1 X32.346 Y-24.117 E17.08327
G1 X37.168 Y-12.489 E17.71125
G1 X38.815 Y-0.019 E18.33874
G1 X37.18 Y12.457 E18.96644
G1 X32.368 Y24.096 E19.59478
G1 X24.705 Y34.095 E20.22328
G1 X14.705 Y41.775 E20.85234
G1 X3.073 Y46.593 E21.48047
G1 X-9.407 Y48.237 E22.10848
G1 X-21.889 Y46.593 E22.73664
G1 X-33.521 Y41.775 E23.36482
G1 X-43.513 Y34.105 E23.9933
G1 X-51.164 Y24.135 E24.62032
G1 X-55.983 Y12.507 E25.2483
G1 X-57.633 Y0.027 E25.87636
G1 X-55.993 Y-12.453 E26.50433
G1 X-51.181 Y-24.086 E27.13243
G1 X-43.51 Y-34.091 E27.76142
G1 X-33.521 Y-41.756 E28.38957
G1 X-21.889 Y-46.574 E29.01768
G1 X-9.407 Y-48.217 E29.64574
G1 X3.073 Y-46.574 E30.27369
G0 F18000 X2.183 Y-43.262
; TYPE:WALL-OUTER
G1 F720 X12.99 Y-38.786 E30.85725
G1 X22.268 Y-31.666 E31.44069
G1 X29.376 Y-22.402 E32.0232
G1 X33.857 Y-11.597 E32.60674
G1 X35.386 Y-0.017 E33.18943
G1 X33.868 Y11.571 E33.77245
G1 X29.398 Y22.382 E34.3561
G1 X22.279 Y31.671 E34.93997
G1 X12.99 Y38.805 E35.5243
G1 X2.183 Y43.281 E36.10788
G1 X-9.407 Y44.808 E36.69111
G1 X-20.999 Y43.281 E37.27448
G1 X-31.806 Y38.805 E37.8581
G1 X-41.088 Y31.68 E38.44193
G1 X-48.194 Y22.42 E39.02429
G1 X-52.672 Y11.616 E39.60779
G1 X-54.204 Y0.026 E40.19105
G1 X-52.681 Y-11.566 E40.77434
G1 X-48.211 Y-22.371 E41.35774
G1 X-41.084 Y-31.666 E41.94211
G1 X-31.806 Y-38.786 E42.52557
G1 X-20.999 Y-43.262 E43.10912
G1 X-9.407 Y-44.788 E43.6924
G1 X2.183 Y-43.262 E44.27556
G1 F6600 E37.47556
G1 Z0.6
G0 F18000 X2.111 Y-42.969
G0 X-8.079 Y-6.874
G0 X-8.079 Y-6.874
G0 X-8.099 Y-6.576
G1 Z0.3
G1 F6600 E44.27556
G1 F720 X-9.848 Y-6.689 E44.36305
G1 X-11.567 Y-6.347 E44.45053
G1 X-13.139 Y-5.572 E44.53799
G1 X-14.457 Y-4.415 E44.6255
G1 X-15.43 Y-2.957 E44.71293
G1 X-15.993 Y-1.297 E44.80035
G1 X-16.107 Y0.45 E44.88765
G1 X-15.764 Y2.169 E44.97509
G1 X-14.989 Y3.741 E45.06251
G1 X-13.833 Y5.059 E45.14994
G1 X-12.375 Y6.032 E45.23735
G1 X-10.714 Y6.595 E45.3248
G1 X-8.966 Y6.708 E45.41214
G1 X-7.246 Y6.366 E45.49958
G1 X-5.675 Y5.591 E45.58693
G1 X-4.357 Y4.434 E45.67439
G1 X-3.384 Y2.976 E45.76182
G1 X-2.821 Y1.316 E45.84925
G1 X-2.707 Y-0.43 E45.93654
G1 X-3.049 Y-2.15 E46.02409
G1 X-3.825 Y-3.722 E46.11162
G1 X-4.981 Y-5.039 E46.19912
G1 X-6.439 Y-6.013 E46.28667
G1 X-8.099 Y-6.576 E46.37418
G0 F18000 X-8.02 Y-6.972
; TYPE:WALL-INNER
G1 F720 X-9.875 Y-7.092 E46.46697
G1 X-11.697 Y-6.729 E46.5597
G1 X-13.363 Y-5.907 E46.6524
G1 X-14.76 Y-4.681 E46.74514
G1 X-15.792 Y-3.135 E46.83786
G1 X-16.389 Y-1.376 E46.9305
G1 X-16.51 Y0.477 E47.0231
G1 X-16.146 Y2.299 E47.11579
G1 X-15.324 Y3.965 E47.20845
G1 X-14.099 Y5.362 E47.30111
G1 X-12.553 Y6.394 E47.39381
G1 X-10.793 Y6.991 E47.48648
G1 X-8.939 Y7.111 E47.57912
G1 X-7.116 Y6.748 E47.67181
G1 X-5.451 Y5.926 E47.7644
G1 X-4.054 Y4.7 E47.85709
G1 X-3.022 Y3.154 E47.9498
G1 X-2.425 Y1.395 E48.04246
G1 X-2.304 Y-0.457 E48.13505
G1 X-2.667 Y-2.28 E48.22784
G1 X-3.49 Y-3.946 E48.32062
G1 X-4.715 Y-5.342 E48.41335
G1 X-6.26 Y-6.375 E48.50614
G1 X-8.02 Y-6.972 E48.59892
G0 F18000 X2.082 Y-42.871
G1 F720 X12.789 Y-38.437 E49.17707
G1 X21.983 Y-31.381 E49.75524
G1 X29.027 Y-22.2 E50.33253
G1 X33.466 Y-11.497 E50.91056
G1 X34.982 Y-0.017 E51.48822
G1 X33.477 Y11.47 E52.06616
G1 X29.049 Y22.181 E52.6444
G1 X21.994 Y31.386 E53.223
G1 X12.788 Y38.456 E53.80211
G1 X2.082 Y42.89 E54.38023
G1 X-9.407 Y44.404 E54.95837
G1 X-20.898 Y42.89 E55.53667
G1 X-31.604 Y38.456 E56.11483
G1 X-40.803 Y31.395 E56.69343
G1 X-47.845 Y22.218 E57.27056
G1 X-52.281 Y11.516 E57.84855
G1 X-53.8 Y0.025 E58.42684
G1 X-52.29 Y-11.465 E59.005
G1 X-47.862 Y-22.17 E59.58299
G1 X-40.799 Y-31.381 E60.16208
G1 X-31.605 Y-38.437 E60.74028
G1 X-20.898 Y-42.871 E61.31842
G1 X-9.407 Y-44.384 E61.89661
G1 X2.082 Y-42.871 E62.47469
G0 F18000 X1.549 Y-42.8
; TYPE:FILL
G1 F720 X-20.365 Y-42.8 E63.56799
G0 F18000 X-21.667 Y-42.4
G1 F720 X2.851 Y-42.4 E64.79114
G0 F18000 X3.817 Y-42
G1 F720 X-22.633 Y-42 E66.11074
G0 F18000 X-23.599 Y-41.6
G1 F720 X4.783 Y-41.6 E67.52667
G0 F18000 X5.748 Y-41.2
G1 F720 X-24.564 Y-41.2 E69.03895
G0 F18000 X-25.53 Y-40.8
G1 F720 X6.714 Y-40.8 E70.64756
G0 F18000 X7.68 Y-40.4
G1 F720 X-26.496 Y-40.4 E72.3526
G0 F18000 X-27.462 Y-40
G1 F720 X8.646 Y-40 E74.15399
G0 F18000 X9.612 Y-39.6
G1 F720 X-28.428 Y-39.6 E76.05181
G0 F18000 X-29.394 Y-39.2
G1 F720 X10.578 Y-39.2 E78.04597
G0 F18000 X11.543 Y-38.8
G1 F720 X-30.359 Y-38.8 E80.13647
G0 F18000 X-31.325 Y-38.4
G1 F720 X12.509 Y-38.4 E82.32331
G0 F18000 X13.126 Y-38
G1 F720 X-31.942 Y-38 E84.57176
G0 F18000 X-32.464 Y-37.6
G1 F720 X13.647 Y-37.6 E86.8722
G0 F18000 X14.169 Y-37.2
G1 F720 X-32.985 Y-37.2 E89.22472
G0 F18000 X-33.506 Y-36.8
G1 F720 X14.69 Y-36.8 E91.62918
G0 F18000 X15.211 Y-36.4
G1 F720 X-34.027 Y-36.4 E94.08567
G0 F18000 X-34.549 Y-36
G1 F720 X15.732 Y-36 E96.59415
G0 F18000 X16.254 Y-35.6
G1 F720 X-35.07 Y-35.6 E99.15472
G0 F18000 X-35.591 Y-35.2
G1 F720 X16.775 Y-35.2 E101.76722
G0 F18000 X17.296 Y-34.8
G1 F720 X-36.113 Y-34.8 E104.4318
G0 F18000 X-36.634 Y-34.4
G1 F720 X17.817 Y-34.4 E107.14833
G0 F18000 X18.339 Y-34
G1 F720 X-37.155 Y-34 E109.91693
G0 F18000 X-37.677 Y-33.6
G1 F720 X18.86 Y-33.6 E112.73753
G0 F18000 X19.381 Y-33.2
G1 F720 X-38.198 Y-33.2 E115.61015
G0 F18000 X-38.719 Y-32.8
G1 F720 X19.903 Y-32.8 E118.53477
G0 F18000 X20.424 Y-32.4
G1 F720 X-39.241 Y-32.399 E121.51147
G0 F18000 X-39.762 Y-31.999
G1 F720 X20.945 Y-32 E124.5401
G0 F18000 X21.466 Y-31.6
G1 F720 X-40.283 Y-31.599 E127.62077
G0 F18000 X-40.761 Y-31.199
G1 F720 X21.944 Y-31.2 E130.74909
G0 F18000 X22.251 Y-30.8
G1 F720 X-41.068 Y-30.799 E133.90808
G0 F18000 X-41.375 Y-30.399
G1 F720 X22.558 Y-30.4 E137.09766
G0 F18000 X22.865 Y-30
G1 F720 X-41.681 Y-29.999 E140.31788
G0 F18000 X-41.988 Y-29.599
G1 F720 X23.173 Y-29.6 E143.56872
G0 F18000 X23.479 Y-29.2
G1 F720 X-42.295 Y-29.199 E146.8502
G0 F18000 X-42.601 Y-28.799
G1 F720 X23.786 Y-28.8 E150.16221
G0 F18000 X24.093 Y-28.4
G1 F720 X-42.908 Y-28.399 E153.50491
G0 F18000 X-43.215 Y-27.999
G1 F720 X24.4 Y-28 E156.87818
G0 F18000 X24.707 Y-27.6
G1 F720 X-43.521 Y-27.599 E160.28209
G0 F18000 X-43.828 Y-27.199
G1 F720 X25.014 Y-27.2 E163.71658
G0 F18000 X25.321 Y-26.8
G1 F720 X-44.135 Y-26.799 E167.18176
G0 F18000 X-44.441 Y-26.399
G1 F720 X25.627 Y-26.4 E170.67741
G0 F18000 X25.934 Y-26
G1 F720 X-44.748 Y-25.999 E174.20375
G0 F18000 X-45.055 Y-25.599
G1 F720 X26.241 Y-25.6 E177.76067
G0 F18000 X26.548 Y-25.2
G1 F720 X-45.362 Y-25.199 E181.34828
G0 F18000 X-45.668 Y-24.799
G1 F720 X26.855 Y-24.8 E184.96642
G0 F18000 X27.162 Y-24.4
G1 F720 X-45.975 Y-24.399 E188.61523
G0 F18000 X-46.282 Y-23.999
G1 F720 X27.469 Y-24 E192.29464
G0 F18000 X27.776 Y-23.6
G1 F720 X-46.588 Y-23.599 E196.00467
G0 F18000 X-46.895 Y-23.199
G1 F720 X28.082 Y-23.2 E199.74524
G0 F18000 X28.389 Y-22.8
G1 F720 X-47.202 Y-22.799 E203.51649
G0 F18000 X-47.508 Y-22.399
G1 F720 X28.696 Y-22.4 E207.31827
G0 F18000 X28.958 Y-22
G1 F720 X-47.781 Y-21.999 E211.1468
G0 F18000 X-47.946 Y-21.599
G1 F720 X29.123 Y-21.6 E214.99174
G0 F18000 X29.289 Y-21.2
G1 F720 X-48.111 Y-21.199 E218.85324
G0 F18000 X-48.277 Y-20.799
G1 F720 X29.455 Y-20.8 E222.73125
G0 F18000 X29.621 Y-20.4
G1 F720 X-48.442 Y-20.399 E226.62583
G0 F18000 X-48.608 Y-19.999
G1 F720 X29.787 Y-20 E230.53692
G0 F18000 X29.953 Y-19.6
G1 F720 X-48.773 Y-19.599 E234.46458
G0 F18000 X-48.939 Y-19.199
G1 F720 X30.119 Y-19.2 E238.40875
G0 F18000 X30.285 Y-18.8
G1 F720 X-49.104 Y-18.799 E242.36948
G0 F18000 X-49.27 Y-18.399
G1 F720 X30.451 Y-18.4 E246.34673
G0 F18000 X30.616 Y-18
G1 F720 X-49.435 Y-17.999 E250.34049
G0 F18000 X-49.601 Y-17.599
G1 F720 X30.782 Y-17.6 E254.35077
G0 F18000 X30.948 Y-17.2
G1 F720 X-49.766 Y-17.199 E258.3776
G0 F18000 X-49.932 Y-16.799
G1 F720 X31.114 Y-16.8 E262.42095
G0 F18000 X31.28 Y-16.4
G1 F720 X-50.097 Y-16.399 E266.48087
G0 F18000 X-50.263 Y-15.999
G1 F720 X31.446 Y-16 E270.5573
G0 F18000 X31.612 Y-15.6
G1 F720 X-50.428 Y-15.599 E274.65029
G0 F18000 X-50.594 Y-15.199
G1 F720 X31.778 Y-15.2 E278.7598
G0 F18000 X31.944 Y-14.8
G1 F720 X-50.759 Y-14.799 E282.88587
G0 F18000 X-50.925 Y-14.399
G1 F720 X32.109 Y-14.4 E287.0284
G0 F18000 X32.275 Y-14
G1 F720 X-51.09 Y-13.999 E291.1875
G0 F18000 X-51.255 Y-13.599
G1 F720 X32.441 Y-13.6 E295.36306
G0 F18000 X32.607 Y-13.2
G1 F720 X-51.421 Y-13.199 E299.55523
G0 F18000 X-51.586 Y-12.799
G1 F720 X32.773 Y-12.8 E303.76387
G0 F18000 X32.939 Y-12.4
G1 F720 X-51.752 Y-12.399 E307.98912
G0 F18000 X-51.917 Y-11.999
G1 F720 X33.105 Y-12 E312.23083
G0 F18000 X33.271 Y-11.6
G1 F720 X-52.083 Y-11.599 E316.48916
G0 F18000 X-52.184 Y-11.199
G1 F720 X33.364 Y-11.2 E320.75712
G0 F18000 X33.417 Y-10.8
G1 F720 X-52.237 Y-10.799 E325.03041
G0 F18000 X-52.289 Y-10.399
G1 F720 X33.47 Y-10.4 E329.3089
G0 F18000 X33.523 Y-10
G1 F720 X-52.342 Y-9.999 E333.59272
G0 F18000 X-52.394 Y-9.599
G1 F720 X33.575 Y-9.6 E337.88168
G0 F18000 X33.628 Y-9.2
G1 F720 X-52.447 Y-9.199 E342.17598
G0 F18000 X-52.5 Y-8.799
G1 F720 X33.681 Y-8.8 E346.47552
G0 F18000 X33.734 Y-8.4
G1 F720 X-52.552 Y-8.399 E350.78034
G0 F18000 X-52.605 Y-7.999
G1 F720 X33.787 Y-8 E355.09041
G0 F18000 X33.84 Y-7.6
G1 F720 X-52.657 Y-7.599 E359.40576
G0 F18000 X-52.71 Y-7.199
G1 F720 X-10.045 Y-7.199 E361.53428
G0 F18000 X-9.388 Y-7.199
G1 F720 X33.893 Y-7.2 E363.69353
G0 F18000 X33.945 Y-6.8
G1 F720 X-7.079 Y-6.8 E365.74022
G0 F18000 X-6.046 Y-6.4
G1 F720 X33.998 Y-6.4 E367.73797
G0 F18000 X34.051 Y-6
G1 F720 X-5.447 Y-6 E369.70854
G0 F18000 X-4.849 Y-5.6
G1 F720 X34.104 Y-5.6 E371.65186
G0 F18000 X34.157 Y-5.2
G1 F720 X-4.404 Y-5.2 E373.57568
G0 F18000 X-4.053 Y-4.8
G1 F720 X34.21 Y-4.8 E375.48458
G0 F18000 X34.263 Y-4.4
G1 F720 X-3.701 Y-4.4 E377.37861
G0 F18000 X-3.36 Y-4
G1 F720 X34.315 Y-4 E379.25817
G0 F18000 X34.368 Y-3.6
G1 F720 X-3.162 Y-3.6 E381.13055
G0 F18000 X-2.965 Y-3.2
G1 F720 X34.421 Y-3.2 E382.9957
G0 F18000 X34.474 Y-2.8
G1 F720 X-2.767 Y-2.8 E384.85366
G0 F18000 X-2.57 Y-2.4
G1 F720 X34.527 Y-2.4 E386.70438
G0 F18000 X34.58 Y-2
G1 F720 X-2.468 Y-1.999 E388.55272
G0 F18000 X-2.389 Y-1.599
G1 F720 X34.633 Y-1.6 E390.3997
G0 F18000 X34.686 Y-1.2
G1 F720 X-2.31 Y-1.199 E392.24544
G0 F18000 X-2.23 Y-0.799
G1 F720 X34.738 Y-0.8 E394.08973
G0 F18000 X34.791 Y-0.4
G1 F720 X-2.168 Y-0.399 E395.93362
G0 F18000 X-2.194 Y0
G1 F720 X34.84 Y0 E397.78121
G0 F18000 X34.787 Y0.399
G1 F720 X-2.22 Y0.4 E399.62749
G0 F18000 X-2.247 Y0.8
G1 F720 X34.735 Y0.799 E401.47248
G0 F18000 X34.683 Y1.199
G1 F720 X-2.273 Y1.2 E403.31622
G0 F18000 X-2.348 Y1.6
G1 F720 X34.63 Y1.599 E405.16101
G0 F18000 X34.578 Y1.999
G1 F720 X-2.483 Y2 E407.01
G0 F18000 X-2.619 Y2.4
G1 F720 X34.525 Y2.399 E408.86307
G0 F18000 X34.473 Y2.799
G1 F720 X-2.755 Y2.8 E410.72038
G0 F18000 X-2.89 Y3.2
G1 F720 X34.42 Y3.199 E412.58173
G0 F18000 X34.368 Y3.599
G1 F720 X-3.152 Y3.6 E414.45361
G0 F18000 X-3.417 Y4
G1 F720 X34.315 Y3.999 E416.33602
G0 F18000 X34.263 Y4.399
G1 F720 X-3.684 Y4.4 E418.2292
G0 F18000 X-3.955 Y4.8
G1 F720 X34.211 Y4.799 E420.13326
G0 F18000 X34.158 Y5.199
G1 F720 X-4.412 Y5.2 E422.05753
G0 F18000 X-4.867 Y5.6
G1 F720 X34.106 Y5.599 E424.00185
G0 F18000 X34.053 Y5.999
G1 F720 X-5.323 Y6 E425.96633
G0 F18000 X-6.095 Y6.4
G1 F720 X34.001 Y6.399 E427.96667
G0 F18000 X33.948 Y6.799
G1 F720 X-6.905 Y6.8 E430.00484
G0 F18000 X-8.677 Y7.2
G1 F720 X33.896 Y7.199 E432.12876
G0 F18000 X33.844 Y7.599
G1 F720 X-52.658 Y7.6 E436.44437
G0 F18000 X-52.711 Y7.2
G1 F720 X-9.705 Y7.2 E438.5899
G0 F18000 X-11.787 Y6.8
G1 F720 X-52.764 Y6.8 E440.6343
G0 F18000 X-52.817 Y6.4
G1 F720 X-12.794 Y6.4 E442.631
G0 F18000 X-13.394 Y6
G1 F720 X-52.869 Y6 E444.60047
G0 F18000 X-52.922 Y5.6
G1 F720 X-13.993 Y5.6 E446.54259
G0 F18000 X-14.426 Y5.2
G1 F720 X-52.975 Y5.2 E448.46586
G0 F18000 X-53.028 Y4.8
G1 F720 X-14.777 Y4.8 E450.37416
G0 F18000 X-15.128 Y4.4
G1 F720 X-53.081 Y4.4 E452.26769
G0 F18000 X-53.134 Y4
G1 F720 X-15.462 Y4 E454.14711
G0 F18000 X-15.66 Y3.6
G1 F720 X-53.187 Y3.6 E456.01939
G0 F18000 X-53.24 Y3.2
G1 F720 X-15.857 Y3.2 E457.88438
G0 F18000 X-16.054 Y2.8
G1 F720 X-53.293 Y2.8 E459.74229
G0 F18000 X-53.346 Y2.4
G1 F720 X-16.252 Y2.4 E461.59287
G0 F18000 X-16.348 Y2
G1 F720 X-53.399 Y2 E463.4414
G0 F18000 X-53.452 Y1.6
G1 F720 X-16.428 Y1.6 E465.28849
G0 F18000 X-16.508 Y1.2
G1 F720 X-53.504 Y1.2 E467.13428
G0 F18000 X-53.557 Y0.8
G1 F720 X-16.587 Y0.8 E468.97867
G0 F18000 X-16.644 Y0.4
G1 F720 X-53.61 Y0.4 E470.82296
G0 F18000 X-53.657 Y0
G1 F720 X-16.618 Y0 E472.67079
G0 F18000 X-16.592 Y-0.399
G1 F720 X-53.604 Y-0.399 E474.51738
G0 F18000 X-53.552 Y-0.799
G1 F720 X-16.566 Y-0.799 E476.36257
G0 F18000 X-16.54 Y-1.199
G1 F720 X-53.499 Y-1.199 E478.20651
G0 F18000 X-53.446 Y-1.599
G1 F720 X-16.46 Y-1.599 E480.0517
G0 F18000 X-16.324 Y-1.999
G1 F720 X-53.394 Y-1.999 E481.90118
G0 F18000 X-53.341 Y-2.399
G1 F720 X-16.189 Y-2.399 E483.75465
G0 F18000 X-16.053 Y-2.799
G1 F720 X-53.289 Y-2.799 E485.61241
G0 F18000 X-53.236 Y-3.199
G1 F720 X-15.917 Y-3.199 E487.47421
G0 F18000 X-15.65 Y-3.599
G1 F720 X-53.183 Y-3.599 E489.34679
G0 F18000 X-53.131 Y-3.999
G1 F720 X-15.383 Y-3.999 E491.23
G0 F18000 X-15.116 Y-4.399
G1 F720 X-53.078 Y-4.399 E493.12398
G0 F18000 X-53.026 Y-4.799
G1 F720 X-14.836 Y-4.799 E495.02923
G0 F18000 X-14.381 Y-5.199
G1 F720 X-52.973 Y-5.199 E496.95465
G0 F18000 X-52.92 Y-5.599
G1 F720 X-13.925 Y-5.599 E498.90007
G0 F18000 X-13.469 Y-5.999
G1 F720 X-52.868 Y-5.999 E500.86574
G0 F18000 X-52.815 Y-6.399
G1 F720 X-12.68 Y-6.399 E502.86803
G0 F18000 X-11.87 Y-6.799
G1 F720 X-52.763 Y-6.799 E504.90824
G0 F18000 X-52.605 Y8
G1 F720 X33.791 Y7.999 E509.21851
G0 F18000 X33.739 Y8.399
G1 F720 X-52.552 Y8.4 E513.52358
G0 F18000 X-52.499 Y8.8
G1 F720 X33.686 Y8.799 E517.82332
G0 F18000 X33.634 Y9.199
G1 F720 X-52.446 Y9.2 E522.11787
G0 F18000 X-52.393 Y9.6
G1 F720 X33.581 Y9.599 E526.40708
G0 F18000 X33.529 Y9.999
G1 F720 X-52.34 Y10 E530.6911
G0 F18000 X-52.287 Y10.4
G1 F720 X33.476 Y10.399 E534.96978
G0 F18000 X33.424 Y10.799
G1 F720 X-52.234 Y10.8 E539.24328
G0 F18000 X-52.182 Y11.2
G1 F720 X33.372 Y11.199 E543.51154
G0 F18000 X33.272 Y11.599
G1 F720 X-52.094 Y11.6 E547.77046
G0 F18000 X-51.928 Y12
G1 F720 X33.107 Y11.999 E552.01283
G0 F18000 X32.941 Y12.399
G1 F720 X-51.762 Y12.4 E556.23868
G0 F18000 X-51.596 Y12.8
G1 F720 X32.776 Y12.799 E560.44796
G0 F18000 X32.61 Y13.199
G1 F720 X-51.43 Y13.2 E564.64074
G0 F18000 X-51.265 Y13.6
G1 F720 X32.445 Y13.599 E568.81699
G0 F18000 X32.28 Y13.999
G1 F720 X-51.099 Y14 E572.97679
G0 F18000 X-50.933 Y14.4
G1 F720 X32.114 Y14.399 E577.11997
G0 F18000 X31.949 Y14.799
G1 F720 X-50.767 Y14.8 E581.24669
G0 F18000 X-50.601 Y15.2
G1 F720 X31.784 Y15.199 E585.35684
G0 F18000 X31.618 Y15.599
G1 F720 X-50.435 Y15.6 E589.45048
G0 F18000 X-50.27 Y16
G1 F720 X31.453 Y15.999 E593.52761
G0 F18000 X31.287 Y16.399
G1 F720 X-50.104 Y16.4 E597.58822
G0 F18000 X-49.938 Y16.8
G1 F720 X31.122 Y16.799 E601.63227
G0 F18000 X30.957 Y17.199
G1 F720 X-49.772 Y17.2 E605.65986
G0 F18000 X-49.606 Y17.6
G1 F720 X30.791 Y17.599 E609.67083
G0 F18000 X30.626 Y17.999
G1 F720 X-49.441 Y18 E613.66539
G0 F18000 X-49.275 Y18.4
G1 F720 X30.46 Y18.399 E617.64334
G0 F18000 X30.295 Y18.799
G1 F720 X-49.109 Y18.8 E621.60482
G0 F18000 X-48.943 Y19.2
G1 F720 X30.13 Y19.199 E625.54974
G0 F18000 X29.964 Y19.599
G1 F720 X-48.777 Y19.6 E629.47814
G0 F18000 X-48.612 Y20
G1 F720 X29.799 Y19.999 E633.39003
G0 F18000 X29.634 Y20.4
G1 F720 X-48.446 Y20.4 E637.28546
G0 F18000 X-48.28 Y20.8
G1 F720 X29.468 Y20.8 E641.16427
G0 F18000 X29.303 Y21.2
G1 F720 X-48.114 Y21.2 E645.02662
G0 F18000 X-47.948 Y21.6
G1 F720 X29.137 Y21.6 E648.87236
G0 F18000 X28.972 Y22
G1 F720 X-47.783 Y22 E652.70168
G0 F18000 X-47.527 Y22.4
G1 F720 X28.704 Y22.4 E656.50481
G0 F18000 X28.397 Y22.8
G1 F720 X-47.22 Y22.8 E660.27736
G0 F18000 X-46.913 Y23.2
G1 F720 X28.091 Y23.2 E664.01927
G0 F18000 X27.784 Y23.6
G1 F720 X-46.606 Y23.6 E667.73061
G0 F18000 X-46.299 Y24
G1 F720 X27.478 Y24 E671.41131
G0 F18000 X27.171 Y24.4
G1 F720 X-45.993 Y24.4 E675.06147
G0 F18000 X-45.686 Y24.8
G1 F720 X26.864 Y24.8 E678.68096
G0 F18000 X26.558 Y25.2
G1 F720 X-45.379 Y25.2 E682.26991
G0 F18000 X-45.072 Y25.6
G1 F720 X26.251 Y25.6 E685.82818
G0 F18000 X25.945 Y26
G1 F720 X-44.765 Y26 E689.35591
G0 F18000 X-44.458 Y26.4
G1 F720 X25.638 Y26.4 E692.85297
G0 F18000 X25.331 Y26.8
G1 F720 X-44.151 Y26.8 E696.31944
G0 F18000 X-43.844 Y27.2
G1 F720 X25.025 Y27.2 E699.75528
G0 F18000 X24.718 Y27.6
G1 F720 X-43.537 Y27.6 E703.16053
G0 F18000 X-43.23 Y28
G1 F720 X24.412 Y28 E706.53516
G0 F18000 X24.105 Y28.4
G1 F720 X-42.923 Y28.4 E709.8792
G0 F18000 X-42.617 Y28.8
G1 F720 X23.798 Y28.8 E713.1926
G0 F18000 X23.492 Y29.2
G1 F720 X-42.31 Y29.2 E716.47548
G0 F18000 X-42.003 Y29.6
G1 F720 X23.185 Y29.6 E719.72767
G0 F18000 X22.879 Y30
G1 F720 X-41.696 Y30 E722.94933
G0 F18000 X-41.389 Y30.4
G1 F720 X22.572 Y30.4 E726.14031
G0 F18000 X22.266 Y30.8
G1 F720 X-41.082 Y30.8 E729.30075
G0 F18000 X-40.775 Y31.2
G1 F720 X21.959 Y31.2 E732.43052
G0 F18000 X21.484 Y31.6
G1 F720 X-40.304 Y31.6 E735.51313
G0 F18000 X-39.783 Y32
G1 F720 X20.963 Y32 E738.54371
G0 F18000 X20.442 Y32.4
G1 F720 X-39.262 Y32.4 E741.52236
G0 F18000 X-38.741 Y32.8
G1 F720 X19.921 Y32.8 E744.44897
G0 F18000 X19.4 Y33.2
G1 F720 X-38.22 Y33.2 E747.32364
G0 F18000 X-37.699 Y33.6
G1 F720 X18.88 Y33.6 E750.14633
G0 F18000 X18.359 Y34
G1 F720 X-37.178 Y34 E752.91708
G0 F18000 X-36.657 Y34.4
G1 F720 X17.838 Y34.4 E755.6358
G0 F18000 X17.317 Y34.8
G1 F720 X-36.136 Y34.8 E758.30258
G0 F18000 X-35.614 Y35.2
G1 F720 X16.796 Y35.2 E760.91727
G0 F18000 X16.275 Y35.6
G1 F720 X-35.093 Y35.6 E763.48003
G0 F18000 X-34.572 Y36
G1 F720 X15.754 Y36 E765.99076
G0 F18000 X15.233 Y36.4
G1 F720 X-34.051 Y36.4 E768.44955
G0 F18000 X-33.53 Y36.8
G1 F720 X14.712 Y36.8 E770.8563
G0 F18000 X14.191 Y37.2
G1 F720 X-33.009 Y37.2 E773.21112
G0 F18000 X-32.487 Y37.6
G1 F720 X13.671 Y37.6 E775.5139
G0 F18000 X13.15 Y38
G1 F720 X-31.966 Y38 E777.76475
G0 F18000 X-31.37 Y38.4
G1 F720 X12.554 Y38.4 E779.95607
G0 F18000 X11.588 Y38.8
G1 F720 X-30.404 Y38.8 E782.05106
G0 F18000 X-29.439 Y39.2
G1 F720 X10.623 Y39.2 E784.04971
G0 F18000 X9.657 Y39.6
G1 F720 X-28.473 Y39.6 E785.95203
G0 F18000 X-27.507 Y40
G1 F720 X8.691 Y40 E787.7579
G0 F18000 X7.725 Y40.4
G1 F720 X-26.541 Y40.4 E789.46744
G0 F18000 X-25.576 Y40.8
G1 F720 X6.76 Y40.8 E791.08064
G0 F18000 X5.794 Y41.2
G1 F720 X-24.61 Y41.2 E792.5975
G0 F18000 X-23.644 Y41.6
G1 F720 X4.828 Y41.6 E794.01793
G0 F18000 X3.862 Y42
G1 F720 X-22.678 Y42 E795.34201
G0 F18000 X-21.713 Y42.4
G1 F720 X2.897 Y42.4 E796.56976
G0 F18000 X1.693 Y42.8
G1 F720 X-20.509 Y42.8 E797.67742
G0 F18000 X-17.475 Y43.2
G1 F720 X-1.339 Y43.2 E798.4824
G0 F18000 X-4.371 Y43.6
G1 F720 X-14.442 Y43.6 E798.98489
G0 F18000 X-11.408 Y44
G1 F720 X-7.404 Y44 E799.18461
G1 F6600 E792.38461
G1 Z0.6
G0 F18000 X-4.773 Y5.252
G0 X-3.024 Y3.153
G0 X-2.427 Y1.394
G0 X-1.485 Y-43.2
G0 X-1.485 Y-43.2
G1 Z0.3
G1 F6600 E799.18461
G1 F720 X-17.329 Y-43.2 E799.97512
G0 F18000 X-14.293 Y-43.6
G1 F720 X-4.52 Y-43.6 E800.46264
G0 F18000 X-7.555 Y-44
G1 F720 X-11.258 Y-44 E800.64744
; LAYER:1
G0 F18000 X-9.407 Y-44.232 Z0.6
; TYPE:WALL-INNER
G1 F2400 X2.043 Y-42.725 E801.36758
G1 X12.712 Y-38.306 E802.08772
G1 X21.876 Y-31.274 E802.80804
G1 X28.907 Y-22.11 E803.52831
G1 X33.308 Y-11.487 E804.24533
G1 X34.824 Y-0.072 E804.96339
G1 X33.339 Y11.368 E805.68274
G1 X28.907 Y22.13 E806.40858
G1 X21.876 Y31.293 E807.12885
G1 X12.712 Y38.325 E807.84921
G1 X2.043 Y42.744 E808.56937
G1 X-9.407 Y44.252 E809.28959
G1 X-20.859 Y42.744 E810.00999
G1 X-31.528 Y38.325 E810.73021
G1 X-40.704 Y31.277 E811.45182
G1 X-47.723 Y22.13 E812.17088
G1 X-52.142 Y11.46 E812.89113
G1 X-53.65 Y0.009 E813.61142
G1 X-52.142 Y-11.441 E814.33163
G1 X-47.723 Y-22.11 E815.05182
G1 X-40.692 Y-31.274 E815.77216
G1 X-31.528 Y-38.306 E816.4925
G1 X-20.859 Y-42.725 E817.21263
G1 X-9.407 Y-44.232 E817.93291
G0 F18000 X-9.885 Y-7.243
G1 F2400 X-11.745 Y-6.872 E818.05124
G1 X-13.447 Y-6.033 E818.16961
G1 X-14.874 Y-4.781 E818.288
G1 X-15.928 Y-3.202 E818.40638
G1 X-16.537 Y-1.405 E818.52466
G1 X-16.661 Y0.487 E818.64285
G1 X-16.289 Y2.347 E818.76113
G1 X-15.45 Y4.049 E818.87944
G1 X-14.199 Y5.476 E818.99774
G1 X-12.62 Y6.53 E819.11608
G1 X-10.822 Y7.139 E819.23441
G1 X-8.929 Y7.262 E819.35265
G1 X-7.068 Y6.891 E819.47093
G1 X-5.366 Y6.052 E819.58921
G1 X-3.94 Y4.8 E819.70751
G1 X-2.886 Y3.221 E819.82586
G1 X-2.277 Y1.424 E819.94417
G1 X-2.153 Y-0.467 E820.06235
G1 X-2.524 Y-2.328 E820.18076
G1 X-3.364 Y-4.031 E820.29927
G1 X-4.615 Y-5.456 E820.41761
G1 X-6.193 Y-6.511 E820.53607
G1 X-7.991 Y-7.12 E820.65453
G1 X-9.885 Y-7.243 E820.77296
G0 F18000 X-9.852 Y-6.74
; TYPE:WALL-OUTER
G1 F2100 X-11.583 Y-6.395 E820.88309
G1 X-13.167 Y-5.614 E820.99325
G1 X-14.495 Y-4.448 E821.10347
G1 X-15.475 Y-2.979 E821.21358
G1 X-16.042 Y-1.307 E821.32364
G1 X-16.158 Y0.454 E821.43364
G1 X-15.812 Y2.185 E821.54371
G1 X-15.031 Y3.769 E821.65382
G1 X-13.866 Y5.097 E821.76395
G1 X-12.397 Y6.077 E821.87403
G1 X-10.724 Y6.644 E821.98413
G1 X-8.962 Y6.759 E822.09418
G1 X-7.23 Y6.414 E822.20426
G1 X-5.647 Y5.633 E822.31428
G1 X-4.319 Y4.467 E822.42444
G1 X-3.339 Y2.998 E822.53454
G1 X-2.772 Y1.326 E822.64462
G1 X-2.656 Y-0.434 E822.75461
G1 X-3.001 Y-2.166 E822.86482
G1 X-3.783 Y-3.75 E822.97507
G1 X-4.948 Y-5.077 E823.08528
G1 X-6.416 Y-6.058 E823.19547
G1 X-8.089 Y-6.625 E823.30571
G1 X-9.852 Y-6.74 E823.41596
G1 F6600 E816.61596
G1 Z0.9
G0 F18000 X-9.831 Y-7.088
G0 X-9.411 Y-44.384
G0 X-9.411 Y-44.384
G0 X-9.407 Y-44.737
G1 Z0.6
G1 F6600 E823.41596
G1 F2100 X2.173 Y-43.212 E824.14428
G1 X12.967 Y-38.742 E824.87284
G1 X22.233 Y-31.631 E825.60121
G1 X29.343 Y-22.365 E826.32952
G1 X33.794 Y-11.62 E827.05477
G1 X35.328 Y-0.07 E827.78132
G1 X33.826 Y11.498 E828.50873
G1 X29.343 Y22.384 E829.24292
G1 X22.233 Y31.65 E829.97129
G1 X12.967 Y38.761 E830.69969
G1 X2.173 Y43.231 E831.42827
G1 X-9.407 Y44.757 E832.15668
G1 X-20.989 Y43.231 E832.88527
G1 X-31.783 Y38.761 E833.61391
G1 X-41.061 Y31.634 E834.34356
G1 X-48.159 Y22.385 E835.07067
G1 X-52.629 Y11.59 E835.79933
G1 X-54.155 Y0.009 E836.52781
G1 X-52.629 Y-11.571 E837.2562
G1 X-48.159 Y-22.365 E837.98482
G1 X-41.049 Y-31.631 E838.71319
G1 X-31.783 Y-38.742 E839.44159
G1 X-20.989 Y-43.212 E840.17013
G1 X-9.407 Y-44.737 E840.8986
G0 F18000 X-9.5 Y-44.029
; TYPE:FILL
G1 F2400 X-9.5 Y-7.407 E843.18239
G0 F18000 X-10 Y-7.412
G1 F2400 X-10 Y-43.963 E845.46187
G0 F18000 X-10.5 Y-43.897
G1 F2400 X-10.5 Y-7.313 E847.74329
G0 F18000 X-11 Y-7.213
G1 F2400 X-11 Y-43.831 E850.02695
G0 F18000 X-11.5 Y-43.765
G1 F2400 X-11.5 Y-7.114 E852.31254
G0 F18000 X-12 Y-6.957
G1 F2400 X-12 Y-43.699 E854.60394
G0 F18000 X-12.5 Y-43.633
G1 F2400 X-12.5 Y-6.711 E856.90643
G0 F18000 X-13 Y-6.464
G1 F2400 X-13 Y-43.568 E859.2204
G0 F18000 X-13.5 Y-43.502
G1 F2400 X-13.5 Y-6.218 E861.54547
G0 F18000 X-14 Y-5.799
G1 F2400 X-14 Y-43.436 E863.89268
G0 F18000 X-14.5 Y-43.37
G1 F2400 X-14.5 Y-5.361 E866.26297
G0 F18000 X-15 Y-4.922
G1 F2400 X-15 Y-43.304 E868.65664
G0 F18000 X-15.5 Y-43.238
G1 F2400 X-15.5 Y-4.184 E871.09209
G0 F18000 X-16 Y-3.434
G1 F2400 X-16 Y-43.172 E873.57032
G0 F18000 X-16.5 Y-43.107
G1 F2400 X-16.5 Y-2.104 E876.12732
G0 F18000 X-16.5 Y2.262
G1 F2400 X-16.499 Y43.126 E878.67571
G0 F18000 X-16.999 Y43.06
G1 F2400 X-17 Y-43.041 E884.04521
G0 F18000 X-17.5 Y-42.975
G1 F2400 X-17.499 Y42.994 E889.40641
G0 F18000 X-17.999 Y42.928
G1 F2400 X-18 Y-42.909 E894.75944
G0 F18000 X-18.5 Y-42.843
G1 F2400 X-18.499 Y42.862 E900.10418
G0 F18000 X-18.999 Y42.797
G1 F2400 X-19 Y-42.777 E905.44081
G0 F18000 X-19.5 Y-42.711
G1 F2400 X-19.499 Y42.731 E910.76914
G0 F18000 X-19.999 Y42.665
G1 F2400 X-20 Y-42.646 E916.08937
G0 F18000 X-20.5 Y-42.58
G1 F2400 X-20.499 Y42.599 E921.40131
G0 F18000 X-20.999 Y42.479
G1 F2400 X-21 Y-42.46 E926.69834
G0 F18000 X-21.5 Y-42.253
G1 F2400 X-21.499 Y42.272 E931.96949
G0 F18000 X-21.999 Y42.065
G1 F2400 X-22 Y-42.046 E937.21488
G0 F18000 X-22.5 Y-41.839
G1 F2400 X-22.499 Y41.858 E942.43439
G0 F18000 X-22.999 Y41.651
G1 F2400 X-23 Y-41.632 E947.62815
G0 F18000 X-23.5 Y-41.425
G1 F2400 X-23.499 Y41.444 E952.79603
G0 F18000 X-23.999 Y41.237
G1 F2400 X-24 Y-41.217 E957.93808
G0 F18000 X-24.5 Y-41.01
G1 F2400 X-24.499 Y41.029 E963.0542
G0 F18000 X-24.999 Y40.822
G1 F2400 X-25 Y-40.803 E968.14456
G0 F18000 X-25.5 Y-40.596
G1 F2400 X-25.499 Y40.615 E973.20904
G0 F18000 X-25.999 Y40.408
G1 F2400 X-26 Y-40.389 E978.24776
G0 F18000 X-26.5 Y-40.182
G1 F2400 X-26.499 Y40.201 E983.2606
G0 F18000 X-26.999 Y39.994
G1 F2400 X-27 Y-39.975 E988.24769
G0 F18000 X-27.5 Y-39.768
G1 F2400 X-27.499 Y39.787 E993.2089
G0 F18000 X-27.999 Y39.58
G1 F2400 X-28 Y-39.561 E998.14435
G0 F18000 X-28.5 Y-39.354
G1 F2400 X-28.499 Y39.372 E1003.05386
G0 F18000 X-28.999 Y39.165
G1 F2400 X-29 Y-39.147 E1007.93761
G0 F18000 X-29.5 Y-38.94
G1 F2400 X-29.499 Y38.958 E1012.79548
G0 F18000 X-29.999 Y38.751
G1 F2400 X-30 Y-38.731 E1017.62747
G0 F18000 X-30.5 Y-38.524
G1 F2400 X-30.499 Y38.544 E1022.43358
G0 F18000 X-30.999 Y38.337
G1 F2400 X-31 Y-38.317 E1027.21394
G0 F18000 X-31.5 Y-38.087
G1 F2400 X-31.499 Y38.106 E1031.96548
G0 F18000 X-31.999 Y37.722
G1 F2400 X-32 Y-37.703 E1036.66919
G0 F18000 X-32.5 Y-37.319
G1 F2400 X-32.499 Y37.338 E1041.32494
G0 F18000 X-32.999 Y36.954
G1 F2400 X-33 Y-36.936 E1045.93293
G0 F18000 X-33.5 Y-36.552
G1 F2400 X-33.499 Y36.57 E1050.49295
G0 F18000 X-33.999 Y36.186
G1 F2400 X-34 Y-36.168 E1055.00515
G0 F18000 X-34.5 Y-35.785
G1 F2400 X-34.499 Y35.802 E1059.46945
G0 F18000 X-34.999 Y35.418
G1 F2400 X-35 Y-35.401 E1063.88592
G0 F18000 X-35.5 Y-35.017
G1 F2400 X-35.499 Y35.034 E1068.25443
G0 F18000 X-35.999 Y34.65
G1 F2400 X-36 Y-34.634 E1072.57517
G0 F18000 X-36.5 Y-34.25
G1 F2400 X-36.499 Y34.266 E1076.84795
G0 F18000 X-36.999 Y33.882
G1 F2400 X-37 Y-33.866 E1081.0729
G0 F18000 X-37.5 Y-33.483
G1 F2400 X-37.499 Y33.498 E1085.24996
G0 F18000 X-37.999 Y33.114
G1 F2400 X-38 Y-33.099 E1089.37919
G0 F18000 X-38.5 Y-32.716
G1 F2400 X-38.499 Y32.73 E1093.46052
G0 F18000 X-38.999 Y32.346
G1 F2400 X-39 Y-32.332 E1097.49401
G0 F18000 X-39.5 Y-31.948
G1 F2400 X-39.499 Y31.962 E1101.47956
G0 F18000 X-39.999 Y31.578
G1 F2400 X-40 Y-31.565 E1105.41733
G0 F18000 X-40.5 Y-31.181
G1 F2400 X-40.499 Y31.194 E1109.30714
G0 F18000 X-40.999 Y30.579
G1 F2400 X-41 Y-30.559 E1113.11988
G0 F18000 X-41.5 Y-29.908
G1 F2400 X-41.499 Y29.928 E1116.85135
G0 F18000 X-42 Y29.276
G1 F2400 X-42 Y-29.256 E1120.50157
G0 F18000 X-42.5 Y-28.604
G1 F2400 X-42.5 Y28.624 E1124.0704
G0 F18000 X-43 Y27.973
G1 F2400 X-43 Y-27.953 E1127.5581
G0 F18000 X-43.5 Y-27.301
G1 F2400 X-43.5 Y27.321 E1130.96442
G0 F18000 X-44 Y26.669
G1 F2400 X-44 Y-26.649 E1134.28947
G0 F18000 X-44.5 Y-25.998
G1 F2400 X-44.5 Y26.018 E1137.53327
G0 F18000 X-45 Y25.366
G1 F2400 X-45 Y-25.346 E1140.69581
G0 F18000 X-45.5 Y-24.695
G1 F2400 X-45.5 Y24.715 E1143.77709
G0 F18000 X-46 Y24.063
G1 F2400 X-46 Y-24.043 E1146.77712
G0 F18000 X-46.5 Y-23.391
G1 F2400 X-46.5 Y23.411 E1149.69576
G0 F18000 X-47 Y22.76
G1 F2400 X-47 Y-22.74 E1152.53326
G0 F18000 X-47.5 Y-22.088
G1 F2400 X-47.5 Y22.108 E1155.28938
G0 F18000 X-48 Y20.963
G1 F2400 X-48 Y-20.943 E1157.90276
G0 F18000 X-48.5 Y-19.736
G1 F2400 X-48.5 Y19.755 E1160.36546
G0 F18000 X-49 Y18.548
G1 F2400 X-49 Y-18.528 E1162.67762
G0 F18000 X-49.5 Y-17.321
G1 F2400 X-49.5 Y17.341 E1164.83918
G0 F18000 X-50 Y16.133
G1 F2400 X-50 Y-16.114 E1166.85019
G0 F18000 X-50.5 Y-14.907
G1 F2400 X-50.5 Y14.926 E1168.7106
G0 F18000 X-51 Y13.719
G1 F2400 X-51 Y-13.699 E1170.42046
G0 F18000 X-51.5 Y-12.492
G1 F2400 X-51.5 Y12.511 E1171.97965
G0 F18000 X-52 Y11.076
G1 F2400 X-52 Y-11.057 E1173.35993
G0 F18000 X-52.5 Y-7.265
G1 F2400 X-52.5 Y7.283 E1174.26712
G0 F18000 X-53 Y3.49
G1 F2400 X-53 Y-3.472 E1174.70129
G0 F18000 X-16 Y3.362
G1 F2400 X-15.999 Y43.192 E1177.18519
G0 F18000 X-15.499 Y43.258
G1 F2400 X-15.5 Y4.279 E1179.61603
G0 F18000 X-15 Y4.849
G1 F2400 X-14.999 Y43.324 E1182.01544
G0 F18000 X-14.499 Y43.39
G1 F2400 X-14.5 Y5.419 E1184.38342
G0 F18000 X-14 Y5.836
G1 F2400 X-13.999 Y43.456 E1186.7295
G0 F18000 X-13.499 Y43.522
G1 F2400 X-13.5 Y6.17 E1189.05888
G0 F18000 X-13 Y6.503
G1 F2400 X-12.999 Y43.587 E1191.37154
G0 F18000 X-12.499 Y43.653
G1 F2400 X-12.5 Y6.769 E1193.67172
G0 F18000 X-12 Y6.939
G1 F2400 X-11.999 Y43.719 E1195.96543
G0 F18000 X-11.499 Y43.785
G1 F2400 X-11.5 Y7.108 E1198.2527
G0 F18000 X-11 Y7.277
G1 F2400 X-10.999 Y43.851 E1200.53356
G0 F18000 X-10.499 Y43.917
G1 F2400 X-10.5 Y7.348 E1202.8141
G0 F18000 X-10 Y7.381
G1 F2400 X-9.999 Y43.983 E1205.0967
G0 F18000 X-9.499 Y44.049
G1 F2400 X-9.5 Y7.414 E1207.38136
G0 F18000 X-8.999 Y7.447
G1 F2400 X-8.999 Y44.007 E1209.66135
G0 F18000 X-8.499 Y43.941
G1 F2400 X-8.5 Y7.369 E1211.94208
G0 F18000 X-7.999 Y7.27
G1 F2400 X-7.999 Y43.875 E1214.22487
G0 F18000 X-7.499 Y43.81
G1 F2400 X-7.499 Y7.17 E1216.50984
G0 F18000 X-6.999 Y7.069
G1 F2400 X-6.999 Y43.744 E1218.79699
G0 F18000 X-6.499 Y43.678
G1 F2400 X-6.499 Y6.822 E1221.09543
G0 F18000 X-5.999 Y6.575
G1 F2400 X-5.999 Y43.612 E1223.40516
G0 F18000 X-5.499 Y43.546
G1 F2400 X-5.499 Y6.329 E1225.72612
G0 F18000 X-4.999 Y5.982
G1 F2400 X-4.999 Y43.48 E1228.06459
G0 F18000 X-4.499 Y43.414
G1 F2400 X-4.499 Y5.543 E1230.42633
G0 F18000 X-3.999 Y5.104
G1 F2400 X-3.999 Y43.348 E1232.81134
G0 F18000 X-3.499 Y43.282
G1 F2400 X-3.499 Y4.482 E1235.23101
G0 F18000 X-2.999 Y3.732
G1 F2400 X-2.999 Y43.216 E1237.69334
G0 F18000 X-2.499 Y43.15
G1 F2400 X-2.499 Y2.671 E1240.21772
G0 F18000 X-2 Y0.1
G1 F2400 X-1.999 Y43.084 E1242.89832
G0 F18000 X-1.499 Y43.019
G1 F2400 X-1.5 Y-42.999 E1248.26264
G0 F18000 X-2 Y-43.065
G1 F2400 X-2 Y-0.67 E1250.90645
G0 F18000 X-2.5 Y-2.71
G1 F2400 X-2.5 Y-43.131 E1253.42728
G0 F18000 X-3 Y-43.197
G1 F2400 X-3 Y-3.724 E1255.88886
G0 F18000 X-3.5 Y-4.475
G1 F2400 X-3.5 Y-43.263 E1258.30785
G0 F18000 X-4 Y-43.329
G1 F2400 X-4 Y-5.043 E1260.69541
G0 F18000 X-4.5 Y-5.607
G1 F2400 X-4.5 Y-43.395 E1263.05203
G0 F18000 X-5 Y-43.46
G1 F2400 X-5 Y-5.941 E1265.39176
G0 F18000 X-5.5 Y-6.275
G1 F2400 X-5.5 Y-43.526 E1267.7149
G0 F18000 X-6 Y-43.592
G1 F2400 X-6 Y-6.61 E1270.02113
G0 F18000 X-6.5 Y-6.814
G1 F2400 X-6.5 Y-43.658 E1272.31889
G0 F18000 X-7 Y-43.724
G1 F2400 X-7 Y-6.983 E1274.6101
G0 F18000 X-7.5 Y-7.153
G1 F2400 X-7.5 Y-43.79 E1276.89494
G0 F18000 X-8 Y-43.856
G1 F2400 X-8 Y-7.309 E1279.17405
G0 F18000 X-8.5 Y-7.342
G1 F2400 X-8.5 Y-43.922 E1281.45534
G0 F18000 X-9 Y-43.988
G1 F2400 X-9 Y-7.374 E1283.73863
G0 F18000 X-1 Y-42.933
G1 F2400 X-0.999 Y42.953 E1289.09466
G0 F18000 X-0.499 Y42.887
G1 F2400 X-0.5 Y-42.868 E1294.44257
G0 F18000 X0 Y-42.802
G1 F2400 X0 Y42.821 E1299.7822
G0 F18000 X0.5 Y42.755
G1 F2400 X0.499 Y-42.736 E1305.11365
G0 F18000 X0.999 Y-42.67
G1 F2400 X1 Y42.689 E1310.43681
G0 F18000 X1.5 Y42.623
G1 F2400 X1.499 Y-42.604 E1315.7518
G0 F18000 X1.999 Y-42.537
G1 F2400 X2 Y42.555 E1321.05831
G0 F18000 X2.5 Y42.348
G1 F2400 X2.499 Y-42.329 E1326.339
G0 F18000 X2.999 Y-42.122
G1 F2400 X3 Y42.141 E1331.59381
G0 F18000 X3.5 Y41.934
G1 F2400 X3.499 Y-41.915 E1336.82287
G0 F18000 X3.999 Y-41.708
G1 F2400 X4 Y41.727 E1342.02604
G0 F18000 X4.5 Y41.52
G1 F2400 X4.499 Y-41.501 E1347.20346
G0 F18000 X4.999 Y-41.294
G1 F2400 X5 Y41.313 E1352.355
G0 F18000 X5.5 Y41.106
G1 F2400 X5.499 Y-41.087 E1357.48078
G0 F18000 X5.999 Y-40.88
G1 F2400 X6 Y40.898 E1362.58062
G0 F18000 X6.5 Y40.691
G1 F2400 X6.499 Y-40.673 E1367.6547
G0 F18000 X6.999 Y-40.466
G1 F2400 X7 Y40.484 E1372.7029
G0 F18000 X7.5 Y40.277
G1 F2400 X7.499 Y-40.259 E1377.72535
G0 F18000 X7.999 Y-40.052
G1 F2400 X8 Y40.07 E1382.72192
G0 F18000 X8.5 Y39.863
G1 F2400 X8.499 Y-39.844 E1387.69266
G0 F18000 X8.999 Y-39.637
G1 F2400 X9 Y39.656 E1392.63753
G0 F18000 X9.5 Y39.449
G1 F2400 X9.499 Y-39.43 E1397.55664
G0 F18000 X9.999 Y-39.223
G1 F2400 X10 Y39.242 E1402.44987
G0 F18000 X10.5 Y39.035
G1 F2400 X10.499 Y-39.016 E1407.31735
G0 F18000 X10.999 Y-38.809
G1 F2400 X11 Y38.828 E1412.15894
G0 F18000 X11.5 Y38.621
G1 F2400 X11.499 Y-38.602 E1416.97478
G0 F18000 X11.999 Y-38.395
G1 F2400 X12 Y38.414 E1421.76474
G0 F18000 X12.5 Y38.206
G1 F2400 X12.499 Y-38.188 E1426.52888
G0 F18000 X12.999 Y-37.846
G1 F2400 X13 Y37.864 E1431.2503
G0 F18000 X13.5 Y37.48
G1 F2400 X13.499 Y-37.462 E1435.92389
G0 F18000 X13.999 Y-37.078
G1 F2400 X14 Y37.097 E1440.54959
G0 F18000 X14.5 Y36.713
G1 F2400 X14.499 Y-36.695 E1445.12751
G0 F18000 X14.999 Y-36.311
G1 F2400 X15 Y36.33 E1449.65754
G0 F18000 X15.5 Y35.946
G1 F2400 X15.499 Y-35.927 E1454.13974
G0 F18000 X15.999 Y-35.544
G1 F2400 X16 Y35.562 E1458.57404
G0 F18000 X16.5 Y35.179
G1 F2400 X16.499 Y-35.16 E1462.96058
G0 F18000 X16.999 Y-34.776
G1 F2400 X17 Y34.795 E1467.29915
G0 F18000 X17.5 Y34.411
G1 F2400 X17.499 Y-34.393 E1471.58996
G0 F18000 X17.999 Y-34.009
G1 F2400 X18 Y34.028 E1475.83287
G0 F18000 X18.5 Y33.644
G1 F2400 X18.499 Y-33.625 E1480.02795
G0 F18000 X18.999 Y-33.241
G1 F2400 X19 Y33.26 E1484.17508
G0 F18000 X19.5 Y32.877
G1 F2400 X19.499 Y-32.858 E1488.27449
G0 F18000 X19.999 Y-32.474
G1 F2400 X20 Y32.492 E1492.32589
G0 F18000 X20.5 Y32.108
G1 F2400 X20.499 Y-32.09 E1496.32945
G0 F18000 X20.999 Y-31.707
G1 F2400 X21 Y31.725 E1500.28518
G0 F18000 X21.5 Y31.341
G1 F2400 X21.499 Y-31.323 E1504.19308
G0 F18000 X21.999 Y-30.8
G1 F2400 X22 Y30.818 E1508.03569
G0 F18000 X22.5 Y30.166
G1 F2400 X22.499 Y-30.149 E1511.7971
G0 F18000 X22.999 Y-29.497
G1 F2400 X23 Y29.515 E1515.47719
G0 F18000 X23.5 Y28.863
G1 F2400 X23.499 Y-28.845 E1519.07602
G0 F18000 X23.999 Y-28.193
G1 F2400 X24 Y28.211 E1522.59346
G0 F18000 X24.5 Y27.559
G1 F2400 X24.499 Y-27.542 E1526.02971
G0 F18000 X24.999 Y-26.89
G1 F2400 X25 Y26.908 E1529.38464
G0 F18000 X25.5 Y26.256
G1 F2400 X25.499 Y-26.238 E1532.65831
G0 F18000 X25.999 Y-25.587
G1 F2400 X26 Y25.604 E1535.85066
G0 F18000 X26.5 Y24.952
G1 F2400 X26.499 Y-24.935 E1538.96175
G0 F18000 X26.999 Y-24.283
G1 F2400 X27 Y24.301 E1541.99152
G0 F18000 X27.5 Y23.649
G1 F2400 X27.499 Y-23.631 E1544.94003
G0 F18000 X27.999 Y-22.98
G1 F2400 X28 Y22.997 E1547.80722
G0 F18000 X28.5 Y22.346
G1 F2400 X28.499 Y-22.328 E1550.59322
G0 F18000 X28.999 Y-21.387
G1 F2400 X29 Y21.4 E1553.26147
G0 F18000 X29.5 Y20.187
G1 F2400 X29.499 Y-20.18 E1555.77887
G0 F18000 X29.999 Y-18.973
G1 F2400 X30 Y18.973 E1558.14522
G0 F18000 X30.5 Y17.759
G1 F2400 X30.499 Y-17.766 E1560.36066
G0 F18000 X30.999 Y-16.559
G1 F2400 X31 Y16.545 E1562.42505
G0 F18000 X31.5 Y15.332
G1 F2400 X31.499 Y-15.352 E1564.33859
G0 F18000 X32 Y-14.145
G1 F2400 X32 Y14.118 E1566.10109
G0 F18000 X32.5 Y12.904
G1 F2400 X32.5 Y-12.938 E1567.71267
G0 F18000 X33 Y-11.732
G1 F2400 X33 Y11.69 E1569.17326
G0 F18000 X33.5 Y8.648
G1 F2400 X33.5 Y-8.594 E1570.24852
G0 F18000 X34 Y-4.833
G1 F2400 X34 Y4.8 E1570.8492
G0 F18000 X34.5 Y0.952
G1 F2400 X34.5 Y-1.071 E1570.97536
; LAYER:2
M106 S153
G0 F18000 X-2.153 Y-0.467 Z0.9
; TYPE:WALL-INNER
G1 F2400 X-2.524 Y-2.328 E1571.09378
G1 X-3.364 Y-4.031 E1571.21228
G1 X-4.615 Y-5.456 E1571.33062
G1 X-6.193 Y-6.511 E1571.44908
G1 X-7.991 Y-7.12 E1571.56755
G1 X-9.885 Y-7.243 E1571.68598
G1 X-11.745 Y-6.872 E1571.80431
G1 X-13.447 Y-6.033 E1571.92267
G1 X-14.874 Y-4.781 E1572.04107
G1 X-15.928 Y-3.202 E1572.15944
G1 X-16.537 Y-1.405 E1572.27773
G1 X-16.661 Y0.487 E1572.39591
G1 X-16.289 Y2.347 E1572.51419
G1 X-15.45 Y4.049 E1572.6325
G1 X-14.199 Y5.476 E1572.75081
G1 X-12.62 Y6.53 E1572.86915
G1 X-10.822 Y7.139 E1572.98748
G1 X-8.929 Y7.262 E1573.10572
G1 X-7.068 Y6.891 E1573.224
G1 X-5.366 Y6.052 E1573.34228
G1 X-3.94 Y4.8 E1573.46057
G1 X-2.886 Y3.221 E1573.57893
G1 X-2.277 Y1.424 E1573.69724
G1 X-2.153 Y-0.467 E1573.81541
G0 F18000 X34.834 Y0.009
G1 F2400 X33.329 Y11.449 E1574.53499
G1 X28.907 Y22.13 E1575.25592
G1 X21.876 Y31.293 E1575.97619
G1 X12.712 Y38.325 E1576.69654
G1 X2.043 Y42.744 E1577.41671
G1 X-9.407 Y44.252 E1578.13693
G1 X-20.859 Y42.744 E1578.85733
G1 X-31.528 Y38.325 E1579.57755
G1 X-40.712 Y31.267 E1580.29994
G1 X-47.723 Y22.13 E1581.0182
G1 X-52.142 Y11.46 E1581.73844
G1 X-53.65 Y0.009 E1582.45873
G1 X-52.142 Y-11.441 E1583.17894
G1 X-47.723 Y-22.11 E1583.89914
G1 X-40.692 Y-31.274 E1584.61947
G1 X-31.528 Y-38.306 E1585.33982
G1 X-20.859 Y-42.725 E1586.05995
G1 X-9.407 Y-44.232 E1586.78023
G1 X2.043 Y-42.725 E1587.50037
G1 X12.712 Y-38.306 E1588.22051
G1 X21.876 Y-31.274 E1588.94083
G1 X28.907 Y-22.11 E1589.6611
G1 X33.314 Y-11.472 E1590.37913
G1 X34.834 Y0.009 E1591.1013
G0 F18000 X-2.309 Y-0.413
G0 X-2.309 Y-0.413
G0 X-2.656 Y-0.434
; TYPE:WALL-OUTER
G1 F2100 X-3.001 Y-2.166 E1591.21151
G1 X-3.783 Y-3.75 E1591.32176
G1 X-4.948 Y-5.077 E1591.43197
G1 X-6.416 Y-6.058 E1591.54216
G1 X-8.089 Y-6.625 E1591.65241
G1 X-9.852 Y-6.74 E1591.76265
G1 X-11.583 Y-6.395 E1591.87277
G1 X-13.167 Y-5.614 E1591.98294
G1 X-14.495 Y-4.448 E1592.09315
G1 X-15.475 Y-2.979 E1592.20326
G1 X-16.042 Y-1.307 E1592.31333
G1 X-16.158 Y0.454 E1592.42333
G1 X-15.812 Y2.185 E1592.5334
G1 X-15.031 Y3.769 E1592.64351
G1 X-13.866 Y5.097 E1592.75364
G1 X-12.397 Y6.077 E1592.86371
G1 X-10.724 Y6.644 E1592.97381
G1 X-8.962 Y6.759 E1593.08387
G1 X-7.23 Y6.414 E1593.19394
G1 X-5.647 Y5.633 E1593.30397
G1 X-4.319 Y4.467 E1593.41413
G1 X-3.339 Y2.998 E1593.52422
G1 X-2.772 Y1.326 E1593.6343
G1 X-2.656 Y-0.434 E1593.7443
G1 F6600 E1586.9443
G1 Z1.2
G0 F18000 X-2.309 Y-0.413
G0 X34.986 Y0.005
G0 X34.986 Y0.005
G0 X35.339 Y0.009
G1 Z0.9
G1 F6600 E1593.7443
G1 F2100 X33.816 Y11.578 E1594.472
G1 X29.343 Y22.385 E1595.2014
G1 X22.233 Y31.65 E1595.92972
G1 X12.967 Y38.761 E1596.65812
G1 X2.173 Y43.231 E1597.3867
G1 X-9.407 Y44.757 E1598.1151
G1 X-20.989 Y43.231 E1598.84369
G1 X-31.783 Y38.761 E1599.57233
G1 X-41.069 Y31.624 E1600.30276
G1 X-48.159 Y22.385 E1601.02907
G1 X-52.629 Y11.59 E1601.75773
G1 X-54.155 Y0.009 E1602.48621
G1 X-52.629 Y-11.571 E1603.2146
G1 X-48.159 Y-22.365 E1603.94322
G1 X-41.049 Y-31.631 E1604.6716
G1 X-31.783 Y-38.742 E1605.39999
G1 X-20.989 Y-43.212 E1606.12854
G1 X-9.407 Y-44.737 E1606.857
G1 X2.173 Y-43.212 E1607.58533
G1 X12.967 Y-38.742 E1608.31389
G1 X22.233 Y-31.631 E1609.04225
G1 X29.343 Y-22.365 E1609.77057
G1 X33.801 Y-11.603 E1610.49696
G1 X35.339 Y0.009 E1611.22738
G0 F18000 X34.642 Y0
; TYPE:FILL
G1 F2400 X-1.993 Y0 E1613.51204
G0 F18000 X-1.966 Y-0.499
G1 F2400 X34.576 Y-0.5 E1615.79084
G0 F18000 X34.509 Y-1
G1 F2400 X-2.066 Y-0.999 E1618.07176
G0 F18000 X-2.165 Y-1.499
G1 F2400 X34.443 Y-1.5 E1620.35467
G0 F18000 X34.377 Y-2
G1 F2400 X-2.265 Y-1.999 E1622.63976
G0 F18000 X-2.397 Y-2.5
G1 F2400 X34.311 Y-2.5 E1624.92891
G0 F18000 X34.244 Y-3
G1 F2400 X-2.643 Y-3 E1627.22929
G0 F18000 X-2.89 Y-3.5
G1 F2400 X34.178 Y-3.5 E1629.54089
G0 F18000 X34.112 Y-4
G1 F2400 X-3.136 Y-4 E1631.86378
G0 F18000 X-3.522 Y-4.5
G1 F2400 X34.045 Y-4.5 E1634.2065
G0 F18000 X33.979 Y-5
G1 F2400 X-3.962 Y-5 E1636.5726
G0 F18000 X-4.401 Y-5.5
G1 F2400 X33.913 Y-5.5 E1638.96191
G0 F18000 X33.847 Y-6
G1 F2400 X-5.087 Y-6 E1641.38994
G0 F18000 X-5.836 Y-6.5
G1 F2400 X33.78 Y-6.5 E1643.86044
G0 F18000 X33.714 Y-7
G1 F2400 X-7.047 Y-7 E1646.40241
G0 F18000 X-11.916 Y-6.999
G1 F2400 X-52.535 Y-6.999 E1648.93558
G0 F18000 X-52.601 Y-6.499
G1 F2400 X-12.929 Y-6.499 E1651.40957
G0 F18000 X-13.773 Y-5.999
G1 F2400 X-52.667 Y-5.999 E1653.83517
G0 F18000 X-52.733 Y-5.499
G1 F2400 X-14.342 Y-5.499 E1656.22928
G0 F18000 X-14.912 Y-4.999
G1 F2400 X-52.799 Y-4.999 E1658.59208
G0 F18000 X-52.865 Y-4.499
G1 F2400 X-15.29 Y-4.499 E1660.9353
G0 F18000 X-15.623 Y-3.999
G1 F2400 X-52.931 Y-3.999 E1663.26199
G0 F18000 X-52.996 Y-3.499
G1 F2400 X-15.957 Y-3.499 E1665.57178
G0 F18000 X-16.196 Y-2.999
G1 F2400 X-53.062 Y-2.999 E1667.87091
G0 F18000 X-53.128 Y-2.499
G1 F2400 X-16.366 Y-2.499 E1670.16343
G0 F18000 X-16.536 Y-1.999
G1 F2400 X-53.194 Y-1.999 E1672.44958
G0 F18000 X-53.26 Y-1.499
G1 F2400 X-16.705 Y-1.499 E1674.72919
G0 F18000 X-16.754 Y-0.999
G1 F2400 X-53.326 Y-0.999 E1677.00998
G0 F18000 X-53.392 Y-0.499
G1 F2400 X-16.787 Y-0.499 E1679.29271
G0 F18000 X-16.819 Y0
G1 F2400 X-53.458 Y0 E1681.57768
G0 F18000 X-53.394 Y0.5
G1 F2400 X-16.852 Y0.5 E1683.85648
G0 F18000 X-16.752 Y1
G1 F2400 X-53.328 Y1 E1686.13752
G0 F18000 X-53.262 Y1.5
G1 F2400 X-16.652 Y1.5 E1688.42056
G0 F18000 X-16.552 Y2
G1 F2400 X-53.196 Y2 E1690.70584
G0 F18000 X-53.131 Y2.5
G1 F2400 X-16.425 Y2.5 E1692.99487
G0 F18000 X-16.179 Y3
G1 F2400 X-53.065 Y3 E1695.29524
G0 F18000 X-52.999 Y3.5
G1 F2400 X-15.932 Y3.5 E1697.60678
G0 F18000 X-15.685 Y4
G1 F2400 X-52.933 Y4 E1699.92973
G0 F18000 X-52.867 Y4.5
G1 F2400 X-15.306 Y4.5 E1702.27207
G0 F18000 X-14.868 Y5
G1 F2400 X-52.801 Y5 E1704.63774
G0 F18000 X-52.735 Y5.5
G1 F2400 X-14.429 Y5.5 E1707.02655
G0 F18000 X-13.754 Y6
G1 F2400 X-52.669 Y6 E1709.45346
G0 F18000 X-52.603 Y6.5
G1 F2400 X-13.005 Y6.5 E1711.92283
G0 F18000 X-11.819 Y7
G1 F2400 X-52.537 Y7 E1714.46218
G0 F18000 X-52.471 Y7.5
G1 F2400 X33.657 Y7.499 E1719.8333
G0 F18000 X33.722 Y6.999
G1 F2400 X-6.859 Y7 E1722.36404
G0 F18000 X-5.845 Y6.5
G1 F2400 X33.788 Y6.499 E1724.8356
G0 F18000 X33.854 Y5.999
G1 F2400 X-5.019 Y6 E1727.25983
G0 F18000 X-4.45 Y5.5
G1 F2400 X33.92 Y5.499 E1729.65263
G0 F18000 X33.986 Y4.999
G1 F2400 X-3.879 Y5 E1732.01399
G0 F18000 X-3.51 Y4.5
G1 F2400 X34.052 Y4.499 E1734.3564
G0 F18000 X34.117 Y3.999
G1 F2400 X-3.177 Y4 E1736.68216
G0 F18000 X-2.844 Y3.5
G1 F2400 X34.183 Y3.499 E1738.9912
G0 F18000 X34.249 Y2.999
G1 F2400 X-2.611 Y3 E1741.28989
G0 F18000 X-2.442 Y2.5
G1 F2400 X34.315 Y2.499 E1743.5821
G0 F18000 X34.381 Y1.999
G1 F2400 X-2.272 Y2 E1745.86788
G0 F18000 X-2.103 Y1.5
G1 F2400 X34.447 Y1.499 E1748.14717
G0 F18000 X34.513 Y0.999
G1 F2400 X-2.059 Y1 E1750.42791
G0 F18000 X-2.026 Y0.5
G1 F2400 X34.578 Y0.499 E1752.71057
G0 F18000 X33.591 Y7.999
G1 F2400 X-52.406 Y8 E1758.07358
G0 F18000 X-52.34 Y8.5
G1 F2400 X33.525 Y8.499 E1763.42829
G0 F18000 X33.459 Y8.999
G1 F2400 X-52.274 Y9 E1768.77484
G0 F18000 X-52.208 Y9.5
G1 F2400 X33.393 Y9.499 E1774.11309
G0 F18000 X33.327 Y9.999
G1 F2400 X-52.142 Y10 E1779.44317
G0 F18000 X-52.076 Y10.5
G1 F2400 X33.262 Y10.499 E1784.76502
G0 F18000 X33.196 Y10.999
G1 F2400 X-52.01 Y11 E1790.07871
G0 F18000 X-51.919 Y11.5
G1 F2400 X33.102 Y11.499 E1795.38079
G0 F18000 X32.895 Y11.999
G1 F2400 X-51.712 Y12 E1800.65711
G0 F18000 X-51.505 Y12.5
G1 F2400 X32.688 Y12.499 E1805.90756
G0 F18000 X32.481 Y12.999
G1 F2400 X-51.298 Y13 E1811.13225
G0 F18000 X-51.09 Y13.5
G1 F2400 X32.274 Y13.499 E1816.33099
G0 F18000 X32.067 Y13.999
G1 F2400 X-50.883 Y14 E1821.50398
G0 F18000 X-50.676 Y14.5
G1 F2400 X31.86 Y14.499 E1826.65109
G0 F18000 X31.653 Y14.999
G1 F2400 X-50.469 Y15 E1831.77245
G0 F18000 X-50.262 Y15.5
G1 F2400 X31.446 Y15.499 E1836.86792
G0 F18000 X31.239 Y15.999
G1 F2400 X-50.055 Y16 E1841.93764
G0 F18000 X-49.848 Y16.5
G1 F2400 X31.032 Y16.499 E1846.98147
G0 F18000 X30.825 Y16.999
G1 F2400 X-49.641 Y17 E1851.99956
G0 F18000 X-49.434 Y17.5
G1 F2400 X30.618 Y17.499 E1856.99176
G0 F18000 X30.411 Y17.999
G1 F2400 X-49.227 Y18 E1861.9582
G0 F18000 X-49.02 Y18.5
G1 F2400 X30.204 Y18.499 E1866.89877
G0 F18000 X29.997 Y18.999
G1 F2400 X-48.813 Y19 E1871.81357
G0 F18000 X-48.606 Y19.5
G1 F2400 X29.79 Y19.499 E1876.7025
G0 F18000 X29.583 Y20
G1 F2400 X-48.399 Y20 E1881.56568
G0 F18000 X-48.192 Y20.5
G1 F2400 X29.376 Y20.5 E1886.40297
G0 F18000 X29.169 Y21
G1 F2400 X-47.985 Y21 E1891.2145
G0 F18000 X-47.778 Y21.5
G1 F2400 X28.962 Y21.5 E1896.00016
G0 F18000 X28.755 Y22
G1 F2400 X-47.57 Y22 E1900.76
G0 F18000 X-47.199 Y22.5
G1 F2400 X28.384 Y22.5 E1905.4735
G0 F18000 X28 Y23
G1 F2400 X-46.816 Y23 E1910.13923
G0 F18000 X-46.432 Y23.5
G1 F2400 X27.617 Y23.5 E1914.75707
G0 F18000 X27.233 Y24
G1 F2400 X-46.048 Y24 E1919.32707
G0 F18000 X-45.665 Y24.5
G1 F2400 X26.849 Y24.5 E1923.84918
G0 F18000 X26.465 Y25
G1 F2400 X-45.281 Y25 E1928.32346
G0 F18000 X-44.897 Y25.5
G1 F2400 X26.082 Y25.5 E1932.74984
G0 F18000 X25.698 Y26
G1 F2400 X-44.514 Y26 E1937.12846
G0 F18000 X-44.13 Y26.5
G1 F2400 X25.314 Y26.5 E1941.45911
G0 F18000 X24.931 Y27
G1 F2400 X-43.747 Y27 E1945.74206
G0 F18000 X-43.363 Y27.5
G1 F2400 X24.547 Y27.5 E1949.97705
G0 F18000 X24.163 Y28
G1 F2400 X-42.979 Y28 E1954.16421
G0 F18000 X-42.596 Y28.5
G1 F2400 X23.78 Y28.5 E1958.30354
G0 F18000 X23.396 Y29
G1 F2400 X-42.212 Y29 E1962.39504
G0 F18000 X-41.828 Y29.5
G1 F2400 X23.012 Y29.5 E1966.43858
G0 F18000 X22.629 Y30
G1 F2400 X-41.445 Y30 E1970.43441
G0 F18000 X-41.061 Y30.5
G1 F2400 X22.245 Y30.5 E1974.38228
G0 F18000 X21.861 Y31
G1 F2400 X-40.678 Y31 E1978.28239
G0 F18000 X-40.097 Y31.5
G1 F2400 X21.294 Y31.5 E1982.11083
G0 F18000 X20.643 Y32
G1 F2400 X-39.446 Y32 E1985.85815
G0 F18000 X-38.796 Y32.5
G1 F2400 X19.991 Y32.5 E1989.52421
G0 F18000 X19.339 Y33
G1 F2400 X-38.145 Y33 E1993.10907
G0 F18000 X-37.495 Y33.5
G1 F2400 X18.688 Y33.5 E1996.61273
G0 F18000 X18.036 Y34
G1 F2400 X-36.844 Y34 E2000.0352
G0 F18000 X-36.194 Y34.5
G1 F2400 X17.384 Y34.5 E2003.37641
G0 F18000 X16.733 Y35
G1 F2400 X-35.543 Y35 E2006.63648
G0 F18000 X-34.892 Y35.5
G1 F2400 X16.081 Y35.5 E2009.81524
G0 F18000 X15.429 Y36
G1 F2400 X-34.242 Y36 E2012.91286
G0 F18000 X-33.591 Y36.5
G1 F2400 X14.778 Y36.5 E2015.92922
G0 F18000 X14.126 Y37
G1 F2400 X-32.941 Y37 E2018.86445
G0 F18000 X-32.289 Y37.5
G1 F2400 X13.475 Y37.5 E2021.71835
G0 F18000 X12.823 Y38
G1 F2400 X-31.639 Y38 E2024.49113
G0 F18000 X-30.607 Y38.5
G1 F2400 X11.791 Y38.5 E2027.13512
G0 F18000 X10.584 Y39
G1 F2400 X-29.4 Y39 E2029.62863
G0 F18000 X-28.193 Y39.5
G1 F2400 X9.377 Y39.5 E2031.97154
G0 F18000 X8.169 Y40
G1 F2400 X-26.985 Y40 E2034.16384
G0 F18000 X-25.778 Y40.5
G1 F2400 X6.962 Y40.5 E2036.20553
G0 F18000 X5.755 Y41
G1 F2400 X-24.571 Y41 E2038.09675
G0 F18000 X-23.364 Y41.5
G1 F2400 X4.548 Y41.5 E2039.83735
G0 F18000 X3.34 Y42
G1 F2400 X-22.156 Y42 E2041.42735
G0 F18000 X-20.949 Y42.5
G1 F2400 X2.133 Y42.5 E2042.86675
G0 F18000 X-1.358 Y43
G1 F2400 X-17.456 Y43 E2043.87073
G0 F18000 X-13.662 Y43.5
G1 F2400 X-5.151 Y43.5 E2044.40143
G0 F18000 X-8.943 Y44
G1 F2400 X-9.869 Y44 E2044.45924
G0 F18000 X-52.469 Y-7.499
G1 F2400 X33.648 Y-7.5 E2049.82968
G0 F18000 X33.582 Y-8
G1 F2400 X-52.403 Y-7.999 E2055.19194
G0 F18000 X-52.337 Y-8.499
G1 F2400 X33.515 Y-8.5 E2060.54584
G0 F18000 X33.449 Y-9
G1 F2400 X-52.271 Y-8.999 E2065.89158
G0 F18000 X-52.205 Y-9.499
G1 F2400 X33.383 Y-9.5 E2071.22902
G0 F18000 X33.317 Y-10
G1 F2400 X-52.14 Y-9.999 E2076.55835
G0 F18000 X-52.074 Y-10.499
G1 F2400 X33.25 Y-10.5 E2081.87933
G0 F18000 X33.184 Y-11
G1 F2400 X-52.008 Y-10.999 E2087.19214
G0 F18000 X-51.911 Y-11.499
G1 F2400 X33.096 Y-11.5 E2092.49334
G0 F18000 X32.889 Y-12
G1 F2400 X-51.704 Y-11.999 E2097.7688
G0 F18000 X-51.497 Y-12.499
G1 F2400 X32.682 Y-12.5 E2103.01837
G0 F18000 X32.475 Y-13
G1 F2400 X-51.29 Y-12.999 E2108.24218
G0 F18000 X-51.083 Y-13.499
G1 F2400 X32.268 Y-13.5 E2113.44012
G0 F18000 X32.061 Y-14
G1 F2400 X-50.876 Y-13.999 E2118.6123
G0 F18000 X-50.669 Y-14.499
G1 F2400 X31.853 Y-14.5 E2123.75854
G0 F18000 X31.646 Y-15
G1 F2400 X-50.462 Y-14.999 E2128.87902
G0 F18000 X-50.255 Y-15.499
G1 F2400 X31.439 Y-15.5 E2133.97362
G0 F18000 X31.232 Y-16
G1 F2400 X-50.048 Y-15.999 E2139.04246
G0 F18000 X-49.84 Y-16.499
G1 F2400 X31.025 Y-16.5 E2144.08536
G0 F18000 X30.818 Y-17
G1 F2400 X-49.633 Y-16.999 E2149.10251
G0 F18000 X-49.426 Y-17.499
G1 F2400 X30.611 Y-17.5 E2154.09378
G0 F18000 X30.404 Y-18
G1 F2400 X-49.219 Y-17.999 E2159.05928
G0 F18000 X-49.012 Y-18.499
G1 F2400 X30.196 Y-18.5 E2163.99885
G0 F18000 X29.989 Y-19
G1 F2400 X-48.805 Y-18.999 E2168.91266
G0 F18000 X-48.598 Y-19.499
G1 F2400 X29.782 Y-19.5 E2173.80059
G0 F18000 X29.575 Y-20
G1 F2400 X-48.391 Y-19.999 E2178.66277
G0 F18000 X-48.184 Y-20.499
G1 F2400 X29.368 Y-20.5 E2183.49906
G0 F18000 X29.161 Y-21
G1 F2400 X-47.977 Y-20.999 E2188.3096
G0 F18000 X-47.77 Y-21.499
G1 F2400 X28.954 Y-21.5 E2193.09426
G0 F18000 X28.747 Y-22
G1 F2400 X-47.563 Y-21.999 E2197.85316
G0 F18000 X-47.185 Y-22.499
G1 F2400 X28.369 Y-22.5 E2202.56485
G0 F18000 X27.985 Y-23
G1 F2400 X-46.801 Y-22.999 E2207.22871
G0 F18000 X-46.418 Y-23.499
G1 F2400 X27.602 Y-23.5 E2211.84474
G0 F18000 X27.218 Y-24
G1 F2400 X-46.034 Y-23.999 E2216.41294
G0 F18000 X-45.65 Y-24.499
G1 F2400 X26.834 Y-24.5 E2220.93318
G0 F18000 X26.451 Y-25
G1 F2400 X-45.267 Y-24.999 E2225.40571
G0 F18000 X-44.883 Y-25.499
G1 F2400 X26.067 Y-25.5 E2229.83028
G0 F18000 X25.684 Y-26
G1 F2400 X-44.5 Y-25.999 E2234.20715
G0 F18000 X-44.116 Y-26.499
G1 F2400 X25.3 Y-26.5 E2238.53606
G0 F18000 X24.916 Y-27
G1 F2400 X-43.732 Y-26.999 E2242.81714
G0 F18000 X-43.349 Y-27.499
G1 F2400 X24.533 Y-27.5 E2247.05039
G0 F18000 X24.149 Y-28
G1 F2400 X-42.965 Y-27.999 E2251.2358
G0 F18000 X-42.582 Y-28.499
G1 F2400 X23.766 Y-28.5 E2255.37338
G0 F18000 X23.382 Y-29
G1 F2400 X-42.198 Y-28.999 E2259.46313
G0 F18000 X-41.814 Y-29.499
G1 F2400 X22.998 Y-29.5 E2263.50492
G0 F18000 X22.614 Y-30
G1 F2400 X-41.431 Y-29.999 E2267.49895
G0 F18000 X-41.047 Y-30.499
G1 F2400 X22.23 Y-30.5 E2271.44501
G0 F18000 X21.847 Y-31
G1 F2400 X-40.664 Y-30.999 E2275.34337
G0 F18000 X-40.086 Y-31.499
G1 F2400 X21.27 Y-31.5 E2279.16964
G0 F18000 X20.618 Y-32
G1 F2400 X-39.435 Y-31.999 E2282.91471
G0 F18000 X-38.783 Y-32.499
G1 F2400 X19.966 Y-32.5 E2286.57839
G0 F18000 X19.315 Y-33
G1 F2400 X-38.131 Y-33 E2290.16088
G0 F18000 X-37.48 Y-33.5
G1 F2400 X18.663 Y-33.5 E2293.66205
G0 F18000 X18.011 Y-34
G1 F2400 X-36.828 Y-34 E2297.08196
G0 F18000 X-36.176 Y-34.5
G1 F2400 X17.36 Y-34.5 E2300.42055
G0 F18000 X16.708 Y-35
G1 F2400 X-35.524 Y-35 E2303.67789
G0 F18000 X-34.873 Y-35.5
G1 F2400 X16.056 Y-35.5 E2306.8539
G0 F18000 X15.405 Y-36
G1 F2400 X-34.221 Y-36 E2309.94871
G0 F18000 X-33.569 Y-36.5
G1 F2400 X14.753 Y-36.5 E2312.96214
G0 F18000 X14.101 Y-37
G1 F2400 X-32.918 Y-37 E2315.89438
G0 F18000 X-32.266 Y-37.5
G1 F2400 X13.45 Y-37.5 E2318.74529
G0 F18000 X12.798 Y-38
G1 F2400 X-31.614 Y-38 E2321.51494
G0 F18000 X-30.561 Y-38.5
G1 F2400 X11.745 Y-38.5 E2324.1532
G0 F18000 X10.538 Y-39
G1 F2400 X-29.354 Y-39 E2326.64097
G0 F18000 X-28.147 Y-39.5
G1 F2400 X9.331 Y-39.5 E2328.97814
G0 F18000 X8.124 Y-40
G1 F2400 X-26.94 Y-40 E2331.16483
G0 F18000 X-25.732 Y-40.5
G1 F2400 X6.916 Y-40.5 E2333.20079
G0 F18000 X5.709 Y-41
G1 F2400 X-24.525 Y-41 E2335.08626
G0 F18000 X-23.318 Y-41.5
G1 F2400 X4.502 Y-41.5 E2336.82113
G0 F18000 X3.294 Y-42
G1 F2400 X-22.11 Y-42 E2338.4054
G0 F18000 X-20.903 Y-42.5
G1 F2400 X2.087 Y-42.5 E2339.83905
G0 F18000 X-1.505 Y-43
G1 F2400 X-17.309 Y-43 E2340.8247
G0 F18000 X-13.513 Y-43.5
G1 F2400 X-5.3 Y-43.5 E2341.33682
G0 F18000 X-9.095 Y-44
G1 F2400 X-9.717 Y-44 E2341.37567
; LAYER:3
G0 F18000 X-9.407 Y-44.232 Z1.2
; TYPE:WALL-INNER
G1 F2400 X2.043 Y-42.725 E2342.09581
G1 X12.712 Y-38.306 E2342.81595
G1 X21.876 Y-31.274 E2343.53627
G1 X28.907 Y-22.11 E2344.25654
G1 X33.31 Y-11.481 E2344.97396
G1 X34.834 Y0.006 E2345.69654
G1 X33.329 Y11.444 E2346.41599
G1 X28.907 Y22.13 E2347.1372
G1 X21.876 Y31.293 E2347.85747
G1 X12.712 Y38.325 E2348.57783
G1 X2.043 Y42.744 E2349.29799
G1 X-9.407 Y44.252 E2350.01821
G1 X-20.859 Y42.744 E2350.73862
G1 X-31.528 Y38.325 E2351.45884
G1 X-40.72 Y31.256 E2352.18204
G1 X-47.723 Y22.13 E2352.89945
G1 X-52.142 Y11.46 E2353.6197
G1 X-53.65 Y0.009 E2354.33999
G1 X-52.142 Y-11.441 E2355.0602
G1 X-47.723 Y-22.11 E2355.78039
G1 X-40.692 Y-31.274 E2356.50072
G1 X-31.528 Y-38.306 E2357.22107
G1 X-20.859 Y-42.725 E2357.9412
G1 X-9.407 Y-44.232 E2358.66148
G0 F18000 X-9.885 Y-7.243
G1 F2400 X-11.745 Y-6.872 E2358.77981
G1 X-13.447 Y-6.033 E2358.89818
G1 X-14.874 Y-4.781 E2359.01657
G1 X-15.928 Y-3.202 E2359.13495
G1 X-16.537 Y-1.405 E2359.25323
G1 X-16.661 Y0.487 E2359.37142
G1 X-16.289 Y2.347 E2359.4897
G1 X-15.45 Y4.049 E2359.60801
G1 X-14.199 Y5.476 E2359.72631
G1 X-12.62 Y6.53 E2359.84465
G1 X-10.822 Y7.139 E2359.96298
G1 X-8.929 Y7.262 E2360.08122
G1 X-7.068 Y6.891 E2360.1995
G1 X-5.366 Y6.052 E2360.31778
G1 X-3.94 Y4.8 E2360.43607
G1 X-2.886 Y3.221 E2360.55443
G1 X-2.277 Y1.424 E2360.67274
G1 X-2.153 Y-0.467 E2360.79092
G1 X-2.524 Y-2.328 E2360.90933
G1 X-3.364 Y-4.031 E2361.02784
G1 X-4.615 Y-5.456 E2361.14618
G1 X-6.193 Y-6.511 E2361.26464
G1 X-7.991 Y-7.12 E2361.3831
G1 X-9.885 Y-7.243 E2361.50153
G0 F18000 X-9.852 Y-6.74
; TYPE:WALL-OUTER
G1 F2100 X-11.583 Y-6.395 E2361.61166
G1 X-13.167 Y-5.614 E2361.72182
G1 X-14.495 Y-4.448 E2361.83204
G1 X-15.475 Y-2.979 E2361.94215
G1 X-16.042 Y-1.307 E2362.05221
G1 X-16.158 Y0.454 E2362.16221
G1 X-15.812 Y2.185 E2362.27228
G1 X-15.031 Y3.769 E2362.38239
G1 X-13.866 Y5.097 E2362.49252
G1 X-12.397 Y6.077 E2362.60259
G1 X-10.724 Y6.644 E2362.7127
G1 X-8.962 Y6.759 E2362.82275
G1 X-7.23 Y6.414 E2362.93283
G1 X-5.647 Y5.633 E2363.04285
G1 X-4.319 Y4.467 E2363.15301
G1 X-3.339 Y2.998 E2363.26311
G1 X-2.772 Y1.326 E2363.37319
G1 X-2.656 Y-0.434 E2363.48318
G1 X-3.001 Y-2.166 E2363.59339
G1 X-3.783 Y-3.75 E2363.70364
G1 X-4.948 Y-5.077 E2363.81385
G1 X-6.416 Y-6.058 E2363.92404
G1 X-8.089 Y-6.625 E2364.03428
G1 X-9.852 Y-6.74 E2364.14453
G1 F6600 E2357.34453
G1 Z1.5
G0 F18000 X-9.831 Y-7.088
G0 X-9.411 Y-44.384
G0 X-9.411 Y-44.384
G0 X-9.407 Y-44.737
G1 Z1.2
G1 F6600 E2364.14453
G1 F2100 X2.173 Y-43.212 E2364.87285
G1 X12.967 Y-38.742 E2365.60141
G1 X22.233 Y-31.631 E2366.32978
G1 X29.343 Y-22.365 E2367.05809
G1 X33.796 Y-11.614 E2367.78373
G1 X35.339 Y0.009 E2368.51487
G1 X33.816 Y11.573 E2369.24226
G1 X29.343 Y22.385 E2369.97195
G1 X22.233 Y31.65 E2370.70027
G1 X12.967 Y38.761 E2371.42867
G1 X2.173 Y43.231 E2372.15726
G1 X-9.407 Y44.757 E2372.88566
G1 X-20.989 Y43.231 E2373.61425
G1 X-31.783 Y38.761 E2374.34289
G1 X-41.077 Y31.613 E2375.07413
G1 X-48.159 Y22.385 E2375.79959
G1 X-52.629 Y11.59 E2376.52826
G1 X-54.155 Y0.009 E2377.25673
G1 X-52.629 Y-11.571 E2377.98513
G1 X-48.159 Y-22.365 E2378.71374
G1 X-41.049 Y-31.631 E2379.44212
G1 X-31.783 Y-38.742 E2380.17051
G1 X-20.989 Y-43.212 E2380.89906
G1 X-9.407 Y-44.737 E2381.62752
G0 F18000 X-9.5 Y-44.029
; TYPE:FILL
G1 F2400 X-9.5 Y-7.407 E2383.91131
G0 F18000 X-9.2 Y-7.388
G1 F2400 X-8.994 Y-7.745 E2383.93704
G0 F18000 X-9 Y-7.374
G1 F2400 X-9 Y-43.988 E2386.22045
G0 F18000 X-9.214 Y-44.015
G1 F2400 X-9.604 Y-43.641 E2386.24552
G1 X-9.992 Y-43.963 E2386.27705
G0 F18000 X-10 Y-43.963
G1 F2400 X-10 Y-7.412 E2388.55641
G0 F18000 X-10.046 Y-7.404
G1 F2400 X-10.241 Y-7.742 E2388.58083
G0 F18000 X-10.5 Y-7.313
G1 F2400 X-10.5 Y-43.897 E2390.86237
G0 F18000 X-11 Y-43.831
G1 F2400 X-11 Y-7.213 E2393.14591
G0 F18000 X-11.254 Y-7.162
G1 F2400 X-11.008 Y-7.588 E2393.17661
G0 F18000 X-11.5 Y-7.114
G1 F2400 X-11.5 Y-43.765 E2395.46233
G0 F18000 X-11.265 Y-43.796
G1 F2400 X-11.539 Y-43.382 E2395.49166
G1 X-11.78 Y-43.728 E2395.51805
G0 F18000 X-12 Y-43.699
G1 F2400 X-12 Y-6.957 E2397.80932
G0 F18000 X-11.771 Y-7.06
G1 F2400 X-11.961 Y-7.389 E2397.8331
G0 F18000 X-12.5 Y-6.711
G1 F2400 X-12.5 Y-43.633 E2400.13572
G0 F18000 X-13 Y-43.568
G1 F2400 X-13 Y-6.464 E2402.44956
G0 F18000 X-13.272 Y-6.329
G1 F2400 X-13.468 Y-6.645 E2402.47274
G1 X-13.928 Y-5.862 E2402.52935
G0 F18000 X-14 Y-5.799
G1 F2400 X-14 Y-43.436 E2404.87656
G0 F18000 X-13.567 Y-43.491
G1 F2400 X-13.474 Y-43.123 E2404.9019
G1 X-13.347 Y-43.521 E2404.928
G0 F18000 X-13.5 Y-43.502
G1 F2400 X-13.5 Y-6.218 E2407.25307
G0 F18000 X-13.433 Y-6.663
G1 F2400 X-12.597 Y-6.663 E2407.30514
G0 F18000 X-14.5 Y-5.361
G1 F2400 X-14.5 Y-43.37 E2409.67555
G0 F18000 X-14.91 Y-43.316
G1 F2400 X-12.038 Y-43.316 E2409.85459
G0 F18000 X-15 Y-43.304
G1 F2400 X-15 Y-4.922 E2412.24814
G0 F18000 X-14.914 Y-4.997
G1 F2400 X-15.402 Y-4.997 E2412.27863
G0 F18000 X-15.5 Y-4.184
G1 F2400 X-15.5 Y-43.238 E2414.71421
G0 F18000 X-15.429 Y-43.246
G1 F2400 X-15.67 Y-42.83 E2414.74417
G0 F18000 X-16 Y-43.172
G1 F2400 X-16 Y-3.434 E2417.22228
G0 F18000 X-16.069 Y-3.331
G1 F2400 X-16.089 Y-3.604 E2417.24771
G1 X-15.911 Y-4.234 E2417.28858
G0 F18000 X-14.591 Y-5.28
G1 F2400 X-14.779 Y-5.607 E2417.31219
G0 F18000 X-16.784 Y-2.415
G1 F2400 X-16.538 Y-1.99 E2417.34273
G0 F18000 X-16.5 Y-2.104
G1 F2400 X-16.5 Y-43.107 E2419.89985
G0 F18000 X-17 Y-43.041
G1 F2400 X-16.999 Y43.06 E2425.26928
G0 F18000 X-17.153 Y43.039
G1 F2400 X-17.226 Y42.843 E2425.29416
G1 X-17.732 Y42.591 E2425.32947
G0 F18000 X-17.999 Y42.928
G1 F2400 X-18 Y-42.909 E2430.6825
G0 F18000 X-17.755 Y-42.551
G1 F2400 X-17.511 Y-42.973 E2430.71292
G0 F18000 X-17.5 Y-42.975
G1 F2400 X-17.499 Y42.994 E2436.07412
G0 F18000 X-18.499 Y42.862
G1 F2400 X-18.5 Y-42.843 E2441.41892
G0 F18000 X-18.931 Y-42.785
G1 F2400 X-18.721 Y-42.421 E2441.44504
G0 F18000 X-19 Y-42.777
G1 F2400 X-18.999 Y42.797 E2446.78161
G0 F18000 X-18.941 Y42.803
G1 F2400 X-18.742 Y42.458 E2446.80642
G0 F18000 X-19.499 Y42.731
G1 F2400 X-19.5 Y-42.711 E2452.13482
G0 F18000 X-19.593 Y-42.698
G1 F2400 X-19.839 Y-42.272 E2452.16547
G0 F18000 X-20 Y-42.646
G1 F2400 X-19.999 Y42.665 E2457.48564
G0 F18000 X-19.813 Y42.317
G1 F2400 X-19.581 Y42.719 E2457.51455
G0 F18000 X-20.499 Y42.599
G1 F2400 X-20.5 Y-42.58 E2462.82655
G0 F18000 X-20.718 Y-42.55
G1 F2400 X-20.506 Y-42.182 E2462.85295
G0 F18000 X-21 Y-42.46
G1 F2400 X-20.999 Y42.479 E2468.14992
G0 F18000 X-20.729 Y42.568
G1 F2400 X-20.529 Y42.222 E2468.17481
G0 F18000 X-21.499 Y42.272
G1 F2400 X-21.5 Y-42.253 E2473.44602
G0 F18000 X-21.861 Y-42.102
G1 F2400 X-22.13 Y-41.591 E2473.48374
G1 X-22.283 Y-41.927 E2473.50684
G0 F18000 X-22.5 Y-41.839
G1 F2400 X-22.499 Y41.858 E2478.72636
G0 F18000 X-22.292 Y41.943
G1 F2400 X-22.128 Y41.611 E2478.74951
G1 X-21.847 Y42.127 E2478.78612
G0 F18000 X-21.999 Y42.065
G1 F2400 X-22 Y-42.046 E2484.03152
G0 F18000 X-21.991 Y-41.65
G1 F2400 X-22.956 Y-41.65 E2484.09176
G0 F18000 X-23 Y-41.632
G1 F2400 X-22.999 Y41.651 E2489.28546
G0 F18000 X-23.001 Y41.65
G1 F2400 X-22.037 Y41.65 E2489.34551
G0 F18000 X-23.499 Y41.444
G1 F2400 X-23.5 Y-41.425 E2494.51345
G0 F18000 X-23.835 Y-41.285
G1 F2400 X-23.649 Y-40.963 E2494.53655
G0 F18000 X-24 Y-41.217
G1 F2400 X-23.999 Y41.237 E2499.67855
G0 F18000 X-23.845 Y41.3
G1 F2400 X-24.016 Y41.028 E2499.70179
G1 X-24.678 Y40.554 E2499.75262
G0 F18000 X-24.999 Y40.822
G1 F2400 X-25 Y-40.803 E2504.84298
G0 F18000 X-24.693 Y-40.529
G1 F2400 X-24.389 Y-41.055 E2504.88089
G0 F18000 X-24.5 Y-41.01
G1 F2400 X-24.499 Y41.029 E2509.997
G0 F18000 X-25.397 Y40.657
G1 F2400 X-25.21 Y40.334 E2510.02025
G0 F18000 X-25.499 Y40.615
G1 F2400 X-25.5 Y-40.596 E2515.08479
G0 F18000 X-25.388 Y-40.641
G1 F2400 X-25.202 Y-40.319 E2515.10789
G0 F18000 X-26 Y-40.389
G1 F2400 X-25.999 Y40.408 E2520.14656
G0 F18000 X-26.058 Y39.984
G1 F2400 X-27.024 Y39.984 E2520.20686
G0 F18000 X-26.999 Y39.994
G1 F2400 X-27 Y-39.975 E2525.19395
G0 F18000 X-26.978 Y-39.984
G1 F2400 X-26.011 Y-39.984 E2525.25419
G0 F18000 X-26.5 Y-40.182
G1 F2400 X-26.499 Y40.201 E2530.26703
G0 F18000 X-26.903 Y40.033
G1 F2400 X-27.207 Y39.506 E2530.305
G0 F18000 X-27.499 Y39.787
G1 F2400 X-27.5 Y-39.768 E2535.26627
G0 F18000 X-27.222 Y-39.481
G1 F2400 X-26.929 Y-40.004 E2535.30436
G1 X-26.754 Y-39.676 E2535.32746
G0 F18000 X-28 Y-39.561
G1 F2400 X-27.999 Y39.58 E2540.26284
G0 F18000 X-28.499 Y39.372
G1 F2400 X-28.5 Y-39.354 E2545.17241
G0 F18000 X-28.493 Y-39.356
G1 F2400 X-28.306 Y-39.032 E2545.19566
G0 F18000 X-29 Y-39.147
G1 F2400 X-28.999 Y39.165 E2550.07935
G0 F18000 X-29.432 Y38.986
G1 F2400 X-29.801 Y38.431 E2550.11729
G1 X-30.054 Y38.728 E2550.14166
G0 F18000 X-29.999 Y38.751
G1 F2400 X-30 Y-38.731 E2554.97365
G0 F18000 X-30.046 Y-38.713
G1 F2400 X-29.805 Y-38.411 E2554.99689
G1 X-29.446 Y-38.961 E2555.03786
G0 F18000 X-29.5 Y-38.94
G1 F2400 X-29.499 Y38.958 E2559.89574
G0 F18000 X-30.078 Y38.318
G1 F2400 X-31.047 Y38.318 E2559.95623
G0 F18000 X-30.999 Y38.337
G1 F2400 X-31 Y-38.317 E2564.73658
G0 F18000 X-31.001 Y-38.318
G1 F2400 X-30.032 Y-38.318 E2564.79695
G0 F18000 X-30.5 Y-38.524
G1 F2400 X-30.499 Y38.544 E2569.60306
G0 F18000 X-31.499 Y38.106
G1 F2400 X-31.5 Y-38.087 E2574.35467
G0 F18000 X-31.575 Y-38.03
G1 F2400 X-31.387 Y-37.704 E2574.37805
G0 F18000 X-32 Y-37.703
G1 F2400 X-31.999 Y37.722 E2579.0817
G0 F18000 X-32.154 Y37.603
G1 F2400 X-32.684 Y36.725 E2579.14249
G1 X-32.914 Y37.018 E2579.16576
G0 F18000 X-32.999 Y36.953
G1 F2400 X-33 Y-36.936 E2583.77368
G0 F18000 X-32.908 Y-37.006
G1 F2400 X-32.74 Y-36.667 E2583.79691
G1 X-33.371 Y-36.652 E2583.83633
G0 F18000 X-33.5 Y-36.552
G1 F2400 X-33.499 Y36.568 E2588.39623
G0 F18000 X-33.392 Y36.652
G1 F2400 X-32.782 Y36.652 E2588.43421
G0 F18000 X-32.499 Y37.337
G1 F2400 X-32.5 Y-37.319 E2593.08996
G0 F18000 X-32.172 Y-37.571
G1 F2400 X-32.659 Y-36.728 E2593.15065
G0 F18000 X-34 Y-36.168
G1 F2400 X-33.999 Y36.184 E2597.66266
G0 F18000 X-34.247 Y35.993
G1 F2400 X-34.059 Y35.668 E2597.68605
G0 F18000 X-34.499 Y35.799
G1 F2400 X-34.5 Y-35.785 E2602.15022
G0 F18000 X-34.241 Y-35.984
G1 F2400 X-34.054 Y-35.659 E2602.17352
G0 F18000 X-35 Y-35.401
G1 F2400 X-34.999 Y35.415 E2606.58974
G0 F18000 X-34.948 Y34.986
G1 F2400 X-35.568 Y34.977 E2606.62777
G1 X-35.502 Y34.793 E2606.65116
G1 X-36.1 Y34.099 E2606.70833
G0 F18000 X-36.499 Y34.261
G1 F2400 X-36.5 Y-34.25 E2610.98087
G0 F18000 X-36.112 Y-34.079
G1 F2400 X-35.6 Y-34.941 E2611.04154
G1 X-35.464 Y-34.81 E2611.06503
G1 X-34.932 Y-34.986 E2611.09994
G0 F18000 X-35.5 Y-35.017
G1 F2400 X-35.499 Y35.03 E2615.4682
G0 F18000 X-35.999 Y34.646
G1 F2400 X-36 Y-34.634 E2619.78869
G0 F18000 X-36.907 Y-33.937
G1 F2400 X-36.72 Y-33.613 E2619.81193
G0 F18000 X-37 Y-33.866
G1 F2400 X-36.999 Y33.877 E2624.03651
G0 F18000 X-36.911 Y33.944
G1 F2400 X-36.919 Y33.47 E2624.05975
G1 X-37.724 Y33.32 E2624.11088
G0 F18000 X-37.499 Y33.492
G1 F2400 X-37.5 Y-33.483 E2628.28762
G0 F18000 X-37.714 Y-33.32
G1 F2400 X-37.103 Y-33.32 E2628.32566
G0 F18000 X-38 Y-33.099
G1 F2400 X-37.999 Y33.108 E2632.45445
G0 F18000 X-38.243 Y32.92
G1 F2400 X-38.056 Y32.595 E2632.4778
G0 F18000 X-38.499 Y32.723
G1 F2400 X-38.5 Y-32.716 E2636.55876
G0 F18000 X-38.24 Y-32.915
G1 F2400 X-38.053 Y-32.59 E2636.58206
G0 F18000 X-39 Y-32.332
G1 F2400 X-38.999 Y32.339 E2640.61506
G0 F18000 X-39.073 Y32.282
G1 F2400 X-39.473 Y31.505 E2640.67569
G1 X-39.576 Y31.896 E2640.70092
G0 F18000 X-39.499 Y31.954
G1 F2400 X-39.5 Y-31.948 E2644.68603
G0 F18000 X-39.574 Y-31.892
G1 F2400 X-39.33 Y-31.61 E2644.70938
G1 X-39.886 Y-31.653 E2644.74423
G0 F18000 X-40 Y-31.565
G1 F2400 X-39.999 Y31.57 E2648.68144
G0 F18000 X-39.891 Y31.654
G1 F2400 X-39.281 Y31.654 E2648.71942
G0 F18000 X-40.499 Y31.185
G1 F2400 X-40.5 Y-31.181 E2652.60873
G0 F18000 X-40.845 Y-30.761
G1 F2400 X-40.644 Y-30.413 E2652.63371
G0 F18000 X-41 Y-30.559
G1 F2400 X-40.999 Y30.579 E2656.44638
G0 F18000 X-40.851 Y30.773
G1 F2400 X-40.819 Y30.206 E2656.47131
G1 X-41.454 Y29.988 E2656.51324
G0 F18000 X-41.499 Y29.928
G1 F2400 X-41.5 Y-29.908 E2660.24478
G0 F18000 X-41.44 Y-29.987
G1 F2400 X-40.972 Y-29.987 E2660.2739
G0 F18000 X-41.942 Y-29.331
G1 F2400 X-41.741 Y-28.983 E2660.29888
G0 F18000 X-42 Y-29.256
G1 F2400 X-42 Y29.276 E2663.94903
G0 F18000 X-41.949 Y29.342
G1 F2400 X-41.748 Y28.995 E2663.97401
G0 F18000 X-42.5 Y28.624
G1 F2400 X-42.5 Y-28.604 E2667.5429
G0 F18000 X-42.718 Y-28.321
G1 F2400 X-42.25 Y-28.321 E2667.57203
G0 F18000 X-43 Y-27.953
G1 F2400 X-43 Y27.973 E2671.05966
G0 F18000 X-43.047 Y27.911
G1 F2400 X-42.846 Y27.563 E2671.08469
G0 F18000 X-43.5 Y27.321
G1 F2400 X-43.5 Y-27.301 E2674.49107
G0 F18000 X-43.528 Y-26.655
G1 F2400 X-43.996 Y-26.655 E2674.52032
G0 F18000 X-44 Y-26.649
G1 F2400 X-44 Y26.669 E2677.84532
G0 F18000 X-44.01 Y26.656
G1 F2400 X-43.843 Y26.568 E2677.87449
G1 X-43.943 Y26.133 E2677.90234
G0 F18000 X-44.5 Y26.018
G1 F2400 X-44.5 Y-25.998 E2681.1462
G0 F18000 X-43.937 Y-26.121
G1 F2400 X-44.138 Y-26.47 E2681.1714
G0 F18000 X-45 Y-25.346
G1 F2400 X-45 Y25.366 E2684.33388
G0 F18000 X-44.961 Y25.416
G1 F2400 X-46.384 Y22.951 E2684.51141
G0 F18000 X-46.139 Y23.271
G1 F2400 X-46.34 Y23.619 E2684.53651
G0 F18000 X-46.5 Y23.411
G1 F2400 X-46.5 Y-23.391 E2687.45521
G0 F18000 X-46.553 Y-23.323
G1 F2400 X-46.109 Y-23.291 E2687.48429
G1 X-46.333 Y-23.608 E2687.50858
G0 F18000 X-46 Y-24.043
G1 F2400 X-46 Y24.063 E2690.50854
G0 F18000 X-46.099 Y23.324
G1 F2400 X-46.567 Y23.324 E2690.53779
G0 F18000 X-47 Y22.76
G1 F2400 X-47 Y-22.74 E2693.37529
G0 F18000 X-46.427 Y-22.876
G1 F2400 X-45.009 Y-25.333 E2693.55223
G0 F18000 X-45.235 Y-25.038
G1 F2400 X-44.921 Y-24.84 E2693.57714
G1 X-45.274 Y-24.989 E2693.60111
G0 F18000 X-45.5 Y-24.695
G1 F2400 X-45.5 Y24.714 E2696.68233
G0 F18000 X-45.289 Y24.99
G1 F2400 X-44.931 Y24.845 E2696.71146
G1 X-45.242 Y25.049 E2696.7347
G0 F18000 X-47.437 Y22.188
G1 F2400 X-47.273 Y21.748 E2696.75981
G1 X-47.712 Y21.658 E2696.78782
G0 F18000 X-47.5 Y22.108
G1 F2400 X-47.5 Y-22.088 E2699.544
G0 F18000 X-47.431 Y-22.177
G1 F2400 X-47.267 Y-21.743 E2699.56893
G1 X-47.704 Y-21.657 E2699.59676
G0 F18000 X-48 Y-20.943
G1 F2400 X-48 Y20.963 E2702.21007
G0 F18000 X-47.768 Y20.554
G1 F2400 X-49.183 Y18.103 E2702.38659
G0 F18000 X-49.092 Y18.326
G1 F2400 X-48.692 Y18.326 E2702.41148
G0 F18000 X-49 Y18.548
G1 F2400 X-49 Y-18.528 E2704.72364
G0 F18000 X-49.071 Y-18.354
G1 F2400 X-48.838 Y-17.951 E2704.75258
G0 F18000 X-49.156 Y-18.15
G1 F2400 X-47.742 Y-20.6 E2704.92901
G0 F18000 X-48.268 Y-20.294
G1 F2400 X-48.014 Y-19.941 E2704.95794
G1 X-48.394 Y-19.991 E2704.98191
G0 F18000 X-48.5 Y-19.736
G1 F2400 X-48.5 Y19.755 E2707.44462
G0 F18000 X-48.402 Y19.992
G1 F2400 X-48.02 Y19.945 E2707.46952
G1 X-48.272 Y20.302 E2707.4968
G0 F18000 X-49.076 Y18.362
G1 F2400 X-48.843 Y17.959 E2707.5258
G0 F18000 X-49.5 Y17.341
G1 F2400 X-49.5 Y-17.321 E2709.68742
G0 F18000 X-49.375 Y-16.659
G1 F2400 X-49.824 Y-16.536 E2709.71237
G1 X-49.642 Y-16.011 E2709.74694
G0 F18000 X-50 Y-16.114
G1 F2400 X-50 Y16.133 E2711.75789
G0 F18000 X-49.879 Y16.422
G1 F2400 X-49.714 Y16.339 E2711.78694
G1 X-49.382 Y16.66 E2711.81569
G0 F18000 X-50.073 Y14.994
G1 F2400 X-50.472 Y14.994 E2711.84064
G0 F18000 X-50.5 Y14.926
G1 F2400 X-50.5 Y-14.907 E2713.7011
G0 F18000 X-50.464 Y-14.993
G1 F2400 X-50.371 Y-14.733 E2713.72599
G1 X-50.446 Y-14.072 E2713.76742
G0 F18000 X-51 Y-13.699
G1 F2400 X-51 Y13.719 E2715.47722
G0 F18000 X-51.162 Y13.328
G1 F2400 X-50.607 Y13.703 E2715.502
G1 X-50.683 Y14.482 E2715.55082
G0 F18000 X-51.486 Y12.541
G1 F2400 X-51.254 Y12.14 E2715.57968
G0 F18000 X-51.5 Y12.511
G1 F2400 X-51.5 Y-12.492 E2717.13894
G0 F18000 X-51.482 Y-12.534
G1 F2400 X-51.347 Y-11.896 E2717.16784
G1 X-51.844 Y-11.661 E2717.20216
G0 F18000 X-52 Y-11.057
G1 F2400 X-52 Y11.076 E2718.58237
G0 F18000 X-51.852 Y11.662
G1 F2400 X-51.453 Y11.662 E2718.60719
G0 F18000 X-51.719 Y10.378
G1 F2400 X-52.001 Y9.65 E2718.6671
G1 X-52.123 Y10.137 E2718.70475
G1 X-51.771 Y9.996 E2718.72834
G0 F18000 X-51.99 Y8.33
G1 F2400 X-52.411 Y7.948 E2718.75156
G1 X-52.184 Y6.853 E2718.78921
G1 X-52.582 Y6.664 E2718.81674
G0 F18000 X-52.5 Y7.283
G1 F2400 X-52.5 Y-7.265 E2719.724
G0 F18000 X-52.459 Y-7.563
G1 F2400 X-52.182 Y-6.851 E2719.76157
G1 X-52.432 Y-6.364 E2719.7847
G1 X-52.783 Y-5.114 E2719.84458
G1 X-52.622 Y-4.924 E2719.86784
G1 X-52.514 Y-4.326 E2719.90567
G0 F18000 X-53 Y-3.472
G1 F2400 X-53 Y3.49 E2720.33977
G0 F18000 X-53.021 Y3.332
G1 F2400 X-52.648 Y3.332 E2720.36297
G0 F18000 X-52.516 Y4.328
G1 F2400 X-52.81 Y4.926 E2720.40081
G1 X-52.599 Y5.112 E2720.42405
G1 X-52.288 Y6.062 E2720.48636
G0 F18000 X-53.177 Y2.142
G1 F2400 X-52.87 Y1.64 E2720.52427
G1 X-53.047 Y1.706 E2720.54762
G1 X-53.398 Y0.454 E2720.6078
G1 X-53.21 Y-0.456 E2720.63098
G1 X-52.859 Y-1.707 E2720.69113
G1 X-53.054 Y-1.638 E2720.71437
G1 X-53.175 Y-2.137 E2720.74646
G0 F18000 X-53.019 Y-3.331
G1 F2400 X-52.647 Y-3.331 E2720.7696
G0 F18000 X-52.36 Y-8.329
G1 F2400 X-51.988 Y-8.329 E2720.79274
G0 F18000 X-52.198 Y-9.549
G1 F2400 X-51.743 Y-10.188 E2720.85263
G1 X-52.121 Y-10.135 E2720.87577
G1 X-51.8 Y-9.752 E2720.90685
G0 F18000 X-51.154 Y-13.327
G1 F2400 X-50.755 Y-13.327 E2720.93167
G0 F18000 X-49.084 Y-18.325
G1 F2400 X-48.685 Y-18.325 E2720.95649
G0 F18000 X-42.839 Y-27.552
G1 F2400 X-43.04 Y-27.9 E2720.98164
G0 F18000 X-39.565 Y-31.429
G1 F2400 X-39.08 Y-32.27 E2721.04221
G0 F18000 X-17.143 Y-43.021
G1 F2400 X-16.935 Y-42.66 E2721.0681
G0 F18000 X-15.355 Y-43.256
G1 F2400 X-15.149 Y-42.899 E2721.09372
G0 F18000 X-8.5 Y-43.922
G1 F2400 X-8.5 Y-7.342 E2723.37489
G0 F18000 X-8.293 Y-7.7
G1 F2400 X-8.07 Y-7.314 E2723.4026
G0 F18000 X-8 Y-7.309
G1 F2400 X-8 Y-43.856 E2725.68184
G0 F18000 X-8.006 Y-43.856
G1 F2400 X-7.7 Y-43.442 E2725.71085
G1 X-7.427 Y-43.779 E2725.7379
G0 F18000 X-7.5 Y-43.79
G1 F2400 X-7.5 Y-7.153 E2728.02262
G0 F18000 X-7.426 Y-7.128
G1 F2400 X-7.238 Y-7.454 E2728.04612
G0 F18000 X-7 Y-6.983
G1 F2400 X-7 Y-43.724 E2730.33745
G0 F18000 X-6.731 Y-43.316
G1 F2400 X-3.903 Y-43.316 E2730.51375
G0 F18000 X-3.851 Y-43.308
G1 F2400 X-4.051 Y-42.962 E2730.53865
G0 F18000 X-4 Y-43.329
G1 F2400 X-4 Y-5.043 E2732.92621
G0 F18000 X-3.96 Y-4.998
G1 F2400 X-3.468 Y-4.998 E2732.95683
G0 F18000 X-3.5 Y-4.475
G1 F2400 X-3.5 Y-43.263 E2735.37582
G0 F18000 X-3.842 Y-43.306
G1 F2400 X-3.61 Y-42.905 E2735.40462
G0 F18000 X-3 Y-43.197
G1 F2400 X-3 Y-3.724 E2737.8662
G0 F18000 X-2.807 Y-3.332
G1 F2400 X-2.286 Y-3.111 E2737.89191
G1 X-2.4 Y-2.506 E2737.93025
G0 F18000 X-2.5 Y-2.71
G1 F2400 X-2.5 Y-43.131 E2740.45108
G0 F18000 X-2.064 Y-43.072
G1 F2400 X-2.263 Y-42.727 E2740.47589
G0 F18000 X-2 Y-43.065
G1 F2400 X-2 Y-0.67 E2743.1197
G0 F18000 X-1.599 Y-0.561
G1 F2400 X-2.001 Y0.135 E2743.1698
G0 F18000 X-2 Y0.1
G1 F2400 X-1.999 Y43.084 E2745.8504
G0 F18000 X-2.053 Y43.09
G1 F2400 X-2.253 Y42.745 E2745.8753
G0 F18000 X-2.499 Y43.15
G1 F2400 X-2.499 Y2.671 E2748.39968
G0 F18000 X-2.427 Y2.459
G1 F2400 X-2.256 Y3.109 E2748.43036
G1 X-2.732 Y3.332 E2748.46319
G0 F18000 X-2.999 Y3.732
G1 F2400 X-2.999 Y43.216 E2750.92552
G0 F18000 X-3.499 Y43.282
G1 F2400 X-3.499 Y4.482 E2753.3452
G0 F18000 X-3.33 Y4.227
G1 F2400 X-3.26 Y4.792 E2753.3709
G1 X-3.877 Y4.998 E2753.41152
G0 F18000 X-3.999 Y5.104
G1 F2400 X-3.999 Y43.348 E2755.79652
G0 F18000 X-3.854 Y43.328
G1 F2400 X-3.622 Y42.925 E2755.82549
G0 F18000 X-3.755 Y43.316
G1 F2400 X-6.581 Y43.316 E2756.00179
G0 F18000 X-6.499 Y43.678
G1 F2400 X-6.499 Y6.822 E2758.30023
G0 F18000 X-6.178 Y6.664
G1 F2400 X-5.343 Y6.664 E2758.35224
G0 F18000 X-5.499 Y6.329
G1 F2400 X-5.499 Y43.546 E2760.6732
G0 F18000 X-5.628 Y43.562
G1 F2400 X-5.766 Y43.207 E2760.69811
G1 X-5.936 Y43.602 E2760.72496
G0 F18000 X-5.999 Y43.612
G1 F2400 X-5.999 Y6.575 E2763.03469
G0 F18000 X-5.861 Y6.507
G1 F2400 X-5.808 Y6.893 E2763.05771
G1 X-5.609 Y6.384 E2763.09177
G0 F18000 X-4.999 Y5.982
G1 F2400 X-4.999 Y43.48 E2765.43025
G0 F18000 X-4.499 Y43.414
G1 F2400 X-4.499 Y5.543 E2767.79199
G0 F18000 X-4.496 Y5.54
G1 F2400 X-4.307 Y5.866 E2767.81546
G0 F18000 X-6.999 Y7.069
G1 F2400 X-6.999 Y43.744 E2770.10261
G0 F18000 X-7.416 Y43.798
G1 F2400 X-7.701 Y43.462 E2770.1276
G1 X-8.018 Y43.876 E2770.16015
G0 F18000 X-7.999 Y43.875
G1 F2400 X-7.999 Y7.27 E2772.44294
G0 F18000 X-8.051 Y7.28
G1 F2400 X-8.297 Y7.707 E2772.47371
G0 F18000 X-8.5 Y7.369
G1 F2400 X-8.499 Y43.941 E2774.75444
G0 F18000 X-8.999 Y44.007
G1 F2400 X-8.999 Y7.447 E2777.03442
G0 F18000 X-9.173 Y7.435
G1 F2400 X-8.95 Y7.821 E2777.06219
G0 F18000 X-9.5 Y7.414
G1 F2400 X-9.499 Y44.049 E2779.34685
G0 F18000 X-9.204 Y44.033
G1 F2400 X-9.603 Y43.661 E2779.37178
G1 X-10.003 Y43.981 E2779.40378
G0 F18000 X-9.999 Y43.983
G1 F2400 X-10 Y7.381 E2781.68638
G0 F18000 X-10.031 Y7.379
G1 F2400 X-10.238 Y7.737 E2781.7122
G0 F18000 X-10.5 Y7.348
G1 F2400 X-10.499 Y43.917 E2783.99274
G0 F18000 X-10.999 Y43.851
G1 F2400 X-11 Y7.277 E2786.2736
G0 F18000 X-11.233 Y7.199
G1 F2400 X-10.952 Y7.685 E2786.30858
G0 F18000 X-11.5 Y7.108
G1 F2400 X-11.499 Y43.785 E2788.59586
G0 F18000 X-11.253 Y43.816
G1 F2400 X-11.538 Y43.406 E2788.62491
G1 X-11.79 Y43.746 E2788.65134
G0 F18000 X-11.999 Y43.719
G1 F2400 X-12 Y6.939 E2790.94504
G0 F18000 X-11.75 Y7.023
G1 F2400 X-11.938 Y7.35 E2790.9686
G0 F18000 X-12.5 Y6.769
G1 F2400 X-12.499 Y43.653 E2793.26878
G0 F18000 X-12.232 Y43.316
G1 F2400 X-15.058 Y43.316 E2793.44508
G0 F18000 X-14.999 Y43.324
G1 F2400 X-15 Y4.849 E2795.84449
G0 F18000 X-14.87 Y4.998
G1 F2400 X-15.362 Y4.998 E2795.87524
G0 F18000 X-15.5 Y4.279
G1 F2400 X-15.499 Y43.258 E2798.30607
G0 F18000 X-15.417 Y43.268
G1 F2400 X-15.649 Y42.865 E2798.3351
G0 F18000 X-15.999 Y43.192
G1 F2400 X-16 Y3.362 E2800.81901
G0 F18000 X-16.015 Y3.332
G1 F2400 X-16.076 Y3.623 E2800.8448
G1 X-15.949 Y4.301 E2800.88781
G0 F18000 X-14.603 Y5.301
G1 F2400 X-14.798 Y5.64 E2800.91223
G0 F18000 X-14.5 Y5.419
G1 F2400 X-14.499 Y43.39 E2803.28021
G0 F18000 X-13.999 Y43.456
G1 F2400 X-14 Y5.836 E2805.62629
G0 F18000 X-13.908 Y5.897
G1 F2400 X-13.472 Y6.631 E2805.67822
G1 X-13.269 Y6.323 E2805.70119
G0 F18000 X-13.5 Y6.17
G1 F2400 X-13.499 Y43.522 E2808.03057
G0 F18000 X-13.578 Y43.511
G1 F2400 X-13.472 Y43.151 E2808.0555
G1 X-13.335 Y43.542 E2808.08131
G0 F18000 X-12.999 Y43.587
G1 F2400 X-13 Y6.503 E2810.39397
G0 F18000 X-12.759 Y6.664
G1 F2400 X-13.425 Y6.664 E2810.43557
G0 F18000 X-16.5 Y2.262
G1 F2400 X-16.499 Y43.126 E2812.98396
G0 F18000 X-15.366 Y43.274
G1 F2400 X-15.166 Y42.929 E2813.0088
G0 F18000 X-7.499 Y43.81
G1 F2400 X-7.499 Y7.17 E2815.29377
G0 F18000 X-7.412 Y7.152
G1 F2400 X-7.217 Y7.491 E2815.31813
G0 F18000 X-6.124 Y6.233
G0 X-5.396 Y6.008
G0 X-3.98 Y4.764
G0 X-2.159 Y1.666
G0 X-2.159 Y1.666
G1 F2400 X-1.768 Y1.666 E2815.34245
G0 F18000 X-1.652 Y0.47
G1 F2400 X-1.989 Y-0.053 E2815.384
G1 X-1.622 Y0 E2815.40706
G0 F18000 X-1.82 Y-1.666
G1 F2400 X-2.198 Y-1.665 E2815.43069
G0 F18000 X-3.311 Y-4.259
G1 F2400 X-3.116 Y-4.597 E2815.45505
G0 F18000 X-4.472 Y-5.581
G1 F2400 X-4.284 Y-5.907 E2815.47854
G0 F18000 X-4.5 Y-5.607
G1 F2400 X-4.5 Y-43.395 E2817.83517
G0 F18000 X-5 Y-43.46
G1 F2400 X-5 Y-5.941 E2820.17489
G0 F18000 X-5.5 Y-6.275
G1 F2400 X-5.5 Y-43.526 E2822.49803
G0 F18000 X-5.639 Y-43.544
G1 F2400 X-5.765 Y-43.188 E2822.52291
G1 X-5.924 Y-43.581 E2822.54943
G0 F18000 X-6 Y-43.592
G1 F2400 X-6 Y-6.61 E2824.85566
G0 F18000 X-6.081 Y-6.664
G1 F2400 X-5.543 Y-6.749 E2824.89718
G1 X-5.716 Y-6.42 E2824.92024
G1 X-5.982 Y-7.029 E2824.96177
G0 F18000 X-6.5 Y-6.814
G1 F2400 X-6.5 Y-43.658 E2827.25952
G0 F18000 X-1.76 Y-43.033
G1 F2400 X-1.527 Y-42.63 E2827.28847
G0 F18000 X-1.5 Y-42.999
G1 F2400 X-1.499 Y43.019 E2832.65272
G0 F18000 X-1.772 Y43.053
G1 F2400 X-1.539 Y42.651 E2832.68167
G0 F18000 X-0.999 Y42.953
G1 F2400 X-1 Y-42.933 E2838.03776
G0 F18000 X-0.5 Y-42.868
G1 F2400 X-0.499 Y42.887 E2843.38561
G0 F18000 X-0.265 Y42.855
G1 F2400 X-0.464 Y42.51 E2843.41048
G0 F18000 X0 Y42.821
G1 F2400 X0 Y-42.802 E2848.75017
G0 F18000 X-0.276 Y-42.837
G1 F2400 X-0.077 Y-42.624 E2848.77499
G1 X0.553 Y-42.356 E2848.8176
G0 F18000 X0.499 Y-42.736
G1 F2400 X0.5 Y42.755 E2854.14899
G0 F18000 X0.309 Y42.779
G1 F2400 X0.541 Y42.377 E2854.17794
G0 F18000 X1 Y42.689
G1 F2400 X0.999 Y-42.67 E2859.50116
G0 F18000 X1.499 Y-42.604
G1 F2400 X1.5 Y42.623 E2864.81609
G0 F18000 X1.521 Y42.62
G1 F2400 X1.322 Y42.275 E2864.84093
G0 F18000 X2 Y42.555
G1 F2400 X1.999 Y-42.537 E2870.1475
G0 F18000 X1.511 Y-42.601
G1 F2400 X1.312 Y-42.257 E2870.17223
G0 F18000 X2.491 Y-42.332
G1 F2400 X2.867 Y-41.777 E2870.20997
G1 X3.127 Y-42.068 E2870.23436
G0 F18000 X2.999 Y-42.122
G1 F2400 X3 Y42.141 E2875.48917
G0 F18000 X3.136 Y42.084
G1 F2400 X2.865 Y41.797 E2875.5123
G1 X2.477 Y42.356 E2875.55474
G0 F18000 X2.5 Y42.348
G1 F2400 X2.499 Y-42.329 E2880.83543
G0 F18000 X3.176 Y-41.65
G1 F2400 X4.14 Y-41.65 E2880.89555
G0 F18000 X3.999 Y-41.708
G1 F2400 X4 Y41.727 E2886.09872
G0 F18000 X4.185 Y41.65
G1 F2400 X3.222 Y41.65 E2886.15878
G0 F18000 X3.5 Y41.934
G1 F2400 X3.499 Y-41.915 E2891.38783
G0 F18000 X4.499 Y-41.501
G1 F2400 X4.5 Y41.52 E2896.56519
G0 F18000 X4.689 Y41.441
G1 F2400 X4.503 Y41.119 E2896.58838
G0 F18000 X5 Y41.313
G1 F2400 X4.999 Y-41.294 E2901.73998
G0 F18000 X5.019 Y-41.285
G1 F2400 X5.323 Y-40.759 E2901.77781
G0 F18000 X5.499 Y-41.087
G1 F2400 X5.5 Y41.106 E2906.90353
G0 F18000 X5.308 Y40.784
G1 F2400 X5.005 Y41.309 E2906.94133
G0 F18000 X6 Y40.898
G1 F2400 X5.999 Y-40.88 E2912.04123
G0 F18000 X6.232 Y-40.782
G1 F2400 X6.046 Y-40.46 E2912.06437
G0 F18000 X6.499 Y-40.673
G1 F2400 X6.5 Y40.691 E2917.13839
G0 F18000 X6.241 Y40.798
G1 F2400 X6.055 Y40.476 E2917.16158
G0 F18000 X7 Y40.484
G1 F2400 X6.999 Y-40.466 E2922.20985
G0 F18000 X7.197 Y-39.984
G1 F2400 X8.162 Y-39.984 E2922.27003
G0 F18000 X7.999 Y-40.052
G1 F2400 X8 Y40.07 E2927.26659
G0 F18000 X7.793 Y40.154
G1 F2400 X7.722 Y39.784 E2927.28976
G1 X7.534 Y40.262 E2927.32179
G0 F18000 X7.5 Y40.277
G1 F2400 X7.499 Y-40.259 E2932.34424
G0 F18000 X7.548 Y-40.238
G1 F2400 X7.725 Y-39.764 E2932.38203
G1 X7.785 Y-40.14 E2932.40584
G0 F18000 X8.499 Y-39.844
G1 F2400 X8.5 Y39.863 E2937.37652
G0 F18000 X8.208 Y39.984
G1 F2400 X7.243 Y39.984 E2937.4367
G0 F18000 X9 Y39.656
G1 F2400 X8.999 Y-39.637 E2942.38163
G0 F18000 X9.337 Y-39.496
G1 F2400 X9.15 Y-39.173 E2942.40486
G0 F18000 X9.499 Y-39.43
G1 F2400 X9.5 Y39.449 E2947.3239
G0 F18000 X9.346 Y39.512
G1 F2400 X9.159 Y39.189 E2947.34718
G0 F18000 X10 Y39.242
G1 F2400 X9.999 Y-39.223 E2952.24047
G0 F18000 X10.076 Y-39.19
G1 F2400 X10.542 Y-38.596 E2952.27838
G1 X10.89 Y-38.854 E2952.30544
G0 F18000 X10.999 Y-38.809
G1 F2400 X11 Y38.828 E2957.14703
G0 F18000 X10.898 Y38.869
G1 F2400 X10.539 Y38.617 E2957.17023
G1 X10.062 Y39.215 E2957.21793
G0 F18000 X10.5 Y39.035
G1 F2400 X10.499 Y-39.016 E2962.08541
G0 F18000 X11.217 Y-38.318
G1 F2400 X12.185 Y-38.318 E2962.14577
G0 F18000 X11.999 Y-38.395
G1 F2400 X12 Y38.414 E2966.93573
G0 F18000 X12.231 Y38.318
G1 F2400 X11.263 Y38.318 E2966.9961
G0 F18000 X11.5 Y38.621
G1 F2400 X11.499 Y-38.602 E2971.81194
G0 F18000 X12.442 Y-38.211
G1 F2400 X12.255 Y-37.887 E2971.83521
G0 F18000 X12.499 Y-38.188
G1 F2400 X12.5 Y38.206 E2976.59929
G0 F18000 X12.451 Y38.225
G1 F2400 X12.427 Y38.034 E2976.6226
G1 X13.065 Y37.345 E2976.68116
G0 F18000 X13.5 Y37.48
G1 F2400 X13.499 Y-37.462 E2981.35475
G0 F18000 X13.8 Y-37.231
G1 F2400 X13.778 Y-36.779 E2981.37807
G1 X14.555 Y-36.652 E2981.42716
G0 F18000 X14.499 Y-36.695
G1 F2400 X14.5 Y36.713 E2986.00502
G0 F18000 X14.58 Y36.652
G1 F2400 X13.794 Y36.785 E2986.0431
G1 X13.807 Y37.243 E2986.07167
G0 F18000 X14 Y37.097
G1 F2400 X13.999 Y-37.078 E2990.69743
G0 F18000 X13.086 Y-37.309
G1 F2400 X12.604 Y-38.144 E2990.75761
G0 F18000 X12.999 Y-37.846
G1 F2400 X13 Y37.864 E2995.47903
G0 F18000 X15 Y36.33
G1 F2400 X14.999 Y-36.311 E3000.00913
G0 F18000 X15.133 Y-36.208
G1 F2400 X14.946 Y-35.883 E3000.03246
G0 F18000 X15.499 Y-35.927
G1 F2400 X15.5 Y35.946 E3004.51459
G0 F18000 X15.141 Y36.221
G1 F2400 X14.954 Y35.897 E3004.53792
G0 F18000 X16 Y35.562
G1 F2400 X15.999 Y-35.544 E3008.97229
G0 F18000 X16.053 Y-35.502
G1 F2400 X16.408 Y-34.759 E3009.03282
G1 X16.466 Y-35.185 E3009.05969
G0 F18000 X16.499 Y-35.16
G1 F2400 X16.5 Y35.179 E3013.44616
G0 F18000 X16.474 Y35.198
G1 F2400 X16.213 Y34.929 E3013.46958
G1 X16.751 Y34.986 E3013.50332
G0 F18000 X17 Y34.795
G1 F2400 X16.999 Y-34.776 E3017.84196
G0 F18000 X16.726 Y-34.986
G1 F2400 X16.116 Y-34.986 E3017.88
G0 F18000 X17.499 Y-34.393
G1 F2400 X17.5 Y34.411 E3022.17075
G0 F18000 X17.807 Y34.175
G1 F2400 X17.62 Y33.851 E3022.19408
G0 F18000 X18 Y34.028
G1 F2400 X17.999 Y-34.009 E3026.43705
G0 F18000 X17.799 Y-34.161
G1 F2400 X17.949 Y-33.578 E3026.46029
G1 X18.898 Y-33.32 E3026.5216
G0 F18000 X18.999 Y-33.241
G1 F2400 X19 Y33.26 E3030.66873
G0 F18000 X18.922 Y33.32
G1 F2400 X18.313 Y33.32 E3030.7067
G0 F18000 X18.5 Y33.644
G1 F2400 X18.499 Y-33.625 E3034.90178
G0 F18000 X19.133 Y-33.139
G1 F2400 X18.945 Y-32.814 E3034.92515
G0 F18000 X19.499 Y-32.858
G1 F2400 X19.5 Y32.877 E3039.0245
G0 F18000 X19.487 Y32.886
G1 F2400 X20.129 Y31.924 E3039.08494
G1 X20.473 Y32.129 E3039.10991
G0 F18000 X20.5 Y32.108
G1 F2400 X20.499 Y-32.09 E3043.11348
G0 F18000 X20.466 Y-32.116
G1 F2400 X20.368 Y-31.722 E3043.13677
G1 X21.069 Y-31.654 E3043.18068
G0 F18000 X20.999 Y-31.707
G1 F2400 X21 Y31.725 E3047.13641
G0 F18000 X21.094 Y31.654
G1 F2400 X20.484 Y31.654 E3047.17445
G0 F18000 X20 Y32.492
G1 F2400 X19.999 Y-32.474 E3051.22591
G0 F18000 X19.993 Y-32.01
G1 F2400 X19.507 Y-32.851 E3051.28654
G0 F18000 X21.499 Y-31.323
G1 F2400 X21.5 Y31.341 E3055.19438
G0 F18000 X21.795 Y31.087
G1 F2400 X21.594 Y30.738 E3055.2195
G0 F18000 X22 Y30.818
G1 F2400 X21.999 Y-30.8 E3059.06216
G0 F18000 X21.788 Y-31.074
G1 F2400 X21.871 Y-30.357 E3059.08716
G1 X22.623 Y-29.988 E3059.13937
G0 F18000 X22.499 Y-30.149
G1 F2400 X22.5 Y30.166 E3062.90071
G0 F18000 X22.638 Y29.988
G1 F2400 X22.531 Y29.821 E3062.92993
G1 X22.691 Y29.307 E3062.9635
G0 F18000 X23 Y29.515
G1 F2400 X22.999 Y-29.497 E3066.64365
G0 F18000 X22.886 Y-29.644
G1 F2400 X22.685 Y-29.296 E3066.66866
G0 F18000 X23.499 Y-28.845
G1 F2400 X23.5 Y28.863 E3070.26743
G0 F18000 X23.448 Y28.322
G1 F2400 X23.953 Y28.273 E3070.2966
G1 X23.789 Y27.876 E3070.32339
G0 F18000 X24 Y28.211
G1 F2400 X23.999 Y-28.193 E3073.8409
G0 F18000 X23.984 Y-28.213
G1 F2400 X23.842 Y-28.093 E3073.86592
G1 X23.434 Y-28.322 E3073.89513
G0 F18000 X24.488 Y-27.556
G1 F2400 X25.91 Y-25.094 E3074.07238
G0 F18000 X25.978 Y-25.004
G1 F2400 X26.179 Y-25.352 E3074.0975
G0 F18000 X25.999 Y-25.587
G1 F2400 X26 Y25.605 E3077.28991
G0 F18000 X26.186 Y25.363
G1 F2400 X25.994 Y25.002 E3077.31505
G1 X26.473 Y24.99 E3077.34493
G0 F18000 X26.5 Y24.953
G1 F2400 X26.499 Y-24.935 E3080.45609
G0 F18000 X26.458 Y-24.99
G1 F2400 X25.991 Y-24.99 E3080.48521
G0 F18000 X26.999 Y-24.283
G1 F2400 X27 Y24.301 E3083.51498
G0 F18000 X27.283 Y23.932
G1 F2400 X27.182 Y23.454 E3083.53996
G1 X27.752 Y23.324 E3083.57642
G0 F18000 X28 Y22.998
G1 F2400 X27.999 Y-22.98 E3086.44374
G0 F18000 X27.737 Y-23.324
G1 F2400 X27.172 Y-23.449 E3086.47291
G1 X27.277 Y-23.921 E3086.50312
G0 F18000 X27.499 Y-23.631
G1 F2400 X27.5 Y23.65 E3089.45163
G0 F18000 X28.381 Y22.502
G1 F2400 X28.18 Y22.153 E3089.47675
G0 F18000 X28.5 Y22.346
G1 F2400 X28.499 Y-22.328 E3092.26274
G0 F18000 X28.374 Y-22.49
G1 F2400 X28.331 Y-21.9 E3092.28764
G1 X28.888 Y-21.658 E3092.32549
G0 F18000 X28.999 Y-21.387
G1 F2400 X29 Y21.404 E3094.99399
G0 F18000 X28.896 Y21.658
G1 F2400 X28.496 Y21.658 E3095.01894
G0 F18000 X29.28 Y20.727
G1 F2400 X29.117 Y20.158 E3095.04795
G1 X29.586 Y19.992 E3095.07898
G0 F18000 X29.5 Y20.196
G1 F2400 X29.499 Y-20.18 E3097.59693
G0 F18000 X29.578 Y-19.992
G1 F2400 X29.11 Y-20.154 E3097.62191
G1 X29.276 Y-20.719 E3097.65869
G0 F18000 X29.999 Y-18.973
G1 F2400 X30 Y18.988 E3100.02598
G0 F18000 X30.083 Y18.786
G1 F2400 X29.864 Y18.354 E3100.05492
G1 X30.275 Y18.325 E3100.08061
G0 F18000 X30.026 Y17.964
G1 F2400 X31.43 Y15.532 E3100.25574
G0 F18000 X31.5 Y15.364
G1 F2400 X31.499 Y-15.352 E3102.17127
G0 F18000 X31.411 Y-15.566
G1 F2400 X29.994 Y-18.02 E3102.34804
G0 F18000 X29.868 Y-18.326
G1 F2400 X30.057 Y-18.35 E3102.37306
G1 X30.079 Y-18.78 E3102.39997
G0 F18000 X30.499 Y-17.766
G1 F2400 X30.5 Y17.78 E3104.61666
G0 F18000 X30.886 Y16.845
G1 F2400 X30.611 Y16.551 E3104.64548
G1 X30.964 Y16.659 E3104.6685
G0 F18000 X31 Y16.572
G1 F2400 X30.999 Y-16.559 E3106.73464
G0 F18000 X30.958 Y-16.66
G1 F2400 X30.603 Y-16.547 E3106.75962
G1 X30.883 Y-16.839 E3106.78489
G0 F18000 X31.247 Y-14.994
G1 F2400 X31.667 Y-14.946 E3106.80993
G1 X31.453 Y-14.495 E3106.841
G0 F18000 X32 Y-14.145
G1 F2400 X32 Y14.156 E3108.60587
G0 F18000 X31.459 Y14.505
G1 F2400 X31.672 Y14.948 E3108.63462
G1 X31.258 Y14.993 E3108.66059
G0 F18000 X31.948 Y13.327
G1 F2400 X32.417 Y13.145 E3108.68519
G1 X32.263 Y12.565 E3108.72261
G0 F18000 X32.5 Y12.948
G1 F2400 X32.5 Y-12.937 E3110.33687
G0 F18000 X32.49 Y-12.959
G1 F2400 X32.297 Y-12.941 E3110.36597
G1 X31.937 Y-13.328 E3110.39898
G0 F18000 X32.627 Y-11.662
G1 F2400 X33.028 Y-11.662 E3110.42398
G0 F18000 X33 Y-11.73
G1 F2400 X33 Y11.74 E3111.88758
G0 F18000 X33.033 Y11.661
G1 F2400 X32.924 Y11.267 E3111.91215
G1 X32.932 Y10.172 E3111.94971
G1 X33.178 Y9.712 E3111.97287
G1 X33.51 Y8.597 E3112.04542
G0 F18000 X33.5 Y8.683
G1 F2400 X33.5 Y-8.6 E3113.12324
G0 F18000 X33.496 Y-8.622
G1 F2400 X32.989 Y-9.717 E3113.18198
G1 X33.11 Y-10.172 E3113.20458
G1 X33.2 Y-10.856 E3113.24766
G0 F18000 X33.171 Y-8.33
G1 F2400 X33.547 Y-8.238 E3113.27044
G1 X33.325 Y-7.147 E3113.30748
G1 X33.757 Y-6.664 E3113.34785
G0 F18000 X33.919 Y-5.437
G1 F2400 X33.612 Y-4.956 E3113.38544
G1 X33.978 Y-4.998 E3113.40842
G0 F18000 X34 Y-4.835
G1 F2400 X34 Y4.887 E3114.01465
G0 F18000 X33.986 Y4.997
G1 F2400 X33.617 Y4.96 E3114.03796
G1 X33.761 Y5.281 E3114.07583
G1 X34.142 Y3.805 E3114.13591
G1 X34.057 Y3.033 E3114.15916
G1 X34.015 Y1.937 E3114.19692
G1 X34.424 Y1.665 E3114.22755
G0 F18000 X34.5 Y1.091
G1 F2400 X34.5 Y-1.071 E3114.36238
G0 F18000 X34.152 Y-0.821
G1 F2400 X34.64 Y0.011 E3114.42296
G1 X34.449 Y-0.01 E3114.44673
G1 X34.164 Y0.801 E3114.50028
G0 F18000 X34.043 Y-1.666
G1 F2400 X34.196 Y-1.932 E3114.52388
G1 X34.239 Y-3.03 E3114.56202
G1 X33.948 Y-3.813 E3114.58538
G1 X33.589 Y-5.129 E3114.67051
G0 F18000 X33.766 Y6.663
G1 F2400 X33.329 Y7.15 E3114.69369
G1 X33.557 Y8.245 E3114.73136
G1 X33.175 Y8.329 E3114.75575
G0 F18000 X25.866 Y25.169
G1 F2400 X24.442 Y27.636 E3114.93339
G0 F18000 X24.5 Y27.56
G1 F2400 X24.499 Y-27.542 E3118.3697
G0 F18000 X24.999 Y-26.89
G1 F2400 X25 Y26.908 E3121.72463
G0 F18000 X25.088 Y26.794
G1 F2400 X24.806 Y26.55 E3121.74979
G1 X25.195 Y26.656 E3121.77493
G0 F18000 X25.5 Y26.256
G1 F2400 X25.499 Y-26.238 E3125.04861
G0 F18000 X25.18 Y-26.656
G1 F2400 X24.796 Y-26.545 E3125.0778
G1 X25.081 Y-26.783 E3125.101
G0 F18000 X4.494 Y-41.103
G1 F2400 X4.68 Y-41.426 E3125.12429
G0 F18000 X-16.649 Y-1.665
G1 F2400 X-16.897 Y-1.315 E3125.14868
G1 X-17.181 Y-0.121 E3125.20069
G1 X-17.01 Y0.096 E3125.2239
G1 X-16.689 Y1.312 E3125.27895
G1 X-16.772 Y1.837 E3125.30243
G1 X-16.83 Y2.495 E3125.34362
G0 F18000 X-42.265 Y28.322
G1 F2400 X-42.732 Y28.322 E3125.37281
G0 F18000 X-31.394 Y37.717
G1 F2400 X-31.582 Y38.042 E3125.39626
G0 F18000 X-28.502 Y39.371
G1 F2400 X-28.315 Y39.047 E3125.41955
G0 F18000 X-26.95 Y40.014
G1 F2400 X-26.763 Y39.691 E3125.4428
G0 F18000 X-4.04 Y42.98
G1 F2400 X-3.84 Y43.327 E3125.46774
G0 F18000 X16.034 Y35.536
G1 F2400 X16.519 Y34.695 E3125.52829
G0 F18000 X19.14 Y33.153
G1 F2400 X18.953 Y32.828 E3125.55167
; LAYER:4
G0 F18000 X-5.366 Y6.052 Z1.5
; TYPE:WALL-INNER
G1 F2400 X-3.94 Y4.8 E3125.66997
G1 X-2.886 Y3.221 E3125.78832
G1 X-2.277 Y1.424 E3125.90663
G1 X-2.153 Y-0.467 E3126.02481
G1 X-2.524 Y-2.328 E3126.14322
G1 X-3.364 Y-4.031 E3126.26173
G1 X-4.615 Y-5.456 E3126.38007
G1 X-6.193 Y-6.511 E3126.49853
G1 X-7.991 Y-7.12 E3126.61699
G1 X-9.885 Y-7.243 E3126.73542
G1 X-11.745 Y-6.872 E3126.85375
G1 X-13.447 Y-6.033 E3126.97212
G1 X-14.874 Y-4.781 E3127.09051
G1 X-15.928 Y-3.202 E3127.20889
G1 X-16.537 Y-1.405 E3127.32718
G1 X-16.661 Y0.487 E3127.44536
G1 X-16.289 Y2.347 E3127.56364
G1 X-15.45 Y4.049 E3127.68195
G1 X-14.199 Y5.476 E3127.80026
G1 X-12.62 Y6.53 E3127.9186
G1 X-10.822 Y7.139 E3128.03692
G1 X-8.929 Y7.262 E3128.15516
G1 X-7.068 Y6.891 E3128.27344
G1 X-5.366 Y6.052 E3128.39172
G0 F18000 X12.712 Y38.325
G1 F2400 X2.043 Y42.744 E3129.11189
G1 X-9.407 Y44.252 E3129.83211
G1 X-20.859 Y42.744 E3130.55251
G1 X-31.53 Y38.324 E3131.27287
G1 X-40.727 Y31.248 E3131.99658
G1 X-47.723 Y22.13 E3132.71333
G1 X-52.142 Y11.46 E3133.43358
G1 X-53.65 Y0.009 E3134.15387
G1 X-52.142 Y-11.441 E3134.87408
G1 X-47.723 Y-22.11 E3135.59428
G1 X-40.692 Y-31.274 E3136.31461
G1 X-31.528 Y-38.306 E3137.03495
G1 X-20.859 Y-42.725 E3137.75508
G1 X-9.407 Y-44.232 E3138.47536
G1 X2.043 Y-42.725 E3139.19551
G1 X12.712 Y-38.306 E3139.91564
G1 X21.876 Y-31.274 E3140.63596
G1 X28.907 Y-22.11 E3141.35624
G1 X33.305 Y-11.494 E3142.07278
G1 X34.834 Y0.006 E3142.79621
G1 X33.33 Y11.439 E3143.51534
G1 X28.907 Y22.13 E3144.23687
G1 X21.876 Y31.293 E3144.95714
G1 X12.712 Y38.325 E3145.6775
G0 F18000 X-5.418 Y5.896
G0 X-5.418 Y5.896
G0 X-5.647 Y5.633
; TYPE:WALL-OUTER
G1 F2100 X-4.319 Y4.467 E3145.78766
G1 X-3.339 Y2.998 E3145.89775
G1 X-2.772 Y1.326 E3146.00783
G1 X-2.656 Y-0.434 E3146.11783
G1 X-3.001 Y-2.166 E3146.22803
G1 X-3.783 Y-3.75 E3146.33828
G1 X-4.948 Y-5.077 E3146.44849
G1 X-6.416 Y-6.058 E3146.55869
G1 X-8.089 Y-6.625 E3146.66893
G1 X-9.852 Y-6.74 E3146.77917
G1 X-11.583 Y-6.395 E3146.8893
G1 X-13.167 Y-5.614 E3146.99946
G1 X-14.495 Y-4.448 E3147.10968
G1 X-15.475 Y-2.979 E3147.21978
G1 X-16.042 Y-1.307 E3147.32985
G1 X-16.158 Y0.454 E3147.43985
G1 X-15.812 Y2.185 E3147.54992
G1 X-15.031 Y3.769 E3147.66003
G1 X-13.866 Y5.097 E3147.77016
G1 X-12.397 Y6.077 E3147.88023
G1 X-10.724 Y6.644 E3147.99034
G1 X-8.962 Y6.759 E3148.10039
G1 X-7.23 Y6.414 E3148.21046
G1 X-5.647 Y5.633 E3148.32049
G1 F6600 E3141.52049
G1 Z1.8
G0 F18000 X-5.418 Y5.896
G0 X12.792 Y38.454
G0 X12.792 Y38.454
G0 X12.967 Y38.761
G1 Z1.5
G1 F6600 E3148.32049
G1 F2100 X2.173 Y43.231 E3149.04907
G1 X-9.407 Y44.757 E3149.77748
G1 X-20.989 Y43.231 E3150.50606
G1 X-31.783 Y38.761 E3151.2347
G1 X-41.086 Y31.602 E3151.96681
G1 X-48.159 Y22.385 E3152.69139
G1 X-52.629 Y11.59 E3153.42005
G1 X-54.155 Y0.009 E3154.14852
G1 X-52.629 Y-11.571 E3154.87692
G1 X-48.159 Y-22.365 E3155.60553
G1 X-41.049 Y-31.631 E3156.33391
G1 X-31.783 Y-38.742 E3157.0623
G1 X-20.989 Y-43.212 E3157.79085
G1 X-9.407 Y-44.737 E3158.51932
G1 X2.173 Y-43.212 E3159.24764
G1 X12.967 Y-38.742 E3159.9762
G1 X22.233 Y-31.631 E3160.70457
G1 X29.343 Y-22.365 E3161.43288
G1 X33.791 Y-11.627 E3162.15765
G1 X35.339 Y0.009 E3162.88964
G1 X33.817 Y11.568 E3163.61671
G1 X29.343 Y22.385 E3164.34671
G1 X22.233 Y31.65 E3165.07503
G1 X12.967 Y38.761 E3165.80343
G0 F18000 X12.59 Y38.167
; TYPE:FILL
G1 F2400 X13.065 Y37.345 E3165.86264
G0 F18000 X13.475 Y37.5
G1 F2400 X-32.289 Y37.5 E3168.71661
G0 F18000 X-32.154 Y37.603
G1 F2400 X-32.683 Y36.727 E3168.77727
G1 X-32.914 Y37.018 E3168.80048
G0 F18000 X-32.94 Y37
G1 F2400 X14.126 Y37 E3171.73558
G0 F18000 X13.969 Y36.652
G1 F2400 X14.58 Y36.652 E3171.77368
G0 F18000 X14.778 Y36.5
G1 F2400 X-33.59 Y36.5 E3174.79004
G0 F18000 X-33.392 Y36.652
G1 F2400 X-32.784 Y36.652 E3174.8279
G0 F18000 X-34.239 Y36
G1 F2400 X15.429 Y36 E3177.92527
G0 F18000 X15.141 Y36.221
G1 F2400 X14.954 Y35.897 E3177.9486
G0 F18000 X16.034 Y35.536
G1 F2400 X16.402 Y34.784 E3178.00906
G1 X16.474 Y35.198 E3178.03526
G0 F18000 X16.733 Y35
G1 F2400 X-35.539 Y35 E3181.29509
G0 F18000 X-35.557 Y34.986
G1 F2400 X-34.953 Y34.986 E3181.33269
G0 F18000 X-34.889 Y35.5
G1 F2400 X16.081 Y35.5 E3184.51126
G0 F18000 X16.141 Y34.986
G1 F2400 X16.751 Y34.986 E3184.5493
G0 F18000 X17.384 Y34.5
G1 F2400 X-36.189 Y34.5 E3187.89026
G0 F18000 X-36.095 Y34.108
G1 F2400 X-35.596 Y34.954 E3187.95014
G1 X-35.393 Y34.647 E3187.97306
G0 F18000 X-36.839 Y34
G1 F2400 X18.036 Y34 E3191.39515
G0 F18000 X17.807 Y34.175
G1 F2400 X17.966 Y33.585 E3191.41847
G1 X19.031 Y33.236 E3191.45635
G1 X18.953 Y32.828 E3191.48226
G0 F18000 X19.339 Y33
G1 F2400 X-38.138 Y33 E3195.06668
G0 F18000 X-38.242 Y32.918
G1 F2400 X-38.059 Y32.6 E3195.08953
G0 F18000 X-38.788 Y32.5
G1 F2400 X19.991 Y32.5 E3198.75509
G0 F18000 X19.972 Y32.045
G1 F2400 X19.487 Y32.886 E3198.81563
G0 F18000 X18.688 Y33.5
G1 F2400 X-37.488 Y33.5 E3202.31892
G0 F18000 X-37.722 Y33.32
G1 F2400 X-36.924 Y33.471 E3202.35625
G1 X-36.911 Y33.944 E3202.38576
G0 F18000 X-39.075 Y32.278
G1 F2400 X-39.471 Y31.516 E3202.44492
G1 X-39.575 Y31.894 E3202.46938
G0 F18000 X-39.438 Y32
G1 F2400 X20.643 Y32 E3206.21614
G0 F18000 X20.473 Y32.129
G1 F2400 X20.385 Y31.729 E3206.23948
G1 X21.094 Y31.654 E3206.28394
G0 F18000 X21.294 Y31.5
G1 F2400 X-40.088 Y31.5 E3210.11189
G0 F18000 X-39.888 Y31.654
G1 F2400 X-39.292 Y31.654 E3210.149
G0 F18000 X-40.678 Y31
G1 F2400 X21.861 Y31 E3214.04904
G0 F18000 X21.795 Y31.087
G1 F2400 X21.594 Y30.738 E3214.07416
G0 F18000 X22.245 Y30.5
G1 F2400 X-41.062 Y30.5 E3218.02216
G0 F18000 X-40.851 Y30.773
G1 F2400 X-40.818 Y30.206 E3218.04709
G1 X-41.454 Y29.988 E3218.08908
G0 F18000 X-41.445 Y30
G1 F2400 X22.629 Y30 E3222.08485
G0 F18000 X22.638 Y29.988
G1 F2400 X22.531 Y29.821 E3222.11406
G1 X22.691 Y29.307 E3222.14763
G0 F18000 X23.012 Y29.5
G1 F2400 X-41.829 Y29.5 E3226.1913
G0 F18000 X-41.949 Y29.342
G1 F2400 X-41.748 Y28.994 E3226.21633
G0 F18000 X-42.212 Y29
G1 F2400 X23.396 Y29 E3230.30776
G0 F18000 X23.78 Y28.5
G1 F2400 X-42.596 Y28.5 E3234.44715
G0 F18000 X-42.733 Y28.322
G1 F2400 X-42.265 Y28.322 E3234.47627
G0 F18000 X-42.98 Y28
G1 F2400 X24.163 Y28 E3238.66343
G0 F18000 X23.99 Y28.225
G1 F2400 X23.852 Y28.099 E3238.68861
G1 X23.448 Y28.322 E3238.71738
G0 F18000 X24.442 Y27.636
G1 F2400 X25.866 Y25.169 E3238.89502
G0 F18000 X25.984 Y25.014
G1 F2400 X26.186 Y25.363 E3238.92017
G0 F18000 X26.082 Y25.5
G1 F2400 X-44.898 Y25.5 E3243.34668
G0 F18000 X-44.96 Y25.418
G1 F2400 X-46.384 Y22.951 E3243.52435
G0 F18000 X-46.139 Y23.271
G1 F2400 X-46.34 Y23.619 E3243.54944
G0 F18000 X-46.432 Y23.5
G1 F2400 X27.617 Y23.5 E3248.16728
G0 F18000 X27.752 Y23.324
G1 F2400 X27.182 Y23.454 E3248.19652
G1 X27.283 Y23.932 E3248.22699
G0 F18000 X27.233 Y24
G1 F2400 X-46.048 Y24 E3252.79699
G0 F18000 X-45.665 Y24.5
G1 F2400 X26.849 Y24.5 E3257.3191
G0 F18000 X26.473 Y24.99
G1 F2400 X26.005 Y24.99 E3257.34829
G0 F18000 X26.465 Y25
G1 F2400 X-45.281 Y25 E3261.82257
G0 F18000 X-45.289 Y24.99
G1 F2400 X-44.931 Y24.845 E3261.85169
G1 X-45.242 Y25.049 E3261.87494
G0 F18000 X-44.514 Y26
G1 F2400 X25.698 Y26 E3266.25349
G0 F18000 X25.314 Y26.5
G1 F2400 X-44.13 Y26.5 E3270.58421
G0 F18000 X-44.144 Y26.481
G1 F2400 X-43.977 Y26.394 E3270.60927
G1 X-43.543 Y26.656 E3270.64083
G0 F18000 X-43.747 Y27
G1 F2400 X24.931 Y27 E3274.92372
G0 F18000 X25.088 Y26.794
G1 F2400 X24.806 Y26.55 E3274.94888
G1 X25.195 Y26.656 E3274.97402
G0 F18000 X24.547 Y27.5
G1 F2400 X-43.363 Y27.5 E3279.20908
G0 F18000 X-43.047 Y27.911
G1 F2400 X-42.846 Y27.563 E3279.23411
G0 F18000 X-46.099 Y23.324
G1 F2400 X-46.567 Y23.324 E3279.26336
G0 F18000 X-46.816 Y23
G1 F2400 X28 Y23 E3283.92902
G0 F18000 X28.381 Y22.502
G1 F2400 X28.18 Y22.153 E3283.95414
G0 F18000 X28.384 Y22.5
G1 F2400 X-47.199 Y22.5 E3288.6677
G0 F18000 X-47.437 Y22.188
G1 F2400 X-47.273 Y21.748 E3288.69281
G1 X-47.712 Y21.658 E3288.72082
G0 F18000 X-47.778 Y21.5
G1 F2400 X28.962 Y21.5 E3293.50647
G0 F18000 X28.896 Y21.658
G1 F2400 X28.496 Y21.658 E3293.53142
G0 F18000 X28.755 Y22
G1 F2400 X-47.57 Y22 E3298.29126
G0 F18000 X-47.985 Y21
G1 F2400 X29.169 Y21 E3303.10273
G0 F18000 X29.28 Y20.727
G1 F2400 X29.116 Y20.158 E3303.13168
G1 X29.586 Y19.992 E3303.16277
G0 F18000 X29.582 Y20
G1 F2400 X-48.399 Y20 E3308.02588
G0 F18000 X-48.402 Y19.992
G1 F2400 X-48.02 Y19.945 E3308.05078
G1 X-48.272 Y20.302 E3308.07806
G0 F18000 X-48.192 Y20.5
G1 F2400 X29.375 Y20.5 E3312.91529
G0 F18000 X29.789 Y19.499
G1 F2400 X-48.606 Y19.5 E3317.80422
G0 F18000 X-48.813 Y19
G1 F2400 X29.996 Y18.999 E3322.7189
G0 F18000 X30.083 Y18.786
G1 F2400 X29.864 Y18.354 E3322.74784
G1 X30.275 Y18.325 E3322.77353
G0 F18000 X30.203 Y18.499
G1 F2400 X-49.02 Y18.5 E3327.7141
G0 F18000 X-49.076 Y18.362
G1 F2400 X-48.843 Y17.959 E3327.7431
G0 F18000 X-49.183 Y18.103
G1 F2400 X-47.768 Y20.554 E3327.91956
G0 F18000 X-48.692 Y18.326
G1 F2400 X-49.092 Y18.326 E3327.94457
G0 F18000 X-49.227 Y18
G1 F2400 X30.41 Y17.999 E3332.91089
G0 F18000 X30.025 Y17.965
G1 F2400 X31.427 Y15.538 E3333.08568
G0 F18000 X31.444 Y15.499
G1 F2400 X-50.262 Y15.5 E3338.18109
G0 F18000 X-50.073 Y14.994
G1 F2400 X-50.472 Y14.994 E3338.20604
G0 F18000 X-50.469 Y15
G1 F2400 X31.651 Y14.999 E3343.32721
G0 F18000 X31.653 Y14.993
G1 F2400 X31.473 Y14.948 E3343.3519
G1 X31.459 Y14.505 E3343.37954
G0 F18000 X31.857 Y14.499
G1 F2400 X-50.676 Y14.5 E3348.52652
G0 F18000 X-50.683 Y14.482
G1 F2400 X-50.451 Y14.079 E3348.55549
G0 F18000 X-50.883 Y14
G1 F2400 X32.064 Y13.999 E3353.72823
G0 F18000 X32.271 Y13.499
G1 F2400 X-51.09 Y13.5 E3358.92685
G0 F18000 X-51.162 Y13.328
G1 F2400 X-50.763 Y13.328 E3358.95167
G0 F18000 X-51.298 Y13
G1 F2400 X32.478 Y12.999 E3364.17611
G0 F18000 X32.492 Y12.963
G1 F2400 X32.263 Y12.565 E3364.20475
G0 F18000 X32.685 Y12.499
G1 F2400 X-51.505 Y12.5 E3369.45507
G0 F18000 X-51.486 Y12.541
G1 F2400 X-51.254 Y12.14 E3369.48393
G0 F18000 X-51.712 Y12
G1 F2400 X32.892 Y11.999 E3374.76001
G0 F18000 X33.031 Y11.661
G1 F2400 X32.638 Y11.661 E3374.78451
G0 F18000 X33.098 Y11.499
G1 F2400 X-51.919 Y11.5 E3380.08641
G0 F18000 X-51.852 Y11.662
G1 F2400 X-51.453 Y11.662 E3380.11123
G0 F18000 X-52.01 Y11
G1 F2400 X33.195 Y10.999 E3385.42479
G0 F18000 X33.211 Y10.875
G1 F2400 X32.931 Y10.172 E3385.46254
G1 X33.328 Y9.995 E3385.48964
G0 F18000 X33.327 Y9.999
G1 F2400 X-52.142 Y10 E3390.81973
G0 F18000 X-52.142 Y9.996
G1 F2400 X-51.786 Y9.875 E3390.84279
G1 X-52.104 Y10.279 E3390.87489
G0 F18000 X-52.076 Y10.5
G1 F2400 X33.261 Y10.499 E3396.19668
G0 F18000 X33.393 Y9.499
G1 F2400 X-52.208 Y9.5 E3401.53499
G0 F18000 X-52.2 Y9.545
G1 F2400 X-51.719 Y10.378 E3401.59495
G0 F18000 X-52.274 Y9
G1 F2400 X33.459 Y8.999 E3406.94143
G0 F18000 X33.51 Y8.597
G1 F2400 X33.028 Y9.433 E3407.00161
G0 F18000 X33.525 Y8.499
G1 F2400 X-52.34 Y8.5 E3412.35639
G0 F18000 X-52.362 Y8.33
G1 F2400 X-51.99 Y8.33 E3412.37953
G0 F18000 X-52.406 Y8
G1 F2400 X33.59 Y7.999 E3417.74241
G0 F18000 X33.568 Y8.162
G1 F2400 X33.264 Y7.636 E3417.7803
G0 F18000 X33.656 Y7.499
G1 F2400 X-52.471 Y7.5 E3423.15141
G0 F18000 X-52.461 Y7.566
G1 F2400 X-52.159 Y7.042 E3423.1891
G0 F18000 X-52.537 Y7
G1 F2400 X-11.819 Y7 E3425.72832
G0 F18000 X-11.75 Y7.023
G1 F2400 X-11.585 Y7.274 E3425.75188
G1 X-10.595 Y7.711 E3425.78681
G1 X-9.602 Y7.407 E3425.81256
G1 X-8.623 Y7.764 E3425.84022
G1 X-7.731 Y7.216 E3425.87088
G1 X-7.217 Y7.491 E3425.90718
G0 F18000 X-6.859 Y7
G1 F2400 X33.722 Y6.999 E3428.43786
G0 F18000 X33.766 Y6.663
G1 F2400 X33.394 Y6.663 E3428.46106
G0 F18000 X33.788 Y6.499
G1 F2400 X-5.845 Y6.5 E3430.93269
G0 F18000 X-5.861 Y6.507
G1 F2400 X-5.808 Y6.893 E3430.95571
G1 X-5.476 Y6.524 E3430.99707
G1 X-6.178 Y6.664 E3431.04178
G0 F18000 X-5.019 Y6
G1 F2400 X33.854 Y5.999 E3433.46594
G0 F18000 X33.92 Y5.499
G1 F2400 X-4.45 Y5.5 E3435.8588
G0 F18000 X-4.496 Y5.54
G1 F2400 X-4.307 Y5.866 E3435.88227
G0 F18000 X-3.879 Y5
G1 F2400 X33.985 Y4.999 E3438.24351
G0 F18000 X33.986 Y4.997
G1 F2400 X33.617 Y4.96 E3438.26682
G1 X33.76 Y5.282 E3438.3047
G1 X34.079 Y4.281 E3438.37022
G0 F18000 X34.051 Y4.499
G1 F2400 X-3.51 Y4.5 E3440.71263
G0 F18000 X-3.33 Y4.227
G1 F2400 X-3.26 Y4.792 E3440.73833
G1 X-3.877 Y4.998 E3440.77895
G0 F18000 X-3.177 Y4
G1 F2400 X34.117 Y3.999 E3443.10465
G0 F18000 X34.183 Y3.499
G1 F2400 X-2.844 Y3.5 E3445.41375
G0 F18000 X-2.732 Y3.332
G1 F2400 X-2.332 Y3.332 E3445.43863
G0 F18000 X-2.611 Y3
G1 F2400 X34.249 Y2.999 E3447.73726
G0 F18000 X34.282 Y2.735
G1 F2400 X33.979 Y2.209 E3447.77512
G0 F18000 X34.315 Y2.499
G1 F2400 X-2.442 Y2.5 E3450.06739
G0 F18000 X-2.427 Y2.459
G1 F2400 X-2.181 Y2.886 E3450.09809
G0 F18000 X-2.272 Y2
G1 F2400 X34.38 Y1.999 E3452.38374
G0 F18000 X34.424 Y1.665
G1 F2400 X34.051 Y1.665 E3452.40701
G0 F18000 X34.446 Y1.499
G1 F2400 X-2.103 Y1.5 E3454.6863
G0 F18000 X-2.159 Y1.666
G1 F2400 X-1.768 Y1.666 E3454.71062
G0 F18000 X-2.059 Y1
G1 F2400 X34.512 Y0.999 E3456.99123
G0 F18000 X34.164 Y0.801
G1 F2400 X34.638 Y-0.02 E3457.05035
G0 F18000 X34.642 Y0
G1 F2400 X-1.993 Y0 E3459.33501
G0 F18000 X-1.993 Y0
G1 F2400 X-1.803 Y-0.053 E3459.3581
G1 X-1.652 Y0.47 E3459.39197
G0 F18000 X-2.026 Y0.5
G1 F2400 X34.578 Y0.499 E3461.67463
G0 F18000 X34.639 Y0.022
