; Generated with MatterSlice 1.0
; filamentDiameter = 1.75
; extrusionWidth = 0.5
; firstLayerExtrusionWidth = 0.4
; layerThickness = 0.3
; firstLayerThickness = 0.3
; automatic settings before start_gcode
G21 ; set units to millimeters
M107 ; fan off
T0 ; set the active extruder to 0
; settings from start_gcode
M104 S210
M190 S60
M109 S210
G28
; automatic settings after start_gcode
T0 ; set the active extruder to 0
G90 ; use absolute coordinates
G92 E0 ; reset the expected extruder position
M82 ; use absolute distance for extrusion
; Layer count: 350
; LAYER:0
M107
G0 F18000 X-1.091 Y-32.9 Z0.3
G0 X-1.091 Y-32.9
; TYPE:SKIRT
G1 Z0.3
G1 F6600 E0
G1 F720 X7.02 Y-29.539 E0.43796
G1 X13.985 Y-24.194 E0.87594
G1 X19.321 Y-17.239 E1.31325
G1 X22.688 Y-9.118 E1.7518
G1 X23.83 Y-0.453 E2.18779
G1 X22.692 Y8.265 E2.62637
G1 X19.344 Y16.361 E3.06346
G1 X13.994 Y23.353 E3.50269
G1 X7.02 Y28.709 E3.94139
G1 X-1.09 Y32.069 E4.37935
G1 X-9.794 Y33.215 E4.8174
G1 X-18.499 Y32.069 E5.25549
G1 X-26.61 Y28.71 E5.69352
G1 X-33.576 Y23.365 E6.13161
G1 X-38.918 Y16.401 E6.56953
G1 X-42.275 Y8.301 E7.00699
G1 X-43.423 Y-0.401 E7.4449
G1 X-42.282 Y-9.104 E7.88285
G1 X-38.922 Y-17.225 E8.32135
G1 X-33.583 Y-24.184 E8.75895
G1 X-26.61 Y-29.539 E9.19757
G1 X-18.499 Y-32.899 E9.63555
G1 X-9.802 Y-34.044 E10.07315
G1 X-1.091 Y-32.9 E10.51142
G0 F18000 X-1.195 Y-32.51
G1 F720 X6.818 Y-29.19 E10.94408
G1 X13.699 Y-23.909 E11.37679
G1 X18.972 Y-17.037 E11.8089
G1 X22.299 Y-9.013 E12.24222
G1 X23.426 Y-0.453 E12.67291
G1 X22.302 Y8.161 E13.10626
G1 X18.995 Y16.16 E13.53809
G1 X13.708 Y23.068 E13.97209
G1 X6.819 Y28.36 E14.40548
G1 X-1.195 Y31.68 E14.83826
G1 X-9.794 Y32.812 E15.27101
G1 X-18.394 Y31.68 E15.70382
G1 X-26.408 Y28.36 E16.13664
G1 X-33.29 Y23.079 E16.56946
G1 X-38.569 Y16.199 E17.00213
G1 X-41.885 Y8.196 E17.43434
G1 X-43.02 Y-0.401 E17.86698
G1 X-41.892 Y-9 E18.2997
G1 X-38.573 Y-17.023 E18.73289
G1 X-33.298 Y-23.899 E19.16527
G1 X-26.409 Y-29.19 E19.59862
G1 X-18.394 Y-32.51 E20.03141
G1 X-9.802 Y-33.641 E20.46372
G1 X-1.195 Y-32.51 E20.89677
G0 F18000 X-2.085 Y-29.198
; TYPE:WALL-OUTER
G1 F720 X5.103 Y-26.22 E21.28487
G1 X11.274 Y-21.484 E21.67293
G1 X16.002 Y-15.322 E22.06038
G1 X18.987 Y-8.122 E22.44919
G1 X19.998 Y-0.451 E22.83516
G1 X18.99 Y7.275 E23.22383
G1 X16.024 Y14.447 E23.61103
G1 X11.281 Y20.645 E24.0004
G1 X5.103 Y25.39 E24.38904
G1 X-2.085 Y28.368 E24.77721
G1 X-9.794 Y29.383 E25.16518
G1 X-17.504 Y28.368 E25.55321
G1 X-24.693 Y25.39 E25.94147
G1 X-30.865 Y20.654 E26.32964
G1 X-35.599 Y14.484 E26.71766
G1 X-38.574 Y7.305 E27.10537
G1 X-39.591 Y-0.402 E27.49322
G1 X-38.58 Y-8.113 E27.88125
G1 X-35.603 Y-15.308 E28.26976
G1 X-30.872 Y-21.474 E28.6575
G1 X-24.693 Y-26.22 E29.04621
G1 X-17.504 Y-29.198 E29.43439
G1 X-9.802 Y-30.212 E29.82192
G1 X-2.085 Y-29.198 E30.21018
G1 F6600 E23.41018
G1 Z0.6
G0 F18000 X-2.157 Y-28.905
G0 X-7.52 Y-6.51
G0 X-7.52 Y-6.51
G0 X-7.59 Y-6.22
G1 Z0.3
G1 F6600 E30.21018
G1 F720 X-9.169 Y-6.593 E30.29118
G1 X-10.788 Y-6.544 E30.37204
G1 X-12.342 Y-6.078 E30.45301
G1 X-13.721 Y-5.225 E30.53393
G1 X-14.833 Y-4.046 E30.61478
G1 X-15.601 Y-2.618 E30.69565
G1 X-15.973 Y-1.04 E30.7765
G1 X-15.925 Y0.578 E30.85721
G1 X-15.459 Y2.131 E30.93809
G1 X-14.606 Y3.511 E31.019
G1 X-13.426 Y4.622 E31.09982
G1 X-11.999 Y5.391 E31.18065
G1 X-10.42 Y5.763 E31.26153
G1 X-8.801 Y5.714 E31.34229
G1 X-7.247 Y5.248 E31.42319
G1 X-5.868 Y4.396 E31.50401
G1 X-4.756 Y3.216 E31.58487
G1 X-3.988 Y1.789 E31.6657
G1 X-3.615 Y0.21 E31.74663
G1 X-3.664 Y-1.408 E31.82739
G1 X-4.13 Y-2.961 E31.90835
G1 X-4.983 Y-4.34 E31.98931
G1 X-6.163 Y-5.452 E32.07027
G1 X-7.59 Y-6.22 E32.15119
G0 F18000 X-7.447 Y-6.597
; TYPE:WALL-INNER
G1 F720 X-9.128 Y-6.994 E32.23742
G1 X-10.853 Y-6.942 E32.32357
G1 X-12.507 Y-6.446 E32.40975
G1 X-13.976 Y-5.538 E32.49593
G1 X-15.16 Y-4.282 E32.58204
G1 X-15.978 Y-2.761 E32.66818
G1 X-16.374 Y-1.081 E32.75426
G1 X-16.323 Y0.643 E32.84025
G1 X-15.827 Y2.296 E32.92634
G1 X-14.919 Y3.766 E33.01252
G1 X-13.662 Y4.949 E33.0986
G1 X-12.142 Y5.768 E33.18469
G1 X-10.461 Y6.164 E33.27081
G1 X-8.736 Y6.112 E33.35686
G1 X-7.082 Y5.616 E33.44296
G1 X-5.613 Y4.709 E33.52905
G1 X-4.429 Y3.452 E33.61516
G1 X-3.611 Y1.932 E33.70126
G1 X-3.214 Y0.251 E33.78742
G1 X-3.266 Y-1.473 E33.87347
G1 X-3.762 Y-3.126 E33.95963
G1 X-4.67 Y-4.595 E34.04586
G1 X-5.927 Y-5.779 E34.13208
G1 X-7.447 Y-6.597 E34.21827
G0 F18000 X-2.186 Y-28.807
G1 F720 X4.901 Y-25.871 E34.60091
G1 X10.989 Y-21.199 E34.98374
G1 X15.653 Y-15.12 E35.36597
G1 X18.596 Y-8.021 E35.74932
G1 X19.594 Y-0.451 E36.13021
G1 X18.599 Y7.174 E36.5138
G1 X15.676 Y14.243 E36.89543
G1 X10.993 Y20.362 E37.27985
G1 X4.901 Y25.041 E37.66308
G1 X-2.186 Y27.977 E38.0458
G1 X-9.794 Y28.979 E38.42869
G1 X-17.403 Y27.977 E38.81163
G1 X-24.492 Y25.041 E39.19448
G1 X-30.58 Y20.369 E39.57738
G1 X-35.25 Y14.283 E39.96013
G1 X-38.183 Y7.204 E40.34244
G1 X-39.187 Y-0.402 E40.7252
G1 X-38.189 Y-8.012 E41.10816
G1 X-35.254 Y-15.106 E41.4912
G1 X-30.587 Y-21.189 E41.87372
G1 X-24.491 Y-25.871 E42.25719
G1 X-17.403 Y-28.807 E42.63993
G1 X-9.802 Y-29.808 E43.02237
G1 X-2.186 Y-28.807 E43.40555
G0 F18000 X-1.57 Y-28.4
; TYPE:FILL
G1 F720 X-18.018 Y-28.4 E44.22619
G0 F18000 X-18.984 Y-28
G1 F720 X-0.605 Y-28 E45.14307
G0 F18000 X0.36 Y-27.6
G1 F720 X-19.949 Y-27.6 E46.15629
G0 F18000 X-20.915 Y-27.2
G1 F720 X1.325 Y-27.2 E47.2658
G0 F18000 X2.29 Y-26.8
G1 F720 X-21.881 Y-26.8 E48.4717
G0 F18000 X-22.846 Y-26.4
G1 F720 X3.256 Y-26.4 E49.77388
G0 F18000 X4.221 Y-26
G1 F720 X-23.812 Y-26 E51.17246
G0 F18000 X-24.613 Y-25.6
G1 F720 X5.022 Y-25.6 E52.6509
G0 F18000 X5.543 Y-25.2
G1 F720 X-25.134 Y-25.2 E54.18138
G0 F18000 X-25.654 Y-24.8
G1 F720 X6.065 Y-24.8 E55.7638
G0 F18000 X6.586 Y-24.4
G1 F720 X-26.175 Y-24.4 E57.39825
G0 F18000 X-26.696 Y-24
G1 F720 X7.107 Y-24 E59.08464
G0 F18000 X7.628 Y-23.6
G1 F720 X-27.217 Y-23.6 E60.82307
G0 F18000 X-27.738 Y-23.2
G1 F720 X8.15 Y-23.2 E62.61348
G0 F18000 X8.671 Y-22.8
G1 F720 X-28.259 Y-22.8 E64.45592
G0 F18000 X-28.78 Y-22.4
G1 F720 X9.192 Y-22.4 E66.3503
G0 F18000 X9.714 Y-22
G1 F720 X-29.301 Y-22 E68.29677
G0 F18000 X-29.822 Y-21.599
G1 F720 X10.235 Y-21.6 E70.29517
G0 F18000 X10.756 Y-21.2
G1 F720 X-30.342 Y-21.199 E72.34556
G0 F18000 X-30.709 Y-20.799
G1 F720 X11.117 Y-20.8 E74.43222
G0 F18000 X11.424 Y-20.4
G1 F720 X-31.016 Y-20.399 E76.54956
G0 F18000 X-31.322 Y-19.999
G1 F720 X11.731 Y-20 E78.69743
G0 F18000 X12.038 Y-19.6
G1 F720 X-31.629 Y-19.599 E80.87598
G0 F18000 X-31.936 Y-19.199
G1 F720 X12.344 Y-19.2 E83.08507
G0 F18000 X12.651 Y-18.8
G1 F720 X-32.243 Y-18.799 E85.32484
G0 F18000 X-32.55 Y-18.399
G1 F720 X12.958 Y-18.4 E87.5952
G0 F18000 X13.265 Y-18
G1 F720 X-32.857 Y-17.999 E89.89623
G0 F18000 X-33.164 Y-17.599
G1 F720 X13.572 Y-17.6 E92.22785
G0 F18000 X13.878 Y-17.2
G1 F720 X-33.47 Y-17.199 E94.59005
G0 F18000 X-33.777 Y-16.799
G1 F720 X14.185 Y-16.8 E96.98284
G0 F18000 X14.492 Y-16.4
G1 F720 X-34.084 Y-16.399 E99.4063
G0 F18000 X-34.391 Y-15.999
G1 F720 X14.799 Y-16 E101.86035
G0 F18000 X15.106 Y-15.6
G1 F720 X-34.698 Y-15.599 E104.34508
G0 F18000 X-35.005 Y-15.199
G1 F720 X15.412 Y-15.2 E106.86035
G0 F18000 X15.633 Y-14.8
G1 F720 X-35.229 Y-14.799 E109.39786
G0 F18000 X-35.394 Y-14.399
G1 F720 X15.799 Y-14.4 E111.95184
G0 F18000 X15.965 Y-14
G1 F720 X-35.56 Y-13.999 E114.52244
G0 F18000 X-35.725 Y-13.599
G1 F720 X16.13 Y-13.6 E117.10944
G0 F18000 X16.296 Y-13.2
G1 F720 X-35.891 Y-13.199 E119.71306
G0 F18000 X-36.056 Y-12.799
G1 F720 X16.462 Y-12.8 E122.33315
G0 F18000 X16.628 Y-12.4
G1 F720 X-36.222 Y-12.399 E124.96984
G0 F18000 X-36.387 Y-11.999
G1 F720 X16.794 Y-12 E127.623
G0 F18000 X16.96 Y-11.6
G1 F720 X-36.553 Y-11.599 E130.29278
G0 F18000 X-36.719 Y-11.199
G1 F720 X17.125 Y-11.2 E132.97902
G0 F18000 X17.291 Y-10.8
G1 F720 X-36.884 Y-10.799 E135.68182
G0 F18000 X-37.05 Y-10.399
G1 F720 X17.457 Y-10.4 E138.40113
G0 F18000 X17.623 Y-10
G1 F720 X-37.215 Y-9.999 E141.13701
G0 F18000 X-37.381 Y-9.599
G1 F720 X17.789 Y-9.6 E143.88941
G0 F18000 X17.955 Y-9.2
G1 F720 X-37.546 Y-9.199 E146.65836
G0 F18000 X-37.712 Y-8.799
G1 F720 X18.12 Y-8.8 E149.44378
G0 F18000 X18.286 Y-8.4
G1 F720 X-37.877 Y-8.399 E152.24577
G0 F18000 X-38.043 Y-7.999
G1 F720 X18.452 Y-8 E155.06426
G0 F18000 X18.51 Y-7.6
G1 F720 X-38.102 Y-7.599 E157.88865
G0 F18000 X-38.155 Y-7.199
G1 F720 X18.563 Y-7.2 E160.71827
G0 F18000 X18.616 Y-6.8
G1 F720 X-7.694 Y-6.799 E162.03088
G0 F18000 X-6.784 Y-6.4
G1 F720 X18.669 Y-6.4 E163.30069
G0 F18000 X18.721 Y-6
G1 F720 X-6.042 Y-6 E164.53612
G0 F18000 X-5.533 Y-5.6
G1 F720 X18.774 Y-5.6 E165.74875
G0 F18000 X18.827 Y-5.2
G1 F720 X-5.108 Y-5.2 E166.94287
G0 F18000 X-4.683 Y-4.8
G1 F720 X18.88 Y-4.8 E168.11838
G0 F18000 X18.933 Y-4.4
G1 F720 X-4.385 Y-4.4 E169.28172
G0 F18000 X-4.138 Y-3.999
G1 F720 X18.985 Y-4 E170.43528
G0 F18000 X19.038 Y-3.6
G1 F720 X-3.89 Y-3.599 E171.57917
G0 F18000 X-3.643 Y-3.2
G1 F720 X19.091 Y-3.2 E172.71332
G0 F18000 X19.144 Y-2.8
G1 F720 X-3.518 Y-2.8 E173.84393
G0 F18000 X-3.398 Y-2.4
G1 F720 X19.197 Y-2.4 E174.97115
G0 F18000 X19.249 Y-2
G1 F720 X-3.278 Y-1.999 E176.09503
G0 F18000 X-3.158 Y-1.599
G1 F720 X19.302 Y-1.6 E177.21551
G0 F18000 X19.355 Y-1.2
G1 F720 X-3.118 Y-1.199 E178.33669
G0 F18000 X-3.106 Y-0.799
G1 F720 X19.408 Y-0.8 E179.45987
G0 F18000 X19.447 Y-0.4
G1 F720 X-3.093 Y-0.399 E180.5844
G0 F18000 X-3.081 Y0
G1 F720 X19.395 Y0 E181.70568
G0 F18000 X19.343 Y0.399
G1 F720 X-3.105 Y0.4 E182.82562
G0 F18000 X-3.199 Y0.8
G1 F720 X19.291 Y0.799 E183.9476
G0 F18000 X19.238 Y1.199
G1 F720 X-3.294 Y1.2 E185.07172
G0 F18000 X-3.388 Y1.6
G1 F720 X19.186 Y1.599 E186.19789
G0 F18000 X19.134 Y1.999
G1 F720 X-3.488 Y2 E187.32651
G0 F18000 X-3.704 Y2.4
G1 F720 X19.082 Y2.399 E188.46326
G0 F18000 X19.029 Y2.799
G1 F720 X-3.919 Y2.8 E189.60814
G0 F18000 X-4.135 Y3.2
G1 F720 X18.977 Y3.199 E190.76115
G0 F18000 X18.925 Y3.599
G1 F720 X-4.377 Y3.6 E191.92369
G0 F18000 X-4.753 Y4
G1 F720 X18.873 Y3.999 E193.10235
G0 F18000 X18.821 Y4.399
G1 F720 X-5.13 Y4.4 E194.29727
G0 F18000 X-5.506 Y4.8
G1 F720 X18.768 Y4.799 E195.50825
G0 F18000 X18.716 Y5.199
G1 F720 X-6.142 Y5.2 E196.74842
G0 F18000 X-6.79 Y5.6
G1 F720 X18.664 Y5.599 E198.01828
G0 F18000 X18.612 Y5.999
G1 F720 X-7.876 Y6 E199.33977
G0 F18000 X-11.767 Y6
G1 F720 X-38.201 Y6 E200.65862
G0 F18000 X-38.254 Y5.6
G1 F720 X-12.748 Y5.6 E201.93107
G0 F18000 X-13.49 Y5.2
G1 F720 X-38.306 Y5.2 E203.16919
G0 F18000 X-38.359 Y4.8
G1 F720 X-14.024 Y4.8 E204.38322
G0 F18000 X-14.449 Y4.4
G1 F720 X-38.412 Y4.4 E205.57879
G0 F18000 X-38.465 Y4
G1 F720 X-14.874 Y4 E206.7557
G0 F18000 X-15.186 Y3.6
G1 F720 X-38.518 Y3.6 E207.91979
G0 F18000 X-38.571 Y3.2
G1 F720 X-15.433 Y3.2 E209.0741
G0 F18000 X-15.68 Y2.8
G1 F720 X-38.624 Y2.8 E210.21883
G0 F18000 X-38.677 Y2.4
G1 F720 X-15.927 Y2.4 E211.35378
G0 F18000 X-16.062 Y2
G1 F720 X-38.729 Y2 E212.48469
G0 F18000 X-38.782 Y1.6
G1 F720 X-16.182 Y1.6 E213.61216
G0 F18000 X-16.302 Y1.2
G1 F720 X-38.835 Y1.2 E214.73639
G0 F18000 X-38.888 Y0.8
G1 F720 X-16.422 Y0.8 E215.85717
G0 F18000 X-16.47 Y0.4
G1 F720 X-38.941 Y0.4 E216.9783
G0 F18000 X-38.994 Y0
G1 F720 X-16.482 Y0 E218.10138
G0 F18000 X-16.494 Y-0.399
G1 F720 X-39.047 Y-0.399 E219.2266
G0 F18000 X-38.995 Y-0.799
G1 F720 X-16.506 Y-0.799 E220.34854
G0 F18000 X-16.491 Y-1.199
G1 F720 X-38.942 Y-1.199 E221.46867
G0 F18000 X-38.89 Y-1.599
G1 F720 X-16.396 Y-1.599 E222.59085
G0 F18000 X-16.302 Y-1.999
G1 F720 X-38.837 Y-1.999 E223.71518
G0 F18000 X-38.785 Y-2.399
G1 F720 X-16.208 Y-2.399 E224.8415
G0 F18000 X-16.114 Y-2.799
G1 F720 X-38.732 Y-2.799 E225.96996
G0 F18000 X-38.68 Y-3.199
G1 F720 X-15.902 Y-3.199 E227.10631
G0 F18000 X-15.686 Y-3.599
G1 F720 X-38.627 Y-3.599 E228.25089
G0 F18000 X-38.575 Y-3.999
G1 F720 X-15.471 Y-3.999 E229.40351
G0 F18000 X-15.241 Y-4.399
G1 F720 X-38.522 Y-4.399 E230.56505
G0 F18000 X-38.47 Y-4.799
G1 F720 X-14.864 Y-4.799 E231.74271
G0 F18000 X-14.487 Y-5.199
G1 F720 X-38.417 Y-5.199 E232.93663
G0 F18000 X-38.365 Y-5.599
G1 F720 X-14.11 Y-5.599 E234.14667
G0 F18000 X-13.495 Y-5.999
G1 F720 X-38.312 Y-5.999 E235.38484
G0 F18000 X-38.26 Y-6.399
G1 F720 X-12.848 Y-6.399 E236.6526
G0 F18000 X-11.815 Y-6.799
G1 F720 X-38.207 Y-6.799 E237.96936
G0 F18000 X-38.148 Y6.4
G1 F720 X18.559 Y6.399 E240.79843
G0 F18000 X18.507 Y6.799
G1 F720 X-38.095 Y6.8 E243.62232
G0 F18000 X-38.032 Y7.2
G1 F720 X18.437 Y7.199 E246.43952
G0 F18000 X18.272 Y7.599
G1 F720 X-37.866 Y7.6 E249.24025
G0 F18000 X-37.7 Y8
G1 F720 X18.106 Y7.999 E252.02437
G0 F18000 X17.941 Y8.399
G1 F720 X-37.535 Y8.4 E254.79208
G0 F18000 X-37.369 Y8.8
G1 F720 X17.775 Y8.799 E257.54318
G0 F18000 X17.61 Y9.199
G1 F720 X-37.203 Y9.2 E260.27781
G0 F18000 X-37.037 Y9.6
G1 F720 X17.444 Y9.599 E262.99583
G0 F18000 X17.279 Y9.999
G1 F720 X-36.872 Y10 E265.69743
G0 F18000 X-36.706 Y10.4
G1 F720 X17.114 Y10.399 E268.38247
G0 F18000 X16.948 Y10.799
G1 F720 X-36.54 Y10.8 E271.051
G0 F18000 X-36.374 Y11.2
G1 F720 X16.783 Y11.199 E273.70296
G0 F18000 X16.617 Y11.599
G1 F720 X-36.209 Y11.6 E276.33846
G0 F18000 X-36.043 Y12
G1 F720 X16.452 Y11.999 E278.9574
G0 F18000 X16.286 Y12.399
G1 F720 X-35.877 Y12.4 E281.55982
G0 F18000 X-35.712 Y12.8
G1 F720 X16.121 Y12.799 E284.14573
G0 F18000 X15.956 Y13.199
G1 F720 X-35.546 Y13.2 E286.71518
G0 F18000 X-35.38 Y13.6
G1 F720 X15.79 Y13.599 E289.26801
G0 F18000 X15.625 Y13.999
G1 F720 X-35.214 Y14 E291.80438
G0 F18000 X-34.982 Y14.4
G1 F720 X15.379 Y14.399 E294.31685
G0 F18000 X15.073 Y14.799
G1 F720 X-34.675 Y14.8 E296.79879
G0 F18000 X-34.368 Y15.2
G1 F720 X14.766 Y15.2 E299.25004
G0 F18000 X14.46 Y15.6
G1 F720 X-34.061 Y15.6 E301.67076
G0 F18000 X-33.754 Y16
G1 F720 X14.154 Y16 E304.06085
G0 F18000 X13.848 Y16.4
G1 F720 X-33.448 Y16.4 E306.42046
G0 F18000 X-33.141 Y16.8
G1 F720 X13.542 Y16.8 E308.74943
G0 F18000 X13.236 Y17.2
G1 F720 X-32.834 Y17.2 E311.04788
G0 F18000 X-32.527 Y17.6
G1 F720 X12.929 Y17.6 E313.31564
G0 F18000 X12.623 Y18
G1 F720 X-32.22 Y18 E315.55286
G0 F18000 X-31.913 Y18.4
G1 F720 X12.317 Y18.4 E317.75946
G0 F18000 X12.011 Y18.8
G1 F720 X-31.606 Y18.8 E319.93552
G0 F18000 X-31.299 Y19.2
G1 F720 X11.705 Y19.2 E322.08095
G0 F18000 X11.399 Y19.6
G1 F720 X-30.992 Y19.6 E324.19584
G0 F18000 X-30.686 Y20
G1 F720 X11.093 Y20 E326.28015
G0 F18000 X10.712 Y20.4
G1 F720 X-30.308 Y20.4 E328.32665
G0 F18000 X-29.787 Y20.8
G1 F720 X10.191 Y20.8 E330.32111
G0 F18000 X9.671 Y21.2
G1 F720 X-29.266 Y21.2 E332.26369
G0 F18000 X-28.744 Y21.6
G1 F720 X9.15 Y21.6 E334.15417
G0 F18000 X8.629 Y22
G1 F720 X-28.223 Y22 E335.99273
G0 F18000 X-27.702 Y22.4
G1 F720 X8.108 Y22.4 E337.77925
G0 F18000 X7.587 Y22.8
G1 F720 X-27.181 Y22.8 E339.51383
G0 F18000 X-26.66 Y23.2
G1 F720 X7.066 Y23.2 E341.19638
G0 F18000 X6.545 Y23.6
G1 F720 X-26.138 Y23.6 E342.82694
G0 F18000 X-25.617 Y24
G1 F720 X6.024 Y24 E344.40546
G0 F18000 X5.504 Y24.4
G1 F720 X-25.096 Y24.4 E345.9321
G0 F18000 X-24.575 Y24.8
G1 F720 X4.983 Y24.8 E347.40671
G0 F18000 X4.148 Y25.2
G1 F720 X-23.74 Y25.2 E348.79805
G0 F18000 X-22.774 Y25.6
G1 F720 X3.183 Y25.6 E350.093
G0 F18000 X2.218 Y26
G1 F720 X-21.809 Y26 E351.29171
G0 F18000 X-20.843 Y26.4
G1 F720 X1.253 Y26.4 E352.39403
G0 F18000 X0.287 Y26.8
G1 F720 X-19.877 Y26.8 E353.40002
G0 F18000 X-18.912 Y27.2
G1 F720 X-0.677 Y27.2 E354.30972
G0 F18000 X-1.642 Y27.6
G1 F720 X-17.946 Y27.6 E355.12318
G0 F18000 X-16.157 Y28
G1 F720 X-3.43 Y28 E355.75808
G0 F18000 X-6.464 Y28.4
G1 F720 X-13.123 Y28.4 E356.09035
G0 F18000 X-10.089 Y28.8
G1 F720 X-9.497 Y28.8 E356.11983
G1 F6600 E349.31983
G1 Z0.6
G0 F18000 X-6.948 Y5.484
G0 X-5.615 Y4.707
G0 X-4.431 Y3.45
G0 X-3.613 Y1.93
G0 X-3.217 Y0.251
G0 X-3.204 Y-28.8
G0 X-3.204 Y-28.8
G1 Z0.3
G1 F6600 E356.11983
G1 F720 X-16.385 Y-28.8 E356.77749
G0 F18000 X-13.351 Y-29.2
G1 F720 X-6.244 Y-29.2 E357.13201
G0 F18000 X-9.284 Y-29.6
G1 F720 X-10.317 Y-29.6 E357.18359
; LAYER:1
G0 F18000 X-9.818 Y-29.654 Z0.6
; TYPE:WALL-INNER
G1 F2400 X-2.225 Y-28.661 E357.66107
G1 X4.825 Y-25.74 E358.13689
G1 X10.882 Y-21.092 E358.61299
G1 X15.507 Y-15.064 E359.08676
G1 X18.451 Y-7.978 E359.56523
G1 X19.447 Y-0.414 E360.04095
G1 X18.451 Y7.15 E360.51667
G1 X15.538 Y14.185 E360.99152
G1 X10.902 Y20.235 E361.46685
G1 X4.827 Y24.909 E361.94485
G1 X-2.225 Y27.831 E362.42089
G1 X-9.794 Y28.827 E362.89705
G1 X-17.364 Y27.831 E363.37327
G1 X-24.415 Y24.91 E363.84928
G1 X-30.473 Y20.262 E364.32551
G1 X-35.117 Y14.209 E364.80133
G1 X-38.029 Y7.184 E365.2756
G1 X-39.033 Y-0.377 E365.75127
G1 X-38.045 Y-7.95 E366.2276
G1 X-35.125 Y-15.024 E366.7049
G1 X-30.494 Y-21.064 E367.17955
G1 X-24.418 Y-25.739 E367.65764
G1 X-17.364 Y-28.661 E368.13376
G1 X-9.818 Y-29.654 E368.60835
G0 F18000 X-9.113 Y-7.145
G1 F2400 X-10.877 Y-7.092 E368.71847
G1 X-12.569 Y-6.584 E368.82868
G1 X-14.071 Y-5.655 E368.93884
G1 X-15.283 Y-4.37 E369.04899
G1 X-16.119 Y-2.814 E369.15912
G1 X-16.525 Y-1.096 E369.26917
G1 X-16.473 Y0.667 E369.3791
G1 X-15.965 Y2.358 E369.48919
G1 X-15.036 Y3.861 E369.59935
G1 X-13.75 Y5.072 E369.70946
G1 X-12.196 Y5.909 E369.81948
G1 X-10.476 Y6.315 E369.92963
G1 X-8.712 Y6.262 E370.03963
G1 X-7.02 Y5.754 E370.14974
G1 X-5.518 Y4.826 E370.25979
G1 X-4.306 Y3.54 E370.36995
G1 X-3.47 Y1.986 E370.47997
G1 X-3.063 Y0.266 E370.59018
G1 X-3.116 Y-1.497 E370.70018
G1 X-3.624 Y-3.188 E370.81037
G1 X-4.553 Y-4.69 E370.92059
G1 X-5.839 Y-5.902 E371.03088
G1 X-7.393 Y-6.738 E371.14101
G1 X-9.113 Y-7.145 E371.25131
G0 F18000 X-9.164 Y-6.643
; TYPE:WALL-OUTER
G1 F2100 X-10.796 Y-6.594 E371.35319
G1 X-12.362 Y-6.124 E371.4552
G1 X-13.752 Y-5.264 E371.55715
G1 X-14.874 Y-4.075 E371.6591
G1 X-15.648 Y-2.635 E371.76103
G1 X-16.023 Y-1.045 E371.86286
G1 X-15.975 Y0.586 E371.96456
G1 X-15.505 Y2.151 E372.06644
G1 X-14.645 Y3.542 E372.1684
G1 X-13.455 Y4.663 E372.2703
G1 X-12.017 Y5.438 E372.37212
G1 X-10.425 Y5.813 E372.47406
G1 X-8.793 Y5.764 E372.57582
G1 X-7.227 Y5.294 E372.67772
G1 X-5.837 Y4.435 E372.77957
G1 X-4.715 Y3.245 E372.88152
G1 X-3.941 Y1.807 E372.98334
G1 X-3.565 Y0.215 E373.08534
G1 X-3.614 Y-1.416 E373.1871
G1 X-4.084 Y-2.981 E373.28908
G1 X-4.944 Y-4.371 E373.3911
G1 X-6.134 Y-5.493 E373.49318
G1 X-7.572 Y-6.267 E373.59511
G1 X-9.164 Y-6.643 E373.6972
G1 F6600 E366.8972
G1 Z0.9
G0 F18000 X-9.084 Y-6.983
G0 X-9.822 Y-29.806
G0 X-9.822 Y-29.806
G0 X-9.818 Y-30.159
G1 Z0.6
G1 F6600 E373.6972
G1 F2100 X-2.096 Y-29.148 E374.1828
G1 X5.08 Y-26.176 E374.6671
G1 X11.239 Y-21.449 E375.15124
G1 X15.944 Y-15.318 E375.63315
G1 X18.938 Y-8.109 E376.11989
G1 X19.952 Y-0.414 E376.60386
G1 X18.938 Y7.28 E377.08777
G1 X15.975 Y14.436 E377.57078
G1 X11.26 Y20.591 E378.0543
G1 X5.08 Y25.346 E378.54058
G1 X-2.095 Y28.318 E379.0249
G1 X-9.794 Y29.332 E379.50924
G1 X-17.494 Y28.318 E379.99364
G1 X-24.67 Y25.346 E380.47807
G1 X-30.83 Y20.619 E380.96235
G1 X-35.553 Y14.464 E381.44622
G1 X-38.515 Y7.317 E381.92871
G1 X-39.537 Y-0.381 E382.413
G1 X-38.533 Y-8.079 E382.89718
G1 X-35.561 Y-15.276 E383.38281
G1 X-30.852 Y-21.42 E383.86557
G1 X-24.67 Y-26.176 E384.35197
G1 X-17.494 Y-29.148 E384.83632
G1 X-9.818 Y-30.159 E385.31909
G0 F18000 X-10 Y-29.439
; TYPE:FILL
G1 F2400 X-10 Y-7.308 E386.69918
G0 F18000 X-9.5 Y-7.323
G1 F2400 X-9.5 Y-29.422 E388.0774
G0 F18000 X-9 Y-29.356
G1 F2400 X-9 Y-7.313 E389.452
G0 F18000 X-8.5 Y-7.195
G1 F2400 X-8.5 Y-29.291 E390.83003
G0 F18000 X-8 Y-29.225
G1 F2400 X-8 Y-7.077 E392.21118
G0 F18000 X-7.5 Y-6.959
G1 F2400 X-7.5 Y-29.16 E393.59575
G0 F18000 X-7 Y-29.094
G1 F2400 X-7 Y-6.743 E394.98956
G0 F18000 X-6.5 Y-6.473
G1 F2400 X-6.5 Y-29.029 E396.39628
G0 F18000 X-6 Y-28.963
G1 F2400 X-6 Y-6.204 E397.81553
G0 F18000 X-5.5 Y-5.843
G1 F2400 X-5.5 Y-28.898 E399.25337
G0 F18000 X-5 Y-28.832
G1 F2400 X-5 Y-5.372 E400.71633
G0 F18000 X-4.5 Y-4.9
G1 F2400 X-4.5 Y-28.767 E402.20481
G0 F18000 X-4 Y-28.701
G1 F2400 X-4 Y-4.157 E403.73538
G0 F18000 X-3.5 Y-3.349
G1 F2400 X-3.5 Y-28.636 E405.31241
G0 F18000 X-3 Y-28.57
G1 F2400 X-3 Y-1.772 E406.98354
G0 F18000 X-3 Y0.826
G1 F2400 X-2.999 Y27.741 E408.66203
G0 F18000 X-2.499 Y27.675
G1 F2400 X-2.5 Y-28.505 E412.16557
G0 F18000 X-2 Y-28.361
G1 F2400 X-1.999 Y27.531 E415.65109
G0 F18000 X-1.499 Y27.324
G1 F2400 X-1.5 Y-28.154 E419.11085
G0 F18000 X-1 Y-27.947
G1 F2400 X-0.999 Y27.117 E422.54473
G0 F18000 X-0.499 Y26.91
G1 F2400 X-0.5 Y-27.74 E425.95286
G0 F18000 X0 Y-27.533
G1 F2400 X0 Y26.703 E429.3351
G0 F18000 X0.5 Y26.496
G1 F2400 X0.499 Y-27.326 E432.69159
G0 F18000 X0.999 Y-27.119
G1 F2400 X1 Y26.288 E436.02213
G0 F18000 X1.5 Y26.081
G1 F2400 X1.499 Y-26.912 E439.32692
G0 F18000 X1.999 Y-26.704
G1 F2400 X2 Y25.874 E442.60577
G0 F18000 X2.5 Y25.667
G1 F2400 X2.499 Y-26.497 E445.85886
G0 F18000 X2.999 Y-26.29
G1 F2400 X3 Y25.46 E449.08607
G0 F18000 X3.5 Y25.252
G1 F2400 X3.499 Y-26.083 E452.28746
G0 F18000 X3.999 Y-25.876
G1 F2400 X4 Y25.045 E455.46297
G0 F18000 X4.5 Y24.838
G1 F2400 X4.499 Y-25.669 E458.61273
G0 F18000 X4.999 Y-25.367
G1 F2400 X5 Y24.536 E461.72475
G0 F18000 X5.5 Y24.151
G1 F2400 X5.499 Y-24.983 E464.78889
G0 F18000 X5.999 Y-24.599
G1 F2400 X6 Y23.767 E467.80506
G0 F18000 X6.5 Y23.382
G1 F2400 X6.499 Y-24.216 E470.7734
G0 F18000 X6.999 Y-23.832
G1 F2400 X7 Y22.997 E473.69373
G0 F18000 X7.5 Y22.613
G1 F2400 X7.499 Y-23.448 E476.56622
G0 F18000 X7.999 Y-23.065
G1 F2400 X8 Y22.228 E479.39075
G0 F18000 X8.5 Y21.843
G1 F2400 X8.499 Y-22.681 E482.16739
G0 F18000 X8.999 Y-22.297
G1 F2400 X9 Y21.459 E484.89607
G0 F18000 X9.5 Y21.074
G1 F2400 X9.499 Y-21.914 E487.57692
G0 F18000 X9.999 Y-21.53
G1 F2400 X10 Y20.689 E490.20975
G0 F18000 X10.5 Y20.305
G1 F2400 X10.499 Y-21.147 E492.79481
G0 F18000 X10.999 Y-20.627
G1 F2400 X11 Y19.795 E495.31558
G0 F18000 X11.5 Y19.142
G1 F2400 X11.499 Y-19.975 E497.75502
G0 F18000 X11.999 Y-19.323
G1 F2400 X12 Y18.489 E500.11302
G0 F18000 X12.5 Y17.837
G1 F2400 X12.499 Y-18.672 E502.38982
G0 F18000 X12.999 Y-18.02
G1 F2400 X13 Y17.184 E504.58518
G0 F18000 X13.5 Y16.532
G1 F2400 X13.499 Y-17.368 E506.69928
G0 F18000 X13.999 Y-16.716
G1 F2400 X14 Y15.878 E508.73186
G0 F18000 X14.5 Y15.225
G1 F2400 X14.499 Y-16.064 E510.68313
G0 F18000 X14.999 Y-15.412
G1 F2400 X15 Y14.573 E512.55302
G0 F18000 X15.5 Y13.776
G1 F2400 X15.499 Y-14.584 E514.32163
G0 F18000 X15.999 Y-13.38
G1 F2400 X16 Y12.569 E515.93981
G0 F18000 X16.5 Y11.362
G1 F2400 X16.5 Y-12.177 E517.40777
G0 F18000 X17 Y-10.973
G1 F2400 X17 Y10.154 E518.72525
G0 F18000 X17.5 Y8.947
G1 F2400 X17.5 Y-9.769 E519.89243
G0 F18000 X18 Y-8.566
G1 F2400 X18 Y7.74 E520.90925
G0 F18000 X18.5 Y5.318
G1 F2400 X18.5 Y-6.146 E521.62418
G0 F18000 X19 Y-2.354
G1 F2400 X19 Y1.527 E521.86615
G0 F18000 X-3.499 Y2.443
G1 F2400 X-3.499 Y27.807 E523.44792
G0 F18000 X-3.999 Y27.872
G1 F2400 X-3.999 Y3.371 E524.97587
G0 F18000 X-4.499 Y4.021
G1 F2400 X-4.499 Y27.938 E526.4674
G0 F18000 X-4.999 Y28.004
G1 F2400 X-4.999 Y4.552 E527.92993
G0 F18000 X-5.499 Y5.037
G1 F2400 X-5.499 Y28.07 E529.36633
G0 F18000 X-5.999 Y28.136
G1 F2400 X-5.999 Y5.346 E530.78757
G0 F18000 X-6.499 Y5.655
G1 F2400 X-6.499 Y28.202 E532.19367
G0 F18000 X-6.999 Y28.268
G1 F2400 X-6.999 Y5.946 E533.58573
G0 F18000 X-7.499 Y6.096
G1 F2400 X-7.499 Y28.334 E534.97255
G0 F18000 X-7.999 Y28.4
G1 F2400 X-7.999 Y6.246 E536.35414
G0 F18000 X-8.5 Y6.396
G1 F2400 X-8.499 Y28.465 E537.73042
G0 F18000 X-8.999 Y28.531
G1 F2400 X-9 Y6.46 E539.10683
G0 F18000 X-9.5 Y6.475
G1 F2400 X-9.499 Y28.597 E540.48642
G0 F18000 X-9.999 Y28.609
G1 F2400 X-10 Y6.49 E541.86582
G0 F18000 X-10.5 Y6.504
G1 F2400 X-10.499 Y28.543 E543.24023
G0 F18000 X-10.999 Y28.477
G1 F2400 X-11 Y6.386 E544.61789
G0 F18000 X-11.5 Y6.268
G1 F2400 X-11.499 Y28.411 E545.99879
G0 F18000 X-11.999 Y28.345
G1 F2400 X-12 Y6.15 E547.38293
G0 F18000 X-12.5 Y5.961
G1 F2400 X-12.499 Y28.279 E548.77474
G0 F18000 X-12.999 Y28.213
G1 F2400 X-13 Y5.691 E550.17927
G0 F18000 X-13.5 Y5.422
G1 F2400 X-13.499 Y28.147 E551.59647
G0 F18000 X-13.999 Y28.081
G1 F2400 X-14 Y5.096 E553.02987
G0 F18000 X-14.5 Y4.625
G1 F2400 X-14.499 Y28.015 E554.48854
G0 F18000 X-14.999 Y27.949
G1 F2400 X-15 Y4.154 E555.97246
G0 F18000 X-15.5 Y3.47
G1 F2400 X-15.499 Y27.883 E557.49492
G0 F18000 X-15.999 Y27.817
G1 F2400 X-16 Y2.661 E559.06372
G0 F18000 X-16.5 Y1.237
G1 F2400 X-16.499 Y27.751 E560.71721
G0 F18000 X-16.999 Y27.686
G1 F2400 X-17 Y-28.515 E564.22206
G0 F18000 X-16.5 Y-28.581
G1 F2400 X-16.5 Y-2.029 E565.87785
G0 F18000 X-16 Y-3.436
G1 F2400 X-16 Y-28.647 E567.45014
G0 F18000 X-15.5 Y-28.713
G1 F2400 X-15.5 Y-4.367 E568.96836
G0 F18000 X-15 Y-4.945
G1 F2400 X-15 Y-28.779 E570.45478
G0 F18000 X-14.5 Y-28.846
G1 F2400 X-14.5 Y-5.475 E571.91219
G0 F18000 X-14 Y-5.921
G1 F2400 X-14 Y-28.912 E573.34604
G0 F18000 X-13.5 Y-28.978
G1 F2400 X-13.5 Y-6.23 E574.7646
G0 F18000 X-13 Y-6.539
G1 F2400 X-13 Y-29.043 E576.16808
G0 F18000 X-12.5 Y-29.109
G1 F2400 X-12.5 Y-6.803 E577.55908
G0 F18000 X-12 Y-6.953
G1 F2400 X-12 Y-29.175 E578.94497
G0 F18000 X-11.5 Y-29.241
G1 F2400 X-11.5 Y-7.103 E580.32549
G0 F18000 X-11 Y-7.253
G1 F2400 X-11 Y-29.307 E581.7009
G0 F18000 X-10.5 Y-29.373
G1 F2400 X-10.5 Y-7.292 E583.07787
G0 F18000 X-19 Y-27.776
G1 F2400 X-18.999 Y26.946 E586.49042
G0 F18000 X-18.499 Y27.153
G1 F2400 X-18.5 Y-27.983 E589.92886
G0 F18000 X-18 Y-28.19
G1 F2400 X-17.999 Y27.36 E593.39304
G0 F18000 X-17.499 Y27.567
G1 F2400 X-17.5 Y-28.397 E596.88311
G0 F18000 X-19.5 Y-27.569
G1 F2400 X-19.499 Y26.739 E600.26985
G0 F18000 X-19.999 Y26.532
G1 F2400 X-20 Y-27.362 E603.63083
G0 F18000 X-20.5 Y-27.154
G1 F2400 X-20.499 Y26.325 E606.96586
G0 F18000 X-20.999 Y26.118
G1 F2400 X-21 Y-26.947 E610.27514
G0 F18000 X-21.5 Y-26.74
G1 F2400 X-21.499 Y25.911 E613.55854
G0 F18000 X-21.999 Y25.703
G1 F2400 X-22 Y-26.533 E616.81612
G0 F18000 X-22.5 Y-26.326
G1 F2400 X-22.499 Y25.496 E620.04782
G0 F18000 X-22.999 Y25.289
G1 F2400 X-23 Y-26.119 E623.25376
G0 F18000 X-23.5 Y-25.912
G1 F2400 X-23.499 Y25.082 E626.43383
G0 F18000 X-23.999 Y24.875
G1 F2400 X-24 Y-25.705 E629.58814
G0 F18000 X-24.5 Y-25.435
G1 F2400 X-24.499 Y24.605 E632.70871
G0 F18000 X-24.999 Y24.221
G1 F2400 X-25 Y-25.05 E635.78138
G0 F18000 X-25.5 Y-24.665
G1 F2400 X-25.499 Y23.837 E638.80604
G0 F18000 X-25.999 Y23.454
G1 F2400 X-26 Y-24.281 E641.78292
G0 F18000 X-26.5 Y-23.896
G1 F2400 X-26.499 Y23.07 E644.71179
G0 F18000 X-26.999 Y22.687
G1 F2400 X-27 Y-23.511 E647.59282
G0 F18000 X-27.5 Y-23.127
G1 F2400 X-27.499 Y22.303 E650.4259
G0 F18000 X-27.999 Y21.919
G1 F2400 X-28 Y-22.742 E653.21109
G0 F18000 X-28.5 Y-22.357
G1 F2400 X-28.499 Y21.536 E655.94831
G0 F18000 X-28.999 Y21.152
G1 F2400 X-29 Y-21.973 E658.6377
G0 F18000 X-29.5 Y-21.588
G1 F2400 X-29.499 Y20.769 E661.27914
G0 F18000 X-29.999 Y20.385
G1 F2400 X-30 Y-21.203 E663.87268
G0 F18000 X-30.5 Y-20.743
G1 F2400 X-30.499 Y19.915 E666.40817
G0 F18000 X-30.999 Y19.263
G1 F2400 X-31 Y-20.091 E668.86239
G0 F18000 X-31.5 Y-19.438
G1 F2400 X-31.499 Y18.611 E671.23517
G0 F18000 X-31.999 Y17.96
G1 F2400 X-32 Y-18.786 E673.52675
G0 F18000 X-32.5 Y-18.134
G1 F2400 X-32.499 Y17.308 E675.73695
G0 F18000 X-33 Y16.656
G1 F2400 X-33 Y-17.482 E677.86589
G0 F18000 X-33.5 Y-16.83
G1 F2400 X-33.5 Y16.004 E679.91344
G0 F18000 X-34 Y15.352
G1 F2400 X-34 Y-16.178 E681.87974
G0 F18000 X-34.5 Y-15.525
G1 F2400 X-34.5 Y14.701 E683.76466
G0 F18000 X-35 Y13.993
G1 F2400 X-35 Y-14.826 E685.56189
G0 F18000 X-35.5 Y-13.615
G1 F2400 X-35.5 Y12.787 E687.20833
G0 F18000 X-36 Y11.581
G1 F2400 X-36 Y-12.404 E688.7041
G0 F18000 X-36.5 Y-11.193
G1 F2400 X-36.5 Y10.375 E690.04908
G0 F18000 X-37 Y9.168
G1 F2400 X-37 Y-9.982 E691.24332
G0 F18000 X-37.5 Y-8.771
G1 F2400 X-37.5 Y7.962 E692.28678
G0 F18000 X-38 Y5.958
G1 F2400 X-38 Y-6.822 E693.08377
G0 F18000 X-38.5 Y-2.995
G1 F2400 X-38.5 Y2.196 E693.40743
; LAYER:2
M106 S153
G0 F18000 X-16.473 Y0.667 Z0.9
; TYPE:WALL-INNER
G1 F2400 X-15.965 Y2.358 E693.51753
G1 X-15.036 Y3.861 E693.62769
G1 X-13.75 Y5.072 E693.7378
G1 X-12.196 Y5.909 E693.84782
G1 X-10.476 Y6.315 E693.95797
G1 X-8.712 Y6.262 E694.06797
G1 X-7.02 Y5.754 E694.17808
G1 X-5.518 Y4.826 E694.28813
G1 X-4.306 Y3.54 E694.39829
G1 X-3.47 Y1.986 E694.50831
G1 X-3.063 Y0.266 E694.61852
G1 X-3.116 Y-1.497 E694.72851
G1 X-3.624 Y-3.188 E694.8387
G1 X-4.553 Y-4.69 E694.94893
G1 X-5.839 Y-5.902 E695.05922
G1 X-7.393 Y-6.738 E695.16935
G1 X-9.113 Y-7.145 E695.27965
G1 X-10.877 Y-7.092 E695.38977
G1 X-12.569 Y-6.584 E695.49998
G1 X-14.071 Y-5.655 E695.61014
G1 X-15.283 Y-4.37 E695.72029
G1 X-16.119 Y-2.814 E695.83042
G1 X-16.525 Y-1.096 E695.94047
G1 X-16.473 Y0.667 E696.0504
G0 F18000 X-38.041 Y7.154
G1 F2400 X-39.037 Y-0.414 E696.52643
G1 X-38.041 Y-7.983 E697.00258
G1 X-35.128 Y-15.017 E697.4774
G1 X-30.475 Y-21.091 E697.95458
G1 X-24.415 Y-25.74 E698.43088
G1 X-17.364 Y-28.661 E698.90681
G1 X-9.834 Y-29.652 E699.38039
G1 X-2.225 Y-28.661 E699.85885
G1 X4.825 Y-25.74 E700.33467
G1 X10.882 Y-21.092 E700.81076
G1 X15.529 Y-15.035 E701.28681
G1 X18.451 Y-7.977 E701.76313
G1 X19.447 Y-0.414 E702.23879
G1 X18.451 Y7.148 E702.71439
G1 X15.545 Y14.166 E703.18809
G1 X10.881 Y20.263 E703.66681
G1 X4.825 Y24.91 E704.14285
G1 X-2.225 Y27.831 E704.61875
G1 X-9.794 Y28.827 E705.09491
G1 X-17.364 Y27.831 E705.57113
G1 X-24.415 Y24.91 E706.04714
G1 X-30.473 Y20.262 E706.52337
G1 X-35.115 Y14.212 E706.99897
G1 X-38.041 Y7.154 E707.47547
G0 F18000 X-16.325 Y0.596
G0 X-16.325 Y0.596
G0 X-15.975 Y0.586
; TYPE:WALL-OUTER
G1 F2100 X-15.505 Y2.151 E707.57736
G1 X-14.645 Y3.542 E707.67931
G1 X-13.455 Y4.663 E707.78122
G1 X-12.017 Y5.438 E707.88304
G1 X-10.425 Y5.813 E707.98498
G1 X-8.793 Y5.764 E708.08674
G1 X-7.227 Y5.294 E708.18864
G1 X-5.837 Y4.435 E708.29049
G1 X-4.715 Y3.245 E708.39244
G1 X-3.941 Y1.807 E708.49425
G1 X-3.565 Y0.215 E708.59625
G1 X-3.614 Y-1.416 E708.69801
G1 X-4.084 Y-2.981 E708.8
G1 X-4.944 Y-4.371 E708.90202
G1 X-6.134 Y-5.493 E709.0041
G1 X-7.572 Y-6.267 E709.10603
G1 X-9.164 Y-6.643 E709.20812
G1 X-10.796 Y-6.594 E709.31
G1 X-12.362 Y-6.124 E709.412
G1 X-13.752 Y-5.264 E709.51396
G1 X-14.874 Y-4.075 E709.61591
G1 X-15.648 Y-2.635 E709.71783
G1 X-16.023 Y-1.045 E709.81967
G1 X-15.975 Y0.586 E709.92136
G1 F6600 E703.12136
G1 Z1.2
G0 F18000 X-16.325 Y0.596
G0 X-38.186 Y7.198
G0 X-38.186 Y7.198
G0 X-38.528 Y7.284
G1 Z0.9
G1 F6600 E709.92136
G1 F2100 X-39.542 Y-0.414 E710.40558
G1 X-38.528 Y-8.113 E710.88991
G1 X-35.565 Y-15.269 E711.37296
G1 X-30.83 Y-21.449 E711.85849
G1 X-24.67 Y-26.176 E712.3427
G1 X-17.494 Y-29.148 E712.82705
G1 X-9.834 Y-30.157 E713.30882
G1 X-2.096 Y-29.148 E713.7954
G1 X5.08 Y-26.176 E714.27969
G1 X11.239 Y-21.449 E714.76383
G1 X15.965 Y-15.29 E715.24792
G1 X18.938 Y-8.107 E715.73267
G1 X19.952 Y-0.414 E716.21651
G1 X18.938 Y7.278 E716.70029
G1 X15.982 Y14.418 E717.18222
G1 X11.236 Y20.621 E717.66929
G1 X5.08 Y25.346 E718.15324
G1 X-2.095 Y28.318 E718.63756
G1 X-9.794 Y29.332 E719.1219
G1 X-17.494 Y28.318 E719.6063
G1 X-24.67 Y25.346 E720.09074
G1 X-30.83 Y20.619 E720.57501
G1 X-35.551 Y14.467 E721.05866
G1 X-38.528 Y7.284 E721.54358
G0 F18000 X-37.869 Y7
; TYPE:FILL
G1 F2400 X18.278 Y6.999 E725.045
G0 F18000 X18.344 Y6.499
G1 F2400 X-10.331 Y6.5 E726.83325
G0 F18000 X-10.517 Y6.5
G1 F2400 X-37.935 Y6.5 E728.54317
G0 F18000 X-38.001 Y6
G1 F2400 X-12.427 Y6 E730.13798
G0 F18000 X-13.355 Y5.5
G1 F2400 X-38.066 Y5.5 E731.67909
G0 F18000 X-38.132 Y5
G1 F2400 X-14.102 Y5 E733.1776
G0 F18000 X-14.633 Y4.5
G1 F2400 X-38.198 Y4.5 E734.64724
G0 F18000 X-38.264 Y4
G1 F2400 X-15.164 Y4 E736.08776
G0 F18000 X-15.481 Y3.5
G1 F2400 X-38.33 Y3.5 E737.51275
G0 F18000 X-38.396 Y3
G1 F2400 X-15.79 Y3 E738.92246
G0 F18000 X-16.1 Y2.5
G1 F2400 X-38.462 Y2.5 E740.31708
G0 F18000 X-38.528 Y2
G1 F2400 X-16.271 Y2 E741.70502
G0 F18000 X-16.421 Y1.5
G1 F2400 X-38.594 Y1.5 E743.08785
G0 F18000 X-38.66 Y1
G1 F2400 X-16.571 Y1 E744.46532
G0 F18000 X-16.668 Y0.5
G1 F2400 X-38.726 Y0.5 E745.84098
G0 F18000 X-38.791 Y0
G1 F2400 X-16.683 Y0 E747.21963
G0 F18000 X-16.698 Y-0.499
G1 F2400 X-38.835 Y-0.499 E748.60022
G0 F18000 X-38.769 Y-0.999
G1 F2400 X-16.713 Y-0.999 E749.97563
G0 F18000 X-16.625 Y-1.499
G1 F2400 X-38.703 Y-1.499 E751.35254
G0 F18000 X-38.637 Y-1.999
G1 F2400 X-16.507 Y-1.999 E752.73256
G0 F18000 X-16.389 Y-2.499
G1 F2400 X-38.571 Y-2.499 E754.11596
G0 F18000 X-38.505 Y-2.999
G1 F2400 X-16.235 Y-2.999 E755.50471
G0 F18000 X-15.966 Y-3.499
G1 F2400 X-38.439 Y-3.499 E756.90625
G0 F18000 X-38.373 Y-3.999
G1 F2400 X-15.698 Y-3.999 E758.32027
G0 F18000 X-15.421 Y-4.499
G1 F2400 X-38.308 Y-4.499 E759.74763
G0 F18000 X-38.242 Y-4.999
G1 F2400 X-14.949 Y-4.999 E761.20018
G0 F18000 X-14.478 Y-5.499
G1 F2400 X-38.176 Y-5.499 E762.67811
G0 F18000 X-38.11 Y-5.999
G1 F2400 X-13.874 Y-5.999 E764.18948
G0 F18000 X-13.065 Y-6.499
G1 F2400 X-38.044 Y-6.499 E765.7473
G0 F18000 X-37.978 Y-6.999
G1 F2400 X-11.845 Y-6.999 E767.37696
G0 F18000 X-7.672 Y-6.999
G1 F2400 X18.387 Y-7 E769.00201
G0 F18000 X18.321 Y-7.5
G1 F2400 X-37.912 Y-7.499 E772.50885
G0 F18000 X-37.828 Y-7.999
G1 F2400 X18.235 Y-8 E776.00503
G0 F18000 X18.028 Y-8.5
G1 F2400 X-37.621 Y-8.499 E779.47546
G0 F18000 X-37.414 Y-8.999
G1 F2400 X17.821 Y-9 E782.92
G0 F18000 X17.614 Y-9.5
G1 F2400 X-37.207 Y-9.499 E786.33879
G0 F18000 X-37 Y-9.999
G1 F2400 X17.407 Y-10 E789.7317
G0 F18000 X17.2 Y-10.5
G1 F2400 X-36.792 Y-10.499 E793.09879
G0 F18000 X-36.585 Y-10.999
G1 F2400 X16.993 Y-11 E796.44
G0 F18000 X16.786 Y-11.5
G1 F2400 X-36.378 Y-11.499 E799.75545
G0 F18000 X-36.171 Y-11.999
G1 F2400 X16.579 Y-12 E803.04503
G0 F18000 X16.372 Y-12.5
G1 F2400 X-35.964 Y-12.499 E806.30884
G0 F18000 X-35.757 Y-12.999
G1 F2400 X16.165 Y-13 E809.54678
G0 F18000 X15.958 Y-13.5
G1 F2400 X-35.55 Y-13.499 E812.75896
G0 F18000 X-35.343 Y-13.999
G1 F2400 X15.751 Y-14 E815.94526
G0 F18000 X15.544 Y-14.5
G1 F2400 X-35.136 Y-14.499 E819.1058
G0 F18000 X-34.902 Y-14.999
G1 F2400 X15.315 Y-15 E822.23741
G0 F18000 X14.931 Y-15.5
G1 F2400 X-34.519 Y-15.499 E825.32125
G0 F18000 X-34.136 Y-15.999
G1 F2400 X14.548 Y-16 E828.35726
G0 F18000 X14.164 Y-16.5
G1 F2400 X-33.753 Y-16.499 E831.34549
G0 F18000 X-33.37 Y-16.999
G1 F2400 X13.781 Y-17 E834.2859
G0 F18000 X13.397 Y-17.5
G1 F2400 X-32.987 Y-17.499 E837.17853
G0 F18000 X-32.604 Y-17.999
G1 F2400 X13.014 Y-18 E840.02333
G0 F18000 X12.631 Y-18.5
G1 F2400 X-32.221 Y-18.499 E842.82043
G0 F18000 X-31.838 Y-18.999
G1 F2400 X12.247 Y-19 E845.56963
G0 F18000 X11.864 Y-19.5
G1 F2400 X-31.455 Y-19.499 E848.27112
G0 F18000 X-31.072 Y-19.999
G1 F2400 X11.48 Y-20 E850.92471
G0 F18000 X11.097 Y-20.5
G1 F2400 X-30.689 Y-20.499 E853.5306
G0 F18000 X-30.283 Y-20.999
G1 F2400 X10.69 Y-21 E856.08573
G0 F18000 X10.038 Y-21.5
G1 F2400 X-29.631 Y-21.5 E858.5596
G0 F18000 X-28.979 Y-22
G1 F2400 X9.387 Y-22 E860.95215
G0 F18000 X8.735 Y-22.5
G1 F2400 X-28.327 Y-22.5 E863.26344
G0 F18000 X-27.675 Y-23
G1 F2400 X8.083 Y-23 E865.49334
G0 F18000 X7.432 Y-23.5
G1 F2400 X-27.023 Y-23.5 E867.64205
G0 F18000 X-26.372 Y-24
G1 F2400 X6.78 Y-24 E869.70944
G0 F18000 X6.128 Y-24.5
G1 F2400 X-25.72 Y-24.5 E871.69557
G0 F18000 X-25.068 Y-25
G1 F2400 X5.477 Y-25 E873.60037
G0 F18000 X4.825 Y-25.5
G1 F2400 X-24.416 Y-25.5 E875.42392
G0 F18000 X-23.29 Y-26
G1 F2400 X3.699 Y-26 E877.10697
G0 F18000 X2.492 Y-26.5
G1 F2400 X-22.083 Y-26.5 E878.63953
G0 F18000 X-20.876 Y-27
G1 F2400 X1.285 Y-27 E880.02149
G0 F18000 X0.079 Y-27.5
G1 F2400 X-19.669 Y-27.5 E881.25303
G0 F18000 X-18.462 Y-28
G1 F2400 X-1.127 Y-28 E882.33403
G0 F18000 X-2.466 Y-28.5
G1 F2400 X-17.125 Y-28.5 E883.24827
G0 F18000 X-13.331 Y-29
G1 F2400 X-6.298 Y-29 E883.6868
G0 F18000 X-6.549 Y-6.5
G1 F2400 X18.453 Y-6.5 E885.24593
G0 F18000 X18.519 Y-6
G1 F2400 X-5.666 Y-6 E886.75417
G0 F18000 X-5.136 Y-5.5
G1 F2400 X18.585 Y-5.5 E888.23342
G0 F18000 X18.651 Y-5
G1 F2400 X-4.606 Y-5 E889.68379
G0 F18000 X-4.213 Y-4.5
G1 F2400 X18.717 Y-4.5 E891.11371
G0 F18000 X18.783 Y-4
G1 F2400 X-3.903 Y-3.999 E892.52847
G0 F18000 X-3.594 Y-3.5
G1 F2400 X18.849 Y-3.5 E893.92801
G0 F18000 X18.915 Y-3
G1 F2400 X-3.369 Y-3 E895.3177
G0 F18000 X-3.219 Y-2.5
G1 F2400 X18.981 Y-2.5 E896.70209
G0 F18000 X19.047 Y-2
G1 F2400 X-3.068 Y-1.999 E898.08125
G0 F18000 X-2.926 Y-1.499
G1 F2400 X19.113 Y-1.5 E899.4556
G0 F18000 X19.179 Y-1
G1 F2400 X-2.911 Y-0.999 E900.83319
G0 F18000 X-2.896 Y-0.499
G1 F2400 X19.245 Y-0.5 E902.2139
G0 F18000 X19.202 Y0
G1 F2400 X-2.881 Y0 E903.59106
G0 F18000 X-2.923 Y0.5
G1 F2400 X19.136 Y0.499 E904.96666
G0 F18000 X19.07 Y0.999
G1 F2400 X-3.041 Y1 E906.34556
G0 F18000 X-3.159 Y1.5
G1 F2400 X19.004 Y1.499 E907.72764
G0 F18000 X18.938 Y1.999
G1 F2400 X-3.277 Y2 E909.11303
G0 F18000 X-3.53 Y2.5
G1 F2400 X18.872 Y2.499 E910.51002
G0 F18000 X18.806 Y2.999
G1 F2400 X-3.8 Y3 E911.91979
G0 F18000 X-4.069 Y3.5
G1 F2400 X18.74 Y3.499 E913.34216
G0 F18000 X18.674 Y3.999
G1 F2400 X-4.48 Y4 E914.78611
G0 F18000 X-4.951 Y4.5
G1 F2400 X18.608 Y4.499 E916.25525
G0 F18000 X18.542 Y4.999
G1 F2400 X-5.439 Y5 E917.75077
G0 F18000 X-6.248 Y5.5
G1 F2400 X18.476 Y5.499 E919.29256
G0 F18000 X18.41 Y5.999
G1 F2400 X-7.178 Y6 E920.8883
G0 F18000 X1.696 Y26
G1 F2400 X-21.286 Y26 E922.32152
G0 F18000 X-22.493 Y25.5
G1 F2400 X2.903 Y25.5 E923.90523
G0 F18000 X4.11 Y25
G1 F2400 X-23.701 Y25 E925.6396
G0 F18000 X-24.638 Y24.5
G1 F2400 X5.047 Y24.5 E927.49077
G0 F18000 X5.698 Y24
G1 F2400 X-25.289 Y24 E929.42321
G0 F18000 X-25.941 Y23.5
G1 F2400 X6.35 Y23.5 E931.4369
G0 F18000 X7.002 Y23
G1 F2400 X-26.593 Y23 E933.53198
G0 F18000 X-27.244 Y22.5
G1 F2400 X7.653 Y22.5 E935.70819
G0 F18000 X8.305 Y22
G1 F2400 X-27.896 Y22 E937.96578
G0 F18000 X-28.547 Y21.5
G1 F2400 X8.957 Y21.5 E940.30457
G0 F18000 X9.608 Y21
G1 F2400 X-29.199 Y21 E942.72468
G0 F18000 X-29.851 Y20.5
G1 F2400 X10.26 Y20.5 E945.22605
G0 F18000 X10.841 Y20
G1 F2400 X-30.435 Y20 E947.80014
G0 F18000 X-30.818 Y19.5
G1 F2400 X11.224 Y19.5 E950.42193
G0 F18000 X11.607 Y19
G1 F2400 X-31.202 Y19 E953.09162
G0 F18000 X-31.585 Y18.5
G1 F2400 X11.989 Y18.5 E955.80895
G0 F18000 X12.372 Y18
G1 F2400 X-31.969 Y18 E958.57418
G0 F18000 X-32.353 Y17.5
G1 F2400 X12.754 Y17.5 E961.38711
G0 F18000 X13.137 Y17
G1 F2400 X-32.736 Y17 E964.24788
G0 F18000 X-33.12 Y16.5
G1 F2400 X13.519 Y16.5 E967.15635
G0 F18000 X13.902 Y16
G1 F2400 X-33.503 Y16 E970.11266
G0 F18000 X-33.887 Y15.5
G1 F2400 X14.284 Y15.5 E973.11667
G0 F18000 X14.667 Y15
G1 F2400 X-34.271 Y15 E976.16858
G0 F18000 X-34.654 Y14.5
G1 F2400 X15.049 Y14.499 E979.26813
G0 F18000 X15.408 Y13.999
G1 F2400 X-34.996 Y14 E982.41147
G0 F18000 X-35.204 Y13.5
G1 F2400 X15.615 Y13.499 E985.58062
G0 F18000 X15.822 Y12.999
G1 F2400 X-35.411 Y13 E988.77565
G0 F18000 X-35.618 Y12.5
G1 F2400 X16.029 Y12.499 E991.99643
G0 F18000 X16.236 Y11.999
G1 F2400 X-35.826 Y12 E995.24316
G0 F18000 X-36.033 Y11.5
G1 F2400 X16.443 Y11.499 E998.51565
G0 F18000 X16.65 Y10.999
G1 F2400 X-36.24 Y11 E1001.81402
G0 F18000 X-36.447 Y10.5
G1 F2400 X16.857 Y10.499 E1005.13814
G0 F18000 X17.064 Y9.999
G1 F2400 X-36.655 Y10 E1008.4882
G0 F18000 X-36.862 Y9.5
G1 F2400 X17.271 Y9.499 E1011.86402
G0 F18000 X17.478 Y8.999
G1 F2400 X-37.069 Y9 E1015.26572
G0 F18000 X-37.276 Y8.5
G1 F2400 X17.685 Y8.499 E1018.69318
G0 F18000 X17.892 Y7.999
G1 F2400 X-37.484 Y8 E1022.14658
G0 F18000 X-37.691 Y7.5
G1 F2400 X18.099 Y7.499 E1025.62574
G0 F18000 X0.489 Y26.5
G1 F2400 X-20.079 Y26.5 E1026.90841
G0 F18000 X-18.872 Y27
G1 F2400 X-0.716 Y27 E1028.04061
G0 F18000 X-1.923 Y27.5
G1 F2400 X-17.665 Y27.5 E1029.02239
G0 F18000 X-14.62 Y28
G1 F2400 X-4.967 Y28 E1029.62431
G0 F18000 X-8.761 Y28.5
G1 F2400 X-10.825 Y28.5 E1029.75309
; LAYER:3
G0 F18000 X-10.476 Y6.315 Z1.2
; TYPE:WALL-INNER
G1 F2400 X-8.712 Y6.262 E1029.86309
G1 X-7.02 Y5.754 E1029.9732
G1 X-5.518 Y4.826 E1030.08325
G1 X-4.306 Y3.54 E1030.19341
G1 X-3.47 Y1.986 E1030.30342
G1 X-3.063 Y0.266 E1030.41364
G1 X-3.116 Y-1.497 E1030.52363
G1 X-3.624 Y-3.188 E1030.63382
G1 X-4.553 Y-4.69 E1030.74405
G1 X-5.839 Y-5.902 E1030.85434
G1 X-7.393 Y-6.738 E1030.96447
G1 X-9.113 Y-7.145 E1031.07477
G1 X-10.877 Y-7.092 E1031.18489
G1 X-12.569 Y-6.584 E1031.2951
G1 X-14.071 Y-5.655 E1031.40526
G1 X-15.283 Y-4.37 E1031.51541
G1 X-16.119 Y-2.814 E1031.62554
G1 X-16.525 Y-1.096 E1031.73559
G1 X-16.473 Y0.667 E1031.84551
G1 X-15.965 Y2.358 E1031.95561
G1 X-15.036 Y3.861 E1032.06577
G1 X-13.75 Y5.072 E1032.17588
G1 X-12.196 Y5.909 E1032.2859
G1 X-10.476 Y6.315 E1032.39605
G0 F18000 X-9.794 Y28.827
G1 F2400 X-17.364 Y27.831 E1032.87227
G1 X-24.415 Y24.91 E1033.34828
G1 X-30.473 Y20.262 E1033.82451
G1 X-35.112 Y14.215 E1034.29985
G1 X-38.041 Y7.154 E1034.7766
G1 X-39.037 Y-0.414 E1035.25264
G1 X-38.041 Y-7.983 E1035.72878
G1 X-35.132 Y-15.005 E1036.20282
G1 X-30.472 Y-21.093 E1036.68095
G1 X-24.415 Y-25.74 E1037.15703
G1 X-17.364 Y-28.661 E1037.63296
G1 X-9.85 Y-29.649 E1038.10553
G1 X-2.225 Y-28.661 E1038.58495
G1 X4.825 Y-25.74 E1039.06077
G1 X10.882 Y-21.092 E1039.53686
G1 X15.529 Y-15.035 E1040.01291
G1 X18.451 Y-7.975 E1040.48935
G1 X19.447 Y-0.414 E1040.96489
G1 X18.451 Y7.145 E1041.4403
G1 X15.533 Y14.196 E1041.91619
G1 X10.884 Y20.261 E1042.39275
G1 X4.825 Y24.91 E1042.86902
G1 X-2.225 Y27.831 E1043.34492
G1 X-9.794 Y28.827 E1043.82107
G0 F18000 X-10.505 Y6.153
G0 X-10.505 Y6.153
G0 X-10.425 Y5.813
; TYPE:WALL-OUTER
G1 F2100 X-8.793 Y5.764 E1043.92283
G1 X-7.227 Y5.294 E1044.02474
G1 X-5.837 Y4.435 E1044.12659
G1 X-4.715 Y3.245 E1044.22854
G1 X-3.941 Y1.807 E1044.33035
G1 X-3.565 Y0.215 E1044.43235
G1 X-3.614 Y-1.416 E1044.53411
G1 X-4.084 Y-2.981 E1044.63609
G1 X-4.944 Y-4.371 E1044.73811
G1 X-6.134 Y-5.493 E1044.8402
G1 X-7.572 Y-6.267 E1044.94213
G1 X-9.164 Y-6.643 E1045.04421
G1 X-10.796 Y-6.594 E1045.1461
G1 X-12.362 Y-6.124 E1045.2481
G1 X-13.752 Y-5.264 E1045.35006
G1 X-14.874 Y-4.075 E1045.45201
G1 X-15.648 Y-2.635 E1045.55393
G1 X-16.023 Y-1.045 E1045.65576
G1 X-15.975 Y0.586 E1045.75746
G1 X-15.505 Y2.151 E1045.85934
G1 X-14.645 Y3.542 E1045.9613
G1 X-13.455 Y4.663 E1046.06321
G1 X-12.017 Y5.438 E1046.16502
G1 X-10.425 Y5.813 E1046.26696
G1 F6600 E1039.46696
G1 Z1.5
G0 F18000 X-10.505 Y6.153
G0 X-9.79 Y28.979
G0 X-9.79 Y28.979
G0 X-9.794 Y29.332
G1 Z1.2
G1 F6600 E1046.26696
G1 F2100 X-17.494 Y28.318 E1046.75136
G1 X-24.67 Y25.346 E1047.2358
G1 X-30.83 Y20.619 E1047.72007
G1 X-35.548 Y14.47 E1048.20345
G1 X-38.528 Y7.284 E1048.68862
G1 X-39.542 Y-0.414 E1049.17284
G1 X-38.528 Y-8.113 E1049.65717
G1 X-35.569 Y-15.257 E1050.13943
G1 X-30.827 Y-21.451 E1050.62592
G1 X-24.67 Y-26.176 E1051.10991
G1 X-17.494 Y-29.148 E1051.59426
G1 X-9.851 Y-30.154 E1052.07495
G1 X-2.095 Y-29.148 E1052.56262
G1 X5.08 Y-26.176 E1053.04686
G1 X11.239 Y-21.449 E1053.531
G1 X15.965 Y-15.29 E1054.01509
G1 X18.938 Y-8.104 E1054.50001
G1 X19.952 Y-0.414 E1054.98366
G1 X18.938 Y7.275 E1055.46726
G1 X15.97 Y14.448 E1055.95137
G1 X11.239 Y20.619 E1056.43629
G1 X5.08 Y25.346 E1056.92047
G1 X-2.095 Y28.318 E1057.40479
G1 X-9.794 Y29.332 E1057.88913
G0 F18000 X-9.999 Y28.609
; TYPE:FILL
G1 F2400 X-10 Y6.49 E1059.26853
G0 F18000 X-10 Y6.49
G1 F2400 X-10 Y6.859 E1059.29154
G0 F18000 X-10.5 Y6.504
G1 F2400 X-10.499 Y28.543 E1060.66595
G0 F18000 X-10.999 Y28.477
G1 F2400 X-11 Y6.386 E1062.04361
G0 F18000 X-11.5 Y6.268
G1 F2400 X-11.499 Y28.411 E1063.42451
G0 F18000 X-11.999 Y28.345
G1 F2400 X-12 Y6.15 E1064.80865
G0 F18000 X-12 Y6.15
G1 F2400 X-12 Y6.53 E1064.83235
G0 F18000 X-12.5 Y5.961
G1 F2400 X-12.499 Y28.279 E1066.22416
G0 F18000 X-12.999 Y28.213
G1 F2400 X-13 Y5.691 E1067.62869
G0 F18000 X-13.5 Y5.422
G1 F2400 X-13.499 Y28.147 E1069.04589
G0 F18000 X-13.999 Y28.081
G1 F2400 X-14 Y5.096 E1070.4793
G0 F18000 X-14 Y5.096
G1 F2400 X-14 Y5.573 E1070.50904
G0 F18000 X-14.5 Y4.625
G1 F2400 X-14.499 Y28.015 E1071.96771
G0 F18000 X-14.999 Y27.949
G1 F2400 X-15 Y4.154 E1073.45163
G0 F18000 X-15.5 Y3.47
G1 F2400 X-15.499 Y27.883 E1074.97409
G0 F18000 X-15.999 Y27.817
G1 F2400 X-16 Y2.661 E1076.54289
G0 F18000 X-16 Y2.661
G1 F2400 X-16 Y3.365 E1076.58679
G0 F18000 X-16.5 Y1.237
G1 F2400 X-16.499 Y27.751 E1078.24028
G0 F18000 X-16.999 Y27.686
G1 F2400 X-17 Y-28.515 E1081.74513
G0 F18000 X-16.5 Y-28.581
G1 F2400 X-16.5 Y-2.029 E1083.40092
G0 F18000 X-16 Y-3.436
G1 F2400 X-16 Y-28.647 E1084.97321
G0 F18000 X-16 Y-28.647
G1 F2400 X-16 Y-28.275 E1084.99635
G0 F18000 X-15.5 Y-28.713
G1 F2400 X-15.5 Y-4.367 E1086.51457
G0 F18000 X-16 Y-4.217
G1 F2400 X-16 Y-3.436 E1086.56321
G0 F18000 X-15 Y-4.945
G1 F2400 X-15 Y-28.779 E1088.04963
G0 F18000 X-14.5 Y-28.846
G1 F2400 X-14.5 Y-5.475 E1089.50704
G0 F18000 X-14 Y-5.921
G1 F2400 X-14 Y-28.911 E1090.94083
G0 F18000 X-14 Y-28.911
G1 F2400 X-14 Y-28.539 E1090.96396
G0 F18000 X-13.5 Y-28.977
G1 F2400 X-13.5 Y-6.23 E1092.38247
G0 F18000 X-14 Y-6.357
G1 F2400 X-14 Y-5.921 E1092.40959
G0 F18000 X-13 Y-6.539
G1 F2400 X-13 Y-29.043 E1093.81307
G0 F18000 X-12.5 Y-29.109
G1 F2400 X-12.5 Y-6.803 E1095.20407
G0 F18000 X-12 Y-6.953
G1 F2400 X-12 Y-29.175 E1096.58996
G0 F18000 X-12 Y-29.175
G1 F2400 X-12 Y-28.802 E1096.61316
G0 F18000 X-11.5 Y-29.24
G1 F2400 X-11.5 Y-7.103 E1097.99362
G0 F18000 X-11 Y-7.253
G1 F2400 X-11 Y-29.306 E1099.36897
G0 F18000 X-10.5 Y-29.372
G1 F2400 X-10.5 Y-7.292 E1100.74587
G0 F18000 X-10 Y-7.308
G1 F2400 X-10 Y-29.438 E1102.12602
G0 F18000 X-10 Y-29.438
G1 F2400 X-10 Y-29.066 E1102.14916
G0 F18000 X-9.5 Y-29.413
G1 F2400 X-9.5 Y-7.323 E1103.52669
G0 F18000 X-9 Y-7.313
G1 F2400 X-9 Y-29.348 E1104.90092
G0 F18000 X-8.5 Y-29.283
G1 F2400 X-8.5 Y-7.195 E1106.27832
G0 F18000 X-8 Y-7.077
G1 F2400 X-8 Y-29.218 E1107.65916
G0 F18000 X-8 Y-29.218
G1 F2400 X-8 Y-28.857 E1107.68161
G0 F18000 X-7.5 Y-29.153
G1 F2400 X-7.5 Y-6.959 E1109.06563
G0 F18000 X-8 Y-7.077
G1 F2400 X-8 Y-7.457 E1109.08939
G0 F18000 X-7 Y-6.743
G1 F2400 X-7 Y-29.088 E1110.48294
G0 F18000 X-6.5 Y-29.024
G1 F2400 X-6.5 Y-6.473 E1111.88922
G0 F18000 X-6 Y-6.624
G1 F2400 X-6 Y-6.204 E1111.91535
G0 F18000 X-6 Y-6.204
G1 F2400 X-6 Y-28.959 E1113.33448
G0 F18000 X-6 Y-28.959
G1 F2400 X-6 Y-28.594 E1113.35718
G0 F18000 X-5.5 Y-28.894
G1 F2400 X-5.5 Y-5.843 E1114.79464
G0 F18000 X-5 Y-5.372
G1 F2400 X-5 Y-28.829 E1116.25755
G0 F18000 X-4.5 Y-28.764
G1 F2400 X-4.5 Y-4.9 E1117.74571
G0 F18000 X-4 Y-4.862
G1 F2400 X-4 Y-4.157 E1117.78961
G0 F18000 X-4 Y-4.157
G1 F2400 X-4 Y-28.699 E1119.32018
G0 F18000 X-4 Y-28.699
G1 F2400 X-4 Y-28.33 E1119.34313
G0 F18000 X-3.5 Y-28.634
G1 F2400 X-3.5 Y-3.349 E1120.91991
G0 F18000 X-3 Y-1.772
G1 F2400 X-3 Y-28.569 E1122.59111
G0 F18000 X-2.5 Y-28.504
G1 F2400 X-2.499 Y27.675 E1126.09452
G0 F18000 X-2.999 Y27.741
G1 F2400 X-3 Y0.826 E1127.77302
G0 F18000 X-3.499 Y2.443
G1 F2400 X-3.499 Y27.807 E1129.35479
G0 F18000 X-3.999 Y27.872
G1 F2400 X-3.999 Y3.371 E1130.88274
G0 F18000 X-3.999 Y3.371
G1 F2400 X-3.999 Y4.031 E1130.9239
G0 F18000 X-4.499 Y4.021
G1 F2400 X-4.499 Y27.938 E1132.41543
G0 F18000 X-4.999 Y28.004
G1 F2400 X-4.999 Y4.552 E1133.87796
G0 F18000 X-5.499 Y5.037
G1 F2400 X-5.499 Y28.07 E1135.31436
G0 F18000 X-5.999 Y28.136
G1 F2400 X-5.999 Y5.346 E1136.73561
G0 F18000 X-5.999 Y5.346
G1 F2400 X-5.999 Y5.781 E1136.76273
G0 F18000 X-6.499 Y5.655
G1 F2400 X-6.499 Y28.202 E1138.16883
G0 F18000 X-6.999 Y28.268
G1 F2400 X-6.999 Y5.946 E1139.56089
G0 F18000 X-7.499 Y6.096
G1 F2400 X-7.499 Y28.334 E1140.94771
G0 F18000 X-7.999 Y28.4
G1 F2400 X-7.999 Y6.246 E1142.3293
G0 F18000 X-7.999 Y6.246
G1 F2400 X-7.999 Y6.633 E1142.35343
G0 F18000 X-8.5 Y6.396
G1 F2400 X-8.499 Y28.465 E1143.72971
G0 F18000 X-7.999 Y28.4
G1 F2400 X-7.999 Y28.024 E1143.75316
G0 F18000 X-8.999 Y28.531
G1 F2400 X-9 Y6.46 E1145.12957
G0 F18000 X-9.5 Y6.475
G1 F2400 X-9.499 Y28.597 E1146.50916
G0 F18000 X-9.999 Y28.609
G1 F2400 X-9.999 Y28.236 E1146.53242
G0 F18000 X-11.999 Y28.345
G1 F2400 X-11.999 Y27.973 E1146.55562
G0 F18000 X-13.999 Y28.081
G1 F2400 X-13.999 Y27.709 E1146.57882
G0 F18000 X-15.999 Y27.817
G1 F2400 X-15.999 Y27.446 E1146.60196
G0 F18000 X-17.499 Y27.567
G1 F2400 X-17.5 Y-28.397 E1150.09202
G0 F18000 X-18 Y-28.19
G1 F2400 X-17.999 Y27.36 E1153.55621
G0 F18000 X-17.999 Y27.36
G1 F2400 X-17.999 Y26.961 E1153.5811
G0 F18000 X-18.499 Y27.153
G1 F2400 X-18.5 Y-27.983 E1157.01953
G0 F18000 X-18 Y-27.79
G1 F2400 X-18 Y-28.19 E1157.04454
G0 F18000 X-19 Y-27.776
G1 F2400 X-18.999 Y26.946 E1160.45709
G0 F18000 X-19.499 Y26.739
G1 F2400 X-19.5 Y-27.569 E1163.84388
G0 F18000 X-20 Y-27.361
G1 F2400 X-19.999 Y26.532 E1167.20474
G0 F18000 X-19.999 Y26.532
G1 F2400 X-19.999 Y26.132 E1167.22968
G0 F18000 X-20.499 Y26.325
G1 F2400 X-20.5 Y-27.154 E1170.56478
G0 F18000 X-20 Y-26.961
G1 F2400 X-20 Y-27.361 E1170.58979
G0 F18000 X-21 Y-26.947
G1 F2400 X-20.999 Y26.118 E1173.89901
G0 F18000 X-21.499 Y25.911
G1 F2400 X-21.5 Y-26.74 E1177.18247
G0 F18000 X-22 Y-26.533
G1 F2400 X-21.999 Y25.703 E1180.43999
G0 F18000 X-21.999 Y25.703
G1 F2400 X-21.999 Y25.304 E1180.46487
G0 F18000 X-22.499 Y25.496
G1 F2400 X-22.5 Y-26.326 E1183.69663
G0 F18000 X-22 Y-26.132
G1 F2400 X-22 Y-26.533 E1183.7217
G0 F18000 X-23 Y-26.119
G1 F2400 X-22.999 Y25.289 E1186.92758
G0 F18000 X-23.499 Y25.082
G1 F2400 X-23.5 Y-25.912 E1190.10771
G0 F18000 X-24 Y-25.705
G1 F2400 X-23.999 Y24.875 E1193.26195
G0 F18000 X-23.999 Y24.875
G1 F2400 X-23.999 Y24.475 E1193.2869
G0 F18000 X-24.499 Y24.605
G1 F2400 X-24.5 Y-25.434 E1196.40747
G0 F18000 X-24 Y-25.303
G1 F2400 X-24 Y-25.705 E1196.4326
G0 F18000 X-25 Y-25.05
G1 F2400 X-24.999 Y24.221 E1199.50521
G0 F18000 X-25.499 Y23.838
G1 F2400 X-25.5 Y-24.667 E1202.53012
G0 F18000 X-26 Y-24.283
G1 F2400 X-25.999 Y23.454 E1205.50707
G0 F18000 X-25.999 Y23.454
G1 F2400 X-25.999 Y22.98 E1205.53663
G0 F18000 X-26.499 Y23.07
G1 F2400 X-26.5 Y-23.9 E1208.46581
G0 F18000 X-26 Y-23.815
G1 F2400 X-26 Y-24.283 E1208.49506
G0 F18000 X-27 Y-23.516
G1 F2400 X-26.999 Y22.687 E1211.37634
G0 F18000 X-27.499 Y22.303
G1 F2400 X-27.5 Y-23.132 E1214.20979
G0 F18000 X-28 Y-22.749
G1 F2400 X-27.999 Y21.92 E1216.99541
G0 F18000 X-27.999 Y21.92
G1 F2400 X-27.999 Y21.439 E1217.02541
G0 F18000 X-28.499 Y21.536
G1 F2400 X-28.5 Y-22.365 E1219.76319
G0 F18000 X-28 Y-22.28
G1 F2400 X-28 Y-22.749 E1219.7925
G0 F18000 X-29 Y-21.982
G1 F2400 X-28.999 Y21.152 E1222.4824
G0 F18000 X-29.499 Y20.769
G1 F2400 X-29.5 Y-21.598 E1225.12452
G0 F18000 X-30 Y-21.214
G1 F2400 X-29.999 Y20.385 E1227.71869
G0 F18000 X-29.999 Y20.385
G1 F2400 X-29.999 Y19.899 E1227.74899
G0 F18000 X-30.499 Y19.915
G1 F2400 X-30.5 Y-20.741 E1230.28441
G0 F18000 X-30 Y-20.746
G1 F2400 X-30 Y-21.214 E1230.31366
G0 F18000 X-31 Y-20.088
G1 F2400 X-30.999 Y19.263 E1232.76764
G0 F18000 X-31.499 Y18.611
G1 F2400 X-31.5 Y-19.435 E1235.14029
G0 F18000 X-32 Y-18.781
G1 F2400 X-31.999 Y17.959 E1237.43144
G0 F18000 X-31.999 Y17.959
G1 F2400 X-31.999 Y17.347 E1237.4696
G0 F18000 X-32.499 Y17.307
G1 F2400 X-32.5 Y-18.128 E1239.67943
G0 F18000 X-32 Y-18.178
G1 F2400 X-32 Y-18.781 E1239.71709
G0 F18000 X-33 Y-17.475
G1 F2400 X-33 Y16.656 E1241.84553
G0 F18000 X-33.5 Y16.004
G1 F2400 X-33.5 Y-16.822 E1243.89265
G0 F18000 X-34 Y-16.169
G1 F2400 X-34 Y15.352 E1245.85833
G0 F18000 X-34 Y15.352
G1 F2400 X-34 Y14.734 E1245.89687
G0 F18000 X-34.5 Y14.7
G1 F2400 X-34.5 Y-15.516 E1247.78122
G0 F18000 X-34 Y-15.572
G1 F2400 X-34 Y-16.169 E1247.81851
G0 F18000 X-35 Y-14.825
G1 F2400 X-35 Y13.987 E1249.61525
G0 F18000 X-35.5 Y12.782
G1 F2400 X-35.5 Y-13.618 E1251.26162
G0 F18000 X-36 Y-12.411
G1 F2400 X-36 Y11.576 E1252.75746
G0 F18000 X-36 Y11.576
G1 F2400 X-36 Y10.608 E1252.81782
G0 F18000 X-36.5 Y10.371
G1 F2400 X-36.5 Y-11.204 E1254.1633
G0 F18000 X-36 Y-11.434
G1 F2400 X-36 Y-12.411 E1254.22429
G0 F18000 X-37 Y-9.997
G1 F2400 X-37 Y9.165 E1255.41922
G0 F18000 X-37.5 Y7.96
G1 F2400 X-37.5 Y-8.79 E1256.4638
G0 F18000 X-38 Y-6.833
G1 F2400 X-38 Y6.004 E1257.26429
G0 F18000 X-38 Y6.004
G1 F2400 X-38 Y3.15 E1257.44227
G0 F18000 X-38.5 Y2.211
G1 F2400 X-38.5 Y-3.039 E1257.76968
G0 F18000 X-38 Y-4.016
G1 F2400 X-38 Y-6.833 E1257.94541
G0 F18000 X-12 Y-6.953
G1 F2400 X-12 Y-7.339 E1257.96955
G0 F18000 X-10 Y-7.308
G1 F2400 X-10 Y-7.677 E1257.99262
G0 F18000 X-2 Y-27.962
G1 F2400 X-2 Y-28.362 E1258.01763
G0 F18000 X-2 Y-28.362
G1 F2400 X-1.999 Y27.531 E1261.50321
G0 F18000 X-1.999 Y27.531
G1 F2400 X-1.999 Y27.133 E1261.52803
G0 F18000 X-1.499 Y27.324
G1 F2400 X-1.5 Y-28.155 E1264.98785
G0 F18000 X-1 Y-27.948
G1 F2400 X-0.999 Y27.117 E1268.4218
G0 F18000 X-0.499 Y26.91
G1 F2400 X-0.5 Y-27.74 E1271.82992
G0 F18000 X0 Y-27.533
G1 F2400 X0 Y26.703 E1275.21216
G0 F18000 X0 Y26.703
G1 F2400 X0 Y26.304 E1275.23705
G0 F18000 X0.5 Y26.496
G1 F2400 X0.499 Y-27.326 E1278.59353
G0 F18000 X0 Y-27.133
G1 F2400 X0 Y-27.533 E1278.61854
G0 F18000 X0.999 Y-27.119
G1 F2400 X1 Y26.288 E1281.94909
G0 F18000 X1.5 Y26.081
G1 F2400 X1.499 Y-26.912 E1285.25388
G0 F18000 X1.999 Y-26.705
G1 F2400 X2 Y25.874 E1288.53279
G0 F18000 X2 Y25.874
G1 F2400 X2 Y25.474 E1288.55773
G0 F18000 X2.5 Y25.667
G1 F2400 X2.499 Y-26.497 E1291.81082
G0 F18000 X1.999 Y-26.304
G1 F2400 X1.999 Y-26.705 E1291.83589
G0 F18000 X2.999 Y-26.29
G1 F2400 X3 Y25.46 E1295.0631
G0 F18000 X3.5 Y25.253
G1 F2400 X3.499 Y-26.083 E1298.26456
G0 F18000 X3.999 Y-25.876
G1 F2400 X4 Y25.045 E1301.44007
G0 F18000 X4 Y25.045
G1 F2400 X4 Y24.645 E1301.46501
G0 F18000 X4.5 Y24.838
G1 F2400 X4.499 Y-25.669 E1304.61477
G0 F18000 X3.999 Y-25.474
G1 F2400 X3.999 Y-25.876 E1304.6399
G0 F18000 X4.999 Y-25.367
G1 F2400 X5 Y24.536 E1307.75193
G0 F18000 X5.5 Y24.152
G1 F2400 X5.499 Y-24.983 E1310.81612
G0 F18000 X5.999 Y-24.599
G1 F2400 X6 Y23.769 E1313.83242
G0 F18000 X6 Y23.769
G1 F2400 X6 Y23.3 E1313.86167
G0 F18000 X6.5 Y23.385
G1 F2400 X6.499 Y-24.216 E1316.8302
G0 F18000 X5.999 Y-24.128
G1 F2400 X5.999 Y-24.599 E1316.85963
G0 F18000 X6.999 Y-23.832
G1 F2400 X7 Y23.001 E1319.7802
G0 F18000 X7.5 Y22.618
G1 F2400 X7.499 Y-23.448 E1322.65301
G0 F18000 X7.999 Y-23.065
G1 F2400 X8 Y22.234 E1325.47791
G0 F18000 X8 Y22.234
G1 F2400 X8 Y21.766 E1325.5071
G0 F18000 X8.5 Y21.851
G1 F2400 X8.499 Y-22.681 E1328.28424
G0 F18000 X7.999 Y-22.59
G1 F2400 X7.999 Y-23.065 E1328.31392
G0 F18000 X8.999 Y-22.297
G1 F2400 X9 Y21.467 E1331.0431
G0 F18000 X9.5 Y21.083
G1 F2400 X9.499 Y-21.914 E1333.72452
G0 F18000 X9.999 Y-21.53
G1 F2400 X10 Y20.7 E1336.35803
G0 F18000 X10 Y20.7
G1 F2400 X10 Y20.232 E1336.38722
G0 F18000 X10.5 Y20.316
G1 F2400 X10.499 Y-21.147 E1338.97297
G0 F18000 X9.999 Y-21.052
G1 F2400 X9.999 Y-21.53 E1339.00284
G0 F18000 X10.999 Y-20.627
G1 F2400 X11 Y19.797 E1341.52373
G0 F18000 X11.5 Y19.145
G1 F2400 X11.499 Y-19.975 E1343.96336
G0 F18000 X11.999 Y-19.323
G1 F2400 X12 Y18.492 E1346.32154
G0 F18000 X12 Y18.492
G1 F2400 X12 Y17.883 E1346.35952
G0 F18000 X12.5 Y17.84
G1 F2400 X12.499 Y-18.671 E1348.63645
G0 F18000 X11.999 Y-18.713
G1 F2400 X11.999 Y-19.323 E1348.67455
G0 F18000 X12.999 Y-18.02
G1 F2400 X13 Y17.188 E1350.87016
G0 F18000 X13.5 Y16.535
G1 F2400 X13.499 Y-17.368 E1352.98444
G0 F18000 X13.999 Y-16.716
G1 F2400 X14 Y15.882 E1355.01728
G0 F18000 X14 Y15.882
G1 F2400 X14 Y15.274 E1355.0552
G0 F18000 X14.5 Y15.23
G1 F2400 X14.499 Y-16.064 E1357.00678
G0 F18000 X13.999 Y-16.105
G1 F2400 X13.999 Y-16.716 E1357.04494
G0 F18000 X14.999 Y-15.412
G1 F2400 X15 Y14.577 E1358.91508
G0 F18000 X15.5 Y13.775
G1 F2400 X15.499 Y-14.607 E1360.68506
G0 F18000 X15.999 Y-13.398
G1 F2400 X16 Y12.567 E1362.30424
G0 F18000 X16 Y12.567
G1 F2400 X16 Y11.587 E1362.36536
G0 F18000 X16.5 Y11.359
G1 F2400 X16.5 Y-12.19 E1363.83394
G0 F18000 X15.999 Y-12.431
G1 F2400 X15.999 Y-13.398 E1363.89431
G0 F18000 X17 Y-10.982
G1 F2400 X17 Y10.151 E1365.21216
G0 F18000 X17.5 Y8.943
G1 F2400 X17.5 Y-9.774 E1366.3794
G0 F18000 X18 Y-8.565
G1 F2400 X18 Y7.735 E1367.39585
G0 F18000 X18 Y7.735
G1 F2400 X18 Y6.224 E1367.49008
G0 F18000 X18.5 Y5.314
G1 F2400 X18.5 Y-6.144 E1368.20463
G0 F18000 X18 Y-7.119
G1 F2400 X18 Y-8.565 E1368.29487
G0 F18000 X19 Y-2.354
G1 F2400 X19 Y1.526 E1368.53678
G0 F18000 X-3.999 Y27.5
G1 F2400 X-3.999 Y27.872 E1368.55998
G0 F18000 X-5.999 Y27.762
G1 F2400 X-5.999 Y28.136 E1368.5833
; LAYER:4
G0 F18000 X-8.712 Y6.262 Z1.5
; TYPE:WALL-INNER
G1 F2400 X-7.02 Y5.754 E1368.69341
G1 X-5.518 Y4.826 E1368.80346
G1 X-4.306 Y3.54 E1368.91362
G1 X-3.47 Y1.986 E1369.02364
G1 X-3.063 Y0.266 E1369.13385
G1 X-3.116 Y-1.497 E1369.24385
G1 X-3.624 Y-3.188 E1369.35404
G1 X-4.553 Y-4.69 E1369.46426
G1 X-5.839 Y-5.902 E1369.57455
G1 X-7.393 Y-6.738 E1369.68468
G1 X-9.113 Y-7.145 E1369.79498
G1 X-10.877 Y-7.092 E1369.9051
G1 X-12.569 Y-6.584 E1370.01531
G1 X-14.071 Y-5.655 E1370.12547
G1 X-15.283 Y-4.37 E1370.23563
G1 X-16.119 Y-2.814 E1370.34576
G1 X-16.525 Y-1.096 E1370.4558
G1 X-16.473 Y0.667 E1370.56573
G1 X-15.965 Y2.358 E1370.67582
G1 X-15.036 Y3.861 E1370.78598
G1 X-13.75 Y5.072 E1370.89609
G1 X-12.196 Y5.909 E1371.00611
G1 X-10.476 Y6.315 E1371.11627
G1 X-8.712 Y6.262 E1371.22626
G0 F18000 X-2.225 Y27.831
G1 F2400 X-9.794 Y28.827 E1371.70242
G1 X-17.364 Y27.831 E1372.17863
G1 X-24.415 Y24.91 E1372.65465
G1 X-30.473 Y20.262 E1373.13088
G1 X-35.11 Y14.218 E1373.60599
G1 X-38.041 Y7.154 E1374.08296
G1 X-39.037 Y-0.414 E1374.559
G1 X-38.041 Y-7.983 E1375.03514
G1 X-35.12 Y-15.035 E1375.51119
G1 X-30.473 Y-21.092 E1375.9873
G1 X-24.415 Y-25.74 E1376.46347
G1 X-17.364 Y-28.661 E1376.93939
G1 X-9.866 Y-29.647 E1377.41096
G1 X-2.225 Y-28.661 E1377.89135
G1 X4.825 Y-25.74 E1378.36717
G1 X10.882 Y-21.092 E1378.84327
G1 X15.529 Y-15.035 E1379.31931
G1 X18.452 Y-7.972 E1379.79595
G1 X19.447 Y-0.414 E1380.27129
G1 X18.452 Y7.143 E1380.74657
G1 X15.534 Y14.193 E1381.2224
G1 X10.884 Y20.261 E1381.69915
G1 X4.825 Y24.91 E1382.17542
G1 X-2.225 Y27.831 E1382.65132
G0 F18000 X-8.781 Y6.114
G0 X-8.781 Y6.114
G0 X-8.793 Y5.764
; TYPE:WALL-OUTER
G1 F2100 X-7.227 Y5.294 E1382.75323
G1 X-5.837 Y4.435 E1382.85507
G1 X-4.715 Y3.245 E1382.95703
G1 X-3.941 Y1.807 E1383.05884
G1 X-3.565 Y0.215 E1383.16084
G1 X-3.614 Y-1.416 E1383.2626
G1 X-4.084 Y-2.981 E1383.36458
G1 X-4.944 Y-4.371 E1383.4666
G1 X-6.134 Y-5.493 E1383.56869
G1 X-7.572 Y-6.267 E1383.67062
G1 X-9.164 Y-6.643 E1383.7727
G1 X-10.796 Y-6.594 E1383.87459
G1 X-12.362 Y-6.124 E1383.97659
G1 X-13.752 Y-5.264 E1384.07855
G1 X-14.874 Y-4.075 E1384.18049
G1 X-15.648 Y-2.635 E1384.28242
G1 X-16.023 Y-1.045 E1384.38425
G1 X-15.975 Y0.586 E1384.48595
G1 X-15.505 Y2.151 E1384.58783
G1 X-14.645 Y3.542 E1384.68979
G1 X-13.455 Y4.663 E1384.79169
G1 X-12.017 Y5.438 E1384.89351
G1 X-10.425 Y5.813 E1384.99545
G1 X-8.793 Y5.764 E1385.09721
G1 F6600 E1378.29721
G1 Z1.8
G0 F18000 X-8.781 Y6.114
G0 X-2.181 Y27.976
G0 X-2.181 Y27.976
G0 X-2.095 Y28.318
G1 Z1.5
G1 F6600 E1385.09721
G1 F2100 X-9.794 Y29.332 E1385.58155
G1 X-17.494 Y28.318 E1386.06595
G1 X-24.67 Y25.346 E1386.55038
G1 X-30.83 Y20.619 E1387.03466
G1 X-35.546 Y14.473 E1387.51781
G1 X-38.528 Y7.284 E1388.0032
G1 X-39.542 Y-0.414 E1388.48743
G1 X-38.528 Y-8.113 E1388.97176
G1 X-35.556 Y-15.29 E1389.45623
G1 X-30.83 Y-21.449 E1389.94038
G1 X-24.67 Y-26.176 E1390.42459
G1 X-17.494 Y-29.148 E1390.90894
G1 X-9.867 Y-30.152 E1391.38863
G1 X-2.095 Y-29.148 E1391.87727
G1 X5.08 Y-26.176 E1392.3615
G1 X11.239 Y-21.449 E1392.84564
G1 X15.965 Y-15.29 E1393.32973
G1 X18.939 Y-8.101 E1393.81485
G1 X19.952 Y-0.414 E1394.29831
G1 X18.939 Y7.272 E1394.78172
G1 X15.971 Y14.445 E1395.26583
G1 X11.239 Y20.619 E1395.75094
G1 X5.08 Y25.346 E1396.23511
G1 X-2.095 Y28.318 E1396.71943
G0 F18000 X-1.923 Y27.5
; TYPE:FILL
G1 F2400 X-17.665 Y27.5 E1397.70121
G0 F18000 X-18.872 Y27
G1 F2400 X-0.716 Y27 E1398.83341
G0 F18000 X0.489 Y26.5
G1 F2400 X-20.079 Y26.5 E1400.11608
G0 F18000 X-20.322 Y26
G1 F2400 X-21.286 Y26 E1400.17626
G0 F18000 X-21.286 Y26
G1 F2400 X1.696 Y26 E1401.60942
G0 F18000 X1.696 Y26
G1 F2400 X0.732 Y26 E1401.66954
G0 F18000 X2.903 Y25.5
G1 F2400 X-22.493 Y25.5 E1403.2533
G0 F18000 X-23.701 Y25
G1 F2400 X4.11 Y25 E1404.98761
G0 F18000 X5.047 Y24.5
G1 F2400 X-24.638 Y24.5 E1406.83885
G0 F18000 X-24.68 Y24
G1 F2400 X-25.289 Y24 E1406.87689
G0 F18000 X-25.289 Y24
G1 F2400 X5.698 Y24 E1408.80926
G0 F18000 X5.698 Y24
G1 F2400 X5.088 Y24 E1408.8473
G0 F18000 X6.35 Y23.5
G1 F2400 X-25.941 Y23.5 E1410.86106
G0 F18000 X-26.593 Y23
G1 F2400 X7.002 Y23 E1412.95607
G0 F18000 X7.654 Y22.5
G1 F2400 X-27.244 Y22.5 E1415.13241
G0 F18000 X-27.287 Y22
G1 F2400 X-27.896 Y22 E1415.17045
G0 F18000 X-27.896 Y22
G1 F2400 X8.305 Y22 E1417.42798
G0 F18000 X8.305 Y22
G1 F2400 X7.695 Y22 E1417.46602
G0 F18000 X8.957 Y21.5
G1 F2400 X-28.547 Y21.5 E1419.80488
G0 F18000 X-29.199 Y21
G1 F2400 X9.609 Y21 E1422.22499
G0 F18000 X10.261 Y20.5
G1 F2400 X-29.851 Y20.5 E1424.72648
G0 F18000 X-29.893 Y20
G1 F2400 X-30.435 Y20 E1424.76035
G0 F18000 X-30.435 Y20
G1 F2400 X10.845 Y20 E1427.33462
G0 F18000 X10.845 Y20
G1 F2400 X10.302 Y20 E1427.36848
G0 F18000 X11.228 Y19.5
G1 F2400 X-30.818 Y19.5 E1429.99059
G0 F18000 X-31.202 Y19
G1 F2400 X11.611 Y19 E1432.66046
G0 F18000 X11.994 Y18.5
G1 F2400 X-31.585 Y18.5 E1435.37817
G0 F18000 X-31.501 Y18
G1 F2400 X-31.969 Y18 E1435.40741
G0 F18000 X-31.969 Y18
G1 F2400 X12.377 Y18 E1438.17289
G0 F18000 X12.377 Y18
G1 F2400 X11.91 Y18 E1438.20201
G0 F18000 X12.761 Y17.5
G1 F2400 X-32.352 Y17.5 E1441.01538
G0 F18000 X-32.736 Y17
G1 F2400 X13.144 Y17 E1443.87653
G0 F18000 X13.527 Y16.5
G1 F2400 X-33.12 Y16.5 E1446.78556
G0 F18000 X-33.036 Y16
G1 F2400 X-33.503 Y16 E1446.81475
G0 F18000 X-33.503 Y16
G1 F2400 X13.91 Y16 E1449.77149
G0 F18000 X13.91 Y16
G1 F2400 X13.445 Y16 E1449.80049
G0 F18000 X14.293 Y15.5
G1 F2400 X-33.887 Y15.5 E1452.80513
G0 F18000 X-34.27 Y15
G1 F2400 X14.676 Y15 E1455.85747
G0 F18000 X15.06 Y14.499
G1 F2400 X-34.654 Y14.5 E1458.95777
G0 F18000 X-34.57 Y14
G1 F2400 X-34.994 Y14 E1458.98428
G0 F18000 X-34.994 Y14
G1 F2400 X15.408 Y13.999 E1462.12742
G0 F18000 X15.408 Y13.999
G1 F2400 X14.98 Y13.999 E1462.15411
G0 F18000 X15.615 Y13.499
G1 F2400 X-35.201 Y13.5 E1465.32314
G0 F18000 X-35.409 Y13
G1 F2400 X15.822 Y12.999 E1468.51798
G0 F18000 X16.029 Y12.499
G1 F2400 X-35.616 Y12.5 E1471.73871
G0 F18000 X-35.427 Y12
G1 F2400 X-35.824 Y12 E1471.76353
G0 F18000 X-35.824 Y12
G1 F2400 X16.236 Y11.999 E1475.01007
G0 F18000 X16.236 Y11.999
G1 F2400 X15.837 Y11.999 E1475.03495
G0 F18000 X16.443 Y11.499
G1 F2400 X-36.031 Y11.5 E1478.30738
G0 F18000 X-36.239 Y11
G1 F2400 X16.65 Y10.999 E1481.60562
G0 F18000 X16.856 Y10.499
G1 F2400 X-36.446 Y10.5 E1484.92968
G0 F18000 X-36.256 Y10
G1 F2400 X-36.654 Y10 E1484.95456
G0 F18000 X-36.654 Y10
G1 F2400 X17.063 Y9.999 E1488.30444
G0 F18000 X17.063 Y9.999
G1 F2400 X16.665 Y9.999 E1488.32926
G0 F18000 X17.27 Y9.499
G1 F2400 X-36.861 Y9.5 E1491.70502
G0 F18000 X-37.068 Y9
G1 F2400 X17.477 Y8.999 E1495.10653
G0 F18000 X17.684 Y8.499
G1 F2400 X-37.276 Y8.5 E1498.53399
G0 F18000 X-37.085 Y8
G1 F2400 X-37.483 Y8 E1498.55887
G0 F18000 X-37.483 Y8
G1 F2400 X17.891 Y7.999 E1502.01208
G0 F18000 X17.891 Y7.999
G1 F2400 X17.494 Y7.999 E1502.03684
G0 F18000 X18.098 Y7.499
G1 F2400 X-37.691 Y7.5 E1505.516
G0 F18000 X-37.869 Y7
G1 F2400 X18.278 Y6.999 E1509.01741
G0 F18000 X18.344 Y6.499
G1 F2400 X-10.331 Y6.5 E1510.80567
G0 F18000 X-10.517 Y6.5
G1 F2400 X-37.935 Y6.5 E1512.51559
G0 F18000 X-38.001 Y6
G1 F2400 X-12.427 Y6 E1514.11039
G0 F18000 X-12.427 Y6
G1 F2400 X-13.207 Y6 E1514.1591
G0 F18000 X-13.355 Y5.5
G1 F2400 X-38.066 Y5.5 E1515.70021
G0 F18000 X-38.001 Y6
G1 F2400 X-37.629 Y6 E1515.72334
G0 F18000 X-38.132 Y5
G1 F2400 X-14.102 Y5 E1517.22186
G0 F18000 X-14.633 Y4.5
G1 F2400 X-38.198 Y4.5 E1518.6915
G0 F18000 X-38.264 Y4
G1 F2400 X-15.164 Y4 E1520.13202
G0 F18000 X-15.164 Y4
G1 F2400 X-15.608 Y4 E1520.15977
G0 F18000 X-15.481 Y3.5
G1 F2400 X-38.33 Y3.5 E1521.58476
G0 F18000 X-38.396 Y3
G1 F2400 X-15.79 Y3 E1522.99447
G0 F18000 X-16.1 Y2.5
G1 F2400 X-38.462 Y2.5 E1524.38909
G0 F18000 X-38.528 Y2
G1 F2400 X-16.271 Y2 E1525.77703
G0 F18000 X-16.271 Y2
G1 F2400 X-16.657 Y2 E1525.80116
G0 F18000 X-16.421 Y1.5
G1 F2400 X-38.594 Y1.5 E1527.184
G0 F18000 X-38.66 Y1
G1 F2400 X-16.571 Y1 E1528.56147
G0 F18000 X-16.668 Y0.5
G1 F2400 X-38.726 Y0.5 E1529.93713
G0 F18000 X-38.791 Y0
G1 F2400 X-16.683 Y0 E1531.31578
G0 F18000 X-16.683 Y0
G1 F2400 X-17.053 Y0 E1531.33891
G0 F18000 X-16.698 Y-0.499
G1 F2400 X-38.835 Y-0.499 E1532.7195
G0 F18000 X-38.791 Y0
G1 F2400 X-38.419 Y0 E1532.74264
G0 F18000 X-38.769 Y-0.999
G1 F2400 X-16.713 Y-0.999 E1534.11805
G0 F18000 X-16.625 Y-1.499
G1 F2400 X-38.703 Y-1.499 E1535.49496
G0 F18000 X-38.637 Y-1.999
G1 F2400 X-16.507 Y-1.999 E1536.87498
G0 F18000 X-16.507 Y-1.999
G1 F2400 X-16.887 Y-1.999 E1536.89874
G0 F18000 X-16.389 Y-2.499
G1 F2400 X-38.571 Y-2.499 E1538.28213
G0 F18000 X-38.505 Y-2.999
G1 F2400 X-16.235 Y-2.999 E1539.67089
G0 F18000 X-15.966 Y-3.499
G1 F2400 X-38.439 Y-3.499 E1541.07243
G0 F18000 X-38.373 Y-3.999
G1 F2400 X-15.698 Y-3.999 E1542.48644
G0 F18000 X-15.698 Y-3.999
G1 F2400 X-16.117 Y-3.999 E1542.51264
G0 F18000 X-15.421 Y-4.499
G1 F2400 X-38.308 Y-4.499 E1543.94
G0 F18000 X-38.373 Y-3.999
G1 F2400 X-38.002 Y-3.999 E1543.96307
G0 F18000 X-38.242 Y-4.999
G1 F2400 X-14.949 Y-4.999 E1545.41562
G0 F18000 X-14.478 Y-5.499
G1 F2400 X-38.176 Y-5.499 E1546.89356
G0 F18000 X-38.11 Y-5.999
G1 F2400 X-13.874 Y-5.999 E1548.40492
G0 F18000 X-13.874 Y-5.999
G1 F2400 X-14.518 Y-5.999 E1548.44514
G0 F18000 X-13.065 Y-6.499
G1 F2400 X-38.044 Y-6.499 E1550.00296
G0 F18000 X-37.978 Y-6.999
G1 F2400 X-11.845 Y-6.999 E1551.63263
G0 F18000 X-7.672 Y-6.999
G1 F2400 X18.388 Y-7 E1553.25774
G0 F18000 X18.453 Y-6.5
G1 F2400 X-6.549 Y-6.5 E1554.81693
G0 F18000 X-5.666 Y-6
G1 F2400 X18.519 Y-6 E1556.32511
G0 F18000 X18.519 Y-6
G1 F2400 X18.147 Y-6 E1556.34831
G0 F18000 X18.585 Y-5.5
G1 F2400 X-5.136 Y-5.5 E1557.82762
G0 F18000 X-5.126 Y-6
G1 F2400 X-5.666 Y-6 E1557.86136
G0 F18000 X-4.606 Y-5
G1 F2400 X18.651 Y-5 E1559.31167
G0 F18000 X18.717 Y-4.5
G1 F2400 X-4.213 Y-4.5 E1560.74164
G0 F18000 X-3.903 Y-3.999
G1 F2400 X18.783 Y-4 E1562.15634
G0 F18000 X18.783 Y-4
G1 F2400 X18.411 Y-4 E1562.17954
G0 F18000 X18.849 Y-3.5
G1 F2400 X-3.594 Y-3.5 E1563.57915
G0 F18000 X-3.468 Y-4
G1 F2400 X-3.903 Y-3.999 E1563.60634
G0 F18000 X-3.369 Y-3
G1 F2400 X18.915 Y-3 E1564.99597
G0 F18000 X18.981 Y-2.5
G1 F2400 X-3.219 Y-2.5 E1566.38042
G0 F18000 X-3.068 Y-1.999
G1 F2400 X19.047 Y-2 E1567.75951
G0 F18000 X19.047 Y-2
G1 F2400 X18.674 Y-2 E1567.78277
G0 F18000 X19.113 Y-1.5
G1 F2400 X-2.926 Y-1.499 E1569.15719
G0 F18000 X-2.911 Y-0.999
G1 F2400 X19.179 Y-1 E1570.53472
G0 F18000 X19.245 Y-0.5
G1 F2400 X-2.896 Y-0.499 E1571.91549
G0 F18000 X-2.881 Y0
G1 F2400 X19.202 Y0 E1573.29258
G0 F18000 X19.202 Y0
G1 F2400 X18.829 Y0 E1573.31585
G0 F18000 X19.136 Y0.499
G1 F2400 X-2.923 Y0.5 E1574.69151
G0 F18000 X-2.881 Y0
G1 F2400 X-2.512 Y0 E1574.71446
G0 F18000 X-3.041 Y1
G1 F2400 X19.07 Y0.999 E1576.0933
G0 F18000 X19.004 Y1.499
G1 F2400 X-3.159 Y1.5 E1577.47544
G0 F18000 X-3.277 Y2
G1 F2400 X18.938 Y1.999 E1578.86077
G0 F18000 X18.938 Y1.999
G1 F2400 X18.565 Y1.999 E1578.88403
G0 F18000 X18.872 Y2.499
G1 F2400 X-3.53 Y2.5 E1580.28108
G0 F18000 X-3.277 Y2
G1 F2400 X-2.898 Y2 E1580.30465
G0 F18000 X-3.8 Y3
G1 F2400 X18.806 Y2.999 E1581.71436
G0 F18000 X18.74 Y3.499
G1 F2400 X-4.069 Y3.5 E1583.13679
G0 F18000 X-3.97 Y4
G1 F2400 X-4.48 Y4 E1583.16866
G0 F18000 X-4.48 Y4
G1 F2400 X18.674 Y3.999 E1584.61255
G0 F18000 X18.674 Y3.999
G1 F2400 X18.302 Y3.999 E1584.63575
G0 F18000 X18.608 Y4.499
G1 F2400 X-4.951 Y4.5 E1586.10495
G0 F18000 X-5.439 Y5
G1 F2400 X18.542 Y4.999 E1587.60041
G0 F18000 X18.476 Y5.499
G1 F2400 X-6.248 Y5.5 E1589.14227
G0 F18000 X-6.353 Y6
G1 F2400 X-7.178 Y6 E1589.19378
G0 F18000 X-7.178 Y6
G1 F2400 X18.41 Y5.999 E1590.78945
G0 F18000 X18.41 Y5.999
G1 F2400 X18.038 Y5.999 E1590.81265
G0 F18000 X18.322 Y-7.5
G1 F2400 X-37.912 Y-7.499 E1594.31956
G0 F18000 X-37.828 Y-7.999
G1 F2400 X18.234 Y-8 E1597.81568
G0 F18000 X18.234 Y-8
G1 F2400 X17.833 Y-8 E1597.84068
G0 F18000 X18.027 Y-8.5
G1 F2400 X-37.621 Y-8.499 E1601.31105
G0 F18000 X-37.429 Y-7.999
G1 F2400 X-37.828 Y-7.999 E1601.33599
G0 F18000 X-37.414 Y-8.999
G1 F2400 X17.82 Y-9 E1604.78047
G0 F18000 X17.613 Y-9.5
G1 F2400 X-37.206 Y-9.499 E1608.19914
G0 F18000 X-36.999 Y-9.999
G1 F2400 X17.406 Y-10 E1611.59192
G0 F18000 X17.406 Y-10
G1 F2400 X17.006 Y-10 E1611.61687
G0 F18000 X17.199 Y-10.5
G1 F2400 X-36.792 Y-10.499 E1614.98389
G0 F18000 X-36.599 Y-9.999
G1 F2400 X-36.999 Y-9.999 E1615.0089
G0 F18000 X-36.585 Y-10.999
G1 F2400 X16.992 Y-11 E1618.35005
G0 F18000 X16.785 Y-11.5
G1 F2400 X-36.378 Y-11.499 E1621.66544
G0 F18000 X-36.171 Y-11.999
G1 F2400 X16.579 Y-12 E1624.95501
G0 F18000 X16.579 Y-12
G1 F2400 X16.178 Y-12 E1624.98002
G0 F18000 X16.372 Y-12.5
G1 F2400 X-35.964 Y-12.499 E1628.24384
G0 F18000 X-35.769 Y-11.999
G1 F2400 X-36.171 Y-11.999 E1628.26897
G0 F18000 X-35.757 Y-12.999
G1 F2400 X16.165 Y-13 E1631.50691
G0 F18000 X15.958 Y-13.5
G1 F2400 X-35.55 Y-13.499 E1634.71909
G0 F18000 X-35.343 Y-13.999
G1 F2400 X15.751 Y-14 E1637.90539
G0 F18000 X15.751 Y-14
G1 F2400 X15.35 Y-14 E1637.93039
G0 F18000 X15.544 Y-14.5
G1 F2400 X-35.136 Y-14.499 E1641.09094
G0 F18000 X-34.939 Y-13.999
G1 F2400 X-35.343 Y-13.999 E1641.1162
G0 F18000 X-34.908 Y-14.999
G1 F2400 X15.315 Y-15 E1644.24818
G0 F18000 X14.931 Y-15.5
G1 F2400 X-34.524 Y-15.499 E1647.33233
G0 F18000 X-34.141 Y-15.999
G1 F2400 X14.548 Y-16 E1650.36865
G0 F18000 X14.548 Y-16
G1 F2400 X14.08 Y-16 E1650.39783
G0 F18000 X14.164 Y-16.5
G1 F2400 X-33.757 Y-16.499 E1653.38632
G0 F18000 X-33.673 Y-15.999
G1 F2400 X-34.141 Y-15.999 E1653.41556
G0 F18000 X-33.373 Y-16.999
G1 F2400 X13.781 Y-17 E1656.35616
G0 F18000 X13.397 Y-17.5
G1 F2400 X-32.99 Y-17.499 E1659.24898
G0 F18000 X-32.606 Y-17.999
G1 F2400 X13.014 Y-18 E1662.0939
G0 F18000 X13.014 Y-18
G1 F2400 X12.546 Y-18 E1662.12309
G0 F18000 X12.631 Y-18.5
G1 F2400 X-32.223 Y-18.499 E1664.92031
G0 F18000 X-32.138 Y-17.999
G1 F2400 X-32.606 Y-17.999 E1664.94956
G0 F18000 X-31.839 Y-18.999
G1 F2400 X12.247 Y-19 E1667.69882
G0 F18000 X11.864 Y-19.5
G1 F2400 X-31.456 Y-19.499 E1670.40037
G0 F18000 X-31.072 Y-19.999
G1 F2400 X11.48 Y-20 E1673.05397
G0 F18000 X11.48 Y-20
G1 F2400 X11.012 Y-20 E1673.08316
G0 F18000 X11.097 Y-20.5
G1 F2400 X-30.689 Y-20.499 E1675.68905
G0 F18000 X-30.604 Y-19.999
G1 F2400 X-31.072 Y-19.999 E1675.71829
G0 F18000 X-30.282 Y-20.999
G1 F2400 X10.69 Y-21 E1678.27336
G0 F18000 X10.038 Y-21.5
G1 F2400 X-29.63 Y-21.5 E1680.74716
G0 F18000 X-28.978 Y-22
G1 F2400 X9.387 Y-22 E1683.13965
G0 F18000 X9.387 Y-22
G1 F2400 X8.776 Y-22 E1683.17775
G0 F18000 X8.735 Y-22.5
G1 F2400 X-28.327 Y-22.5 E1685.48904
G0 F18000 X-28.368 Y-22
G1 F2400 X-28.978 Y-22 E1685.52714
G0 F18000 X-27.675 Y-23
G1 F2400 X8.083 Y-23 E1687.75705
G0 F18000 X7.432 Y-23.5
G1 F2400 X-27.023 Y-23.5 E1689.90576
G0 F18000 X-26.371 Y-24
G1 F2400 X6.78 Y-24 E1691.97308
G0 F18000 X6.78 Y-24
G1 F2400 X6.169 Y-24 E1692.01119
G0 F18000 X6.128 Y-24.5
G1 F2400 X-25.72 Y-24.5 E1693.99732
G0 F18000 X-25.761 Y-24
G1 F2400 X-26.371 Y-24 E1694.03542
G0 F18000 X-25.068 Y-25
G1 F2400 X5.477 Y-25 E1695.94023
G0 F18000 X4.825 Y-25.5
G1 F2400 X-24.416 Y-25.5 E1697.76378
G0 F18000 X-23.29 Y-26
G1 F2400 X3.699 Y-26 E1699.44682
G0 F18000 X3.699 Y-26
G1 F2400 X2.732 Y-26 E1699.50713
G0 F18000 X2.493 Y-26.5
G1 F2400 X-22.083 Y-26.5 E1701.03976
G0 F18000 X-22.322 Y-26
G1 F2400 X-23.29 Y-26 E1701.10018
G0 F18000 X-20.876 Y-27
G1 F2400 X1.286 Y-27 E1702.48221
G0 F18000 X0.079 Y-27.5
G1 F2400 X-19.669 Y-27.5 E1703.71375
G0 F18000 X-18.462 Y-28
G1 F2400 X-1.127 Y-28 E1704.79474
G0 F18000 X-1.127 Y-28
G1 F2400 X-2.091 Y-28 E1704.85492
G0 F18000 X-2.466 Y-28.5
G1 F2400 X-17.125 Y-28.5 E1705.76916
G0 F18000 X-17.496 Y-28
G1 F2400 X-18.462 Y-28 E1705.82946
G0 F18000 X-13.327 Y-29
G1 F2400 X-6.335 Y-29 E1706.26544
G0 F18000 X-3.068 Y-1.999
G1 F2400 X-2.682 Y-1.999 E1706.28945
G0 F18000 X-4.967 Y28
G1 F2400 X-14.62 Y28 E1706.8915
G0 F18000 X-14.62 Y28
G1 F2400 X-11.793 Y28 E1707.06774
G0 F18000 X-10.825 Y28.5
G1 F2400 X-8.761 Y28.5 E1707.19639
G0 F18000 X-7.827 Y28
G1 F2400 X-4.967 Y28 E1707.37469
G0 F18000 X-37.893 Y4
G1 F2400 X-38.264 Y4 E1707.39789
G0 F18000 X-38.156 Y2
G1 F2400 X-38.528 Y2 E1707.42115
G0 F18000 X-38.637 Y-1.999
G1 F2400 X-38.265 Y-1.999 E1707.44429
G0 F18000 X-38.11 Y-5.999
G1 F2400 X-37.739 Y-5.999 E1707.46736
; LAYER:5
G1 F6600 E1700.66736
G1 Z1.8
G0 F18000 X-16.023 Y-1.045 Z1.8
; TYPE:WALL-OUTER
G1 Z1.8
G1 F6600 E1707.46736
G1 F660 X-15.975 Y0.586 E1707.56905
G1 X-15.505 Y2.151 E1707.67094
G1 X-14.645 Y3.542 E1707.77289
G1 X-13.455 Y4.663 E1707.8748
G1 X-12.017 Y5.438 E1707.97662
G1 X-10.425 Y5.813 E1708.07856
G1 X-8.793 Y5.764 E1708.18032
G1 X-7.227 Y5.294 E1708.28222
G1 X-5.837 Y4.435 E1708.38407
G1 X-4.715 Y3.245 E1708.48602
G1 X-3.941 Y1.807 E1708.58784
G1 X-3.565 Y0.215 E1708.68983
G1 X-3.614 Y-1.416 E1708.7916
G1 X-4.084 Y-2.981 E1708.89358
G1 X-4.944 Y-4.371 E1708.9956
G1 X-6.134 Y-5.493 E1709.09768
G1 X-7.572 Y-6.267 E1709.19961
G1 X-9.164 Y-6.643 E1709.3017
G1 X-10.796 Y-6.594 E1709.40358
G1 X-12.362 Y-6.124 E1709.50559
G1 X-13.752 Y-5.264 E1709.60754
G1 X-14.874 Y-4.075 E1709.70949
G1 X-15.648 Y-2.635 E1709.81142
G1 X-16.023 Y-1.045 E1709.91325
G0 F18000 X-17.026 Y-1.117
G1 F660 X-16.596 Y-2.965 E1710.03162
G1 X-15.704 Y-4.639 E1710.14994
G1 X-14.408 Y-6.028 E1710.26841
G1 X-12.775 Y-7.045 E1710.38836
G1 X-10.961 Y-7.589 E1710.50643
G1 X-9.059 Y-7.646 E1710.62503
G1 X-7.216 Y-7.211 E1710.74305
G1 X-5.542 Y-6.31 E1710.86152
G1 X-4.163 Y-5.011 E1710.97958
G1 X-3.179 Y-3.42 E1711.09615
G1 X-2.627 Y-1.606 E1711.21432
G1 X-2.563 Y0.288 E1711.33244
G1 X-2.993 Y2.136 E1711.45078
G1 X-3.885 Y3.81 E1711.5691
G1 X-5.181 Y5.198 E1711.68757
G1 X-6.814 Y6.215 E1711.8076
G1 X-8.628 Y6.76 E1711.92578
G1 X-10.529 Y6.816 E1712.04444
G1 X-12.375 Y6.381 E1712.16278
G1 X-14.045 Y5.482 E1712.28111
G1 X-15.426 Y4.181 E1712.39948
G1 X-16.41 Y2.59 E1712.51617
G1 X-16.962 Y0.776 E1712.63444
G1 X-17.026 Y-1.117 E1712.75256
G1 F6600 E1705.95256
G1 Z2.1
G0 F18000 X-38.533 Y-0.425
G1 Z1.8
G1 F6600 E1712.75256
G1 F660 X-37.556 Y7.011 E1713.22021
G1 X-34.687 Y13.944 E1713.6881
G1 X-30.129 Y19.889 E1714.15524
G1 X-24.164 Y24.473 E1714.62434
G1 X-17.232 Y27.345 E1715.09221
G1 X-9.799 Y28.322 E1715.55968
G1 X-2.356 Y27.345 E1716.02776
G1 X4.573 Y24.473 E1716.49547
G1 X10.525 Y19.906 E1716.96333
G1 X15.085 Y13.963 E1717.43048
G1 X17.96 Y7.032 E1717.89842
G1 X18.94 Y-0.395 E1718.36561
G1 X17.964 Y-7.849 E1718.83449
G1 X15.092 Y-14.783 E1719.30259
G1 X10.532 Y-20.726 E1719.76979
G1 X4.573 Y-25.302 E1720.23838
G1 X-2.356 Y-28.174 E1720.70617
G1 X-9.794 Y-29.153 E1721.17409
G1 X-17.232 Y-28.174 E1721.642
G1 X-24.164 Y-25.302 E1722.10996
G1 X-30.116 Y-20.735 E1722.57784
G1 X-34.659 Y-14.814 E1723.04324
G1 X-37.545 Y-7.874 E1723.51194
G1 X-38.533 Y-0.425 E1723.98049
G0 F18000 X-39.542 Y-0.414
G1 F660 X-38.528 Y-8.113 E1724.46482
G1 X-35.556 Y-15.29 E1724.94929
G1 X-30.83 Y-21.449 E1725.43344
G1 X-24.67 Y-26.176 E1725.91766
G1 X-17.494 Y-29.148 E1726.402
G1 X-9.794 Y-30.162 E1726.88629
G1 X-2.095 Y-29.148 E1727.37049
G1 X5.08 Y-26.176 E1727.85473
G1 X11.239 Y-21.449 E1728.33887
G1 X15.965 Y-15.29 E1728.82296
G1 X18.939 Y-8.099 E1729.30819
G1 X19.952 Y-0.414 E1729.79153
G1 X18.939 Y7.27 E1730.27481
G1 X15.973 Y14.442 E1730.75882
G1 X11.239 Y20.619 E1731.24415
G1 X5.08 Y25.346 E1731.72833
G1 X-2.095 Y28.318 E1732.21265
G1 X-9.794 Y29.332 E1732.69699
G1 X-17.494 Y28.318 E1733.18139
G1 X-24.67 Y25.346 E1733.66582
G1 X-30.83 Y20.619 E1734.1501
G1 X-35.544 Y14.476 E1734.63303
G1 X-38.528 Y7.284 E1735.11864
G1 X-39.542 Y-0.414 E1735.60286
; LAYER:6
G1 F6600 E1728.80286
G1 Z2.1
G0 F18000 X-16.023 Y-1.045 Z2.1
; TYPE:WALL-OUTER
G1 Z2.1
G1 F6600 E1735.60286
G1 F660 X-15.975 Y0.586 E1735.70455
G1 X-15.505 Y2.151 E1735.80644
G1 X-14.645 Y3.542 E1735.90839
G1 X-13.455 Y4.663 E1736.0103
G1 X-12.017 Y5.438 E1736.11212
G1 X-10.425 Y5.813 E1736.21406
G1 X-8.793 Y5.764 E1736.31582
G1 X-7.227 Y5.294 E1736.41772
G1 X-5.837 Y4.435 E1736.51957
G1 X-4.715 Y3.245 E1736.62152
G1 X-3.941 Y1.807 E1736.72334
G1 X-3.565 Y0.215 E1736.82533
G1 X-3.614 Y-1.416 E1736.9271
G1 X-4.084 Y-2.981 E1737.02908
G1 X-4.944 Y-4.371 E1737.1311
G1 X-6.134 Y-5.493 E1737.23318
G1 X-7.572 Y-6.267 E1737.33511
G1 X-9.164 Y-6.643 E1737.4372
G1 X-10.796 Y-6.594 E1737.53908
G1 X-12.362 Y-6.124 E1737.64109
G1 X-13.752 Y-5.264 E1737.74304
G1 X-14.874 Y-4.075 E1737.84499
G1 X-15.648 Y-2.635 E1737.94692
G1 X-16.023 Y-1.045 E1738.04875
G0 F18000 X-17.027 Y-1.148
G1 F660 X-16.59 Y-2.994 E1738.1671
G1 X-15.692 Y-4.665 E1738.28542
G1 X-14.392 Y-6.046 E1738.40371
G1 X-12.774 Y-7.045 E1738.52227
G1 X-10.961 Y-7.589 E1738.64027
G1 X-9.059 Y-7.646 E1738.75888
G1 X-7.216 Y-7.211 E1738.8769
G1 X-5.542 Y-6.31 E1738.99537
G1 X-4.163 Y-5.011 E1739.11343
G1 X-3.164 Y-3.394 E1739.23187
G1 X-2.619 Y-1.58 E1739.34992
G1 X-2.562 Y0.319 E1739.46833
G1 X-2.999 Y2.165 E1739.58665
G1 X-3.897 Y3.835 E1739.70493
G1 X-5.197 Y5.216 E1739.82325
G1 X-6.815 Y6.215 E1739.94189
G1 X-8.628 Y6.76 E1740.06001
G1 X-10.529 Y6.816 E1740.17868
G1 X-12.375 Y6.381 E1740.29701
G1 X-14.045 Y5.482 E1740.41534
G1 X-15.426 Y4.181 E1740.53371
G1 X-16.425 Y2.564 E1740.65228
G1 X-16.97 Y0.75 E1740.77042
G1 X-17.027 Y-1.148 E1740.88884
G1 F6600 E1734.08884
G1 Z2.4
G0 F18000 X-30.509 Y20.215
; TYPE:WALL-INNER
G1 Z2.1
G1 F6600 E1740.88884
G1 F780 X-24.828 Y24.593 E1741.33607
G1 X-30.473 Y20.262 E1741.77983
G1 X-30.509 Y20.215 E1741.78356
G0 F18000 X-30.156 Y19.856
; TYPE:WALL-OUTER
G1 F660 X-24.164 Y24.473 E1742.25525
G1 X-17.232 Y27.345 E1742.72312
G1 X-9.808 Y28.321 E1743.19003
G1 X-2.356 Y27.345 E1743.65866
G1 X4.573 Y24.473 E1744.12636
G1 X10.525 Y19.906 E1744.59422
G1 X15.071 Y13.981 E1745.05995
G1 X17.95 Y7.053 E1745.52782
G1 X18.943 Y-0.414 E1745.99758
G1 X17.965 Y-7.842 E1746.46487
G1 X15.092 Y-14.783 E1746.93341
G1 X10.546 Y-20.708 E1747.39918
G1 X4.573 Y-25.302 E1747.86915
G1 X-2.356 Y-28.174 E1748.33693
G1 X-9.794 Y-29.153 E1748.80486
G1 X-17.232 Y-28.174 E1749.27276
G1 X-24.164 Y-25.302 E1749.74073
G1 X-30.116 Y-20.735 E1750.2086
G1 X-34.66 Y-14.813 E1750.6741
G1 X-37.555 Y-7.852 E1751.14421
G1 X-38.53 Y-0.448 E1751.60988
G1 X-37.559 Y6.988 E1752.07748
G1 X-34.697 Y13.923 E1752.54532
G1 X-30.156 Y19.856 E1753.01122
G0 F18000 X-30.83 Y20.619
G1 F660 X-35.542 Y14.479 E1753.49392
G1 X-38.528 Y7.284 E1753.97975
G1 X-39.542 Y-0.414 E1754.46398
G1 X-38.528 Y-8.113 E1754.94831
G1 X-35.556 Y-15.29 E1755.43278
G1 X-30.83 Y-21.449 E1755.91693
G1 X-24.67 Y-26.176 E1756.40114
G1 X-17.494 Y-29.148 E1756.88549
G1 X-9.794 Y-30.162 E1757.36977
G1 X-2.095 Y-29.148 E1757.85398
G1 X5.08 Y-26.176 E1758.33822
G1 X11.239 Y-21.449 E1758.82236
G1 X15.965 Y-15.29 E1759.30644
G1 X18.939 Y-8.096 E1759.79185
G1 X19.952 Y-0.414 E1760.27501
G1 X18.939 Y7.267 E1760.7581
G1 X15.974 Y14.438 E1761.24202
G1 X11.239 Y20.619 E1761.72759
G1 X5.08 Y25.346 E1762.21177
G1 X-2.095 Y28.318 E1762.69609
G1 X-9.794 Y29.332 E1763.18043
G1 X-17.494 Y28.318 E1763.66483
G1 X-24.67 Y25.346 E1764.14926
G1 X-30.83 Y20.619 E1764.63354
; LAYER:7
G1 F6600 E1757.83354
G1 Z2.4
G0 F18000 X-14.645 Y3.542 Z2.4
; TYPE:WALL-OUTER
G1 Z2.4
G1 F6600 E1764.63354
G1 F660 X-13.455 Y4.663 E1764.73545
G1 X-12.017 Y5.438 E1764.83726
G1 X-10.425 Y5.813 E1764.9392
G1 X-8.793 Y5.764 E1765.04096
G1 X-7.227 Y5.294 E1765.14287
G1 X-5.837 Y4.435 E1765.24471
G1 X-4.715 Y3.245 E1765.34667
G1 X-3.941 Y1.807 E1765.44848
G1 X-3.565 Y0.215 E1765.55048
G1 X-3.614 Y-1.416 E1765.65224
G1 X-4.084 Y-2.981 E1765.75422
G1 X-4.944 Y-4.371 E1765.85624
G1 X-6.134 Y-5.493 E1765.95833
G1 X-7.572 Y-6.267 E1766.06025
G1 X-9.164 Y-6.643 E1766.16234
G1 X-10.796 Y-6.594 E1766.26423
G1 X-12.362 Y-6.124 E1766.36623
G1 X-13.752 Y-5.264 E1766.46818
G1 X-14.874 Y-4.075 E1766.57013
G1 X-15.648 Y-2.635 E1766.67206
G1 X-16.023 Y-1.045 E1766.77389
G1 X-15.975 Y0.586 E1766.87559
G1 X-15.505 Y2.151 E1766.97747
G1 X-14.645 Y3.542 E1767.07943
G0 F18000 X-15.426 Y4.181
G1 F660 X-16.425 Y2.564 E1767.19799
G1 X-16.97 Y0.75 E1767.31613
G1 X-17.027 Y-1.148 E1767.43455
G1 X-16.59 Y-2.994 E1767.5529
G1 X-15.692 Y-4.665 E1767.67123
G1 X-14.392 Y-6.046 E1767.78951
G1 X-12.774 Y-7.045 E1767.90808
G1 X-10.961 Y-7.589 E1768.02608
G1 X-9.059 Y-7.646 E1768.14468
G1 X-7.216 Y-7.211 E1768.2627
G1 X-5.542 Y-6.31 E1768.38117
G1 X-4.163 Y-5.011 E1768.49923
G1 X-3.164 Y-3.394 E1768.61768
G1 X-2.619 Y-1.58 E1768.73572
G1 X-2.562 Y0.319 E1768.85414
G1 X-2.999 Y2.165 E1768.97246
G1 X-3.897 Y3.835 E1769.09073
G1 X-5.197 Y5.216 E1769.20905
G1 X-6.815 Y6.215 E1769.32769
G1 X-8.628 Y6.76 E1769.44582
G1 X-10.529 Y6.816 E1769.56448
G1 X-12.375 Y6.381 E1769.68282
G1 X-14.045 Y5.482 E1769.80115
G1 X-15.426 Y4.181 E1769.91951
G1 F6600 E1763.11951
G1 Z2.7
G0 F18000 X-30.116 Y19.906
G1 Z2.4
G1 F6600 E1769.91951
G1 F660 X-24.164 Y24.473 E1770.38733
G1 X-17.232 Y27.345 E1770.8552
G1 X-9.817 Y28.32 E1771.32154
G1 X-2.356 Y27.345 E1771.79072
G1 X4.573 Y24.473 E1772.25842
G1 X10.525 Y19.906 E1772.72629
G1 X15.092 Y13.954 E1773.19415
G1 X17.964 Y7.022 E1773.66208
G1 X18.943 Y-0.414 E1774.12981
G1 X17.966 Y-7.836 E1774.59672
G1 X15.092 Y-14.783 E1775.06562
G1 X10.525 Y-20.735 E1775.53353
G1 X4.573 Y-25.302 E1776.00143
G1 X-2.356 Y-28.174 E1776.46922
G1 X-9.794 Y-29.153 E1776.93714
G1 X-17.232 Y-28.174 E1777.40505
G1 X-24.164 Y-25.302 E1777.87302
G1 X-30.116 Y-20.735 E1778.34089
G1 X-34.675 Y-14.794 E1778.80789
G1 X-37.555 Y-7.852 E1779.27656
G1 X-38.534 Y-0.414 E1779.74436
G1 X-37.555 Y7.022 E1780.21202
G1 X-34.683 Y13.954 E1780.67993
G1 X-30.116 Y19.906 E1781.14775
G0 F18000 X-30.83 Y20.619
G1 F660 X-35.54 Y14.481 E1781.63028
G1 X-38.528 Y7.284 E1782.11628
G1 X-39.542 Y-0.414 E1782.6005
G1 X-38.528 Y-8.113 E1783.08483
G1 X-35.556 Y-15.29 E1783.5693
G1 X-30.83 Y-21.449 E1784.05345
G1 X-24.67 Y-26.176 E1784.53766
G1 X-17.494 Y-29.148 E1785.02201
G1 X-9.794 Y-30.162 E1785.50629
G1 X-2.095 Y-29.148 E1785.9905
G1 X5.08 Y-26.176 E1786.47474
G1 X11.239 Y-21.449 E1786.95888
G1 X15.965 Y-15.29 E1787.44297
G1 X18.94 Y-8.094 E1787.92851
G1 X19.952 Y-0.414 E1788.41154
G1 X18.94 Y7.265 E1788.8945
G1 X15.975 Y14.435 E1789.37836
G1 X11.239 Y20.619 E1789.86412
G1 X5.08 Y25.346 E1790.34829
G1 X-2.095 Y28.318 E1790.83261
G1 X-9.794 Y29.332 E1791.31695
G1 X-17.494 Y28.318 E1791.80135
G1 X-24.67 Y25.346 E1792.28579
G1 X-30.83 Y20.619 E1792.77007
; LAYER:8
G1 F6600 E1785.97007
G1 Z2.7
G0 F18000 X-14.645 Y3.542 Z2.7
; TYPE:WALL-OUTER
G1 Z2.7
G1 F6600 E1792.77007
G1 F660 X-13.455 Y4.663 E1792.87197
G1 X-12.017 Y5.438 E1792.97379
G1 X-10.425 Y5.813 E1793.07573
G1 X-8.793 Y5.764 E1793.17749
G1 X-7.227 Y5.294 E1793.27939
G1 X-5.837 Y4.435 E1793.38124
G1 X-4.715 Y3.245 E1793.48319
G1 X-3.941 Y1.807 E1793.58501
G1 X-3.565 Y0.215 E1793.68701
G1 X-3.614 Y-1.416 E1793.78877
G1 X-4.084 Y-2.981 E1793.89075
G1 X-4.944 Y-4.371 E1793.99277
G1 X-6.134 Y-5.493 E1794.09485
G1 X-7.572 Y-6.267 E1794.19678
G1 X-9.164 Y-6.643 E1794.29887
G1 X-10.796 Y-6.594 E1794.40075
G1 X-12.362 Y-6.124 E1794.50276
G1 X-13.752 Y-5.264 E1794.60471
G1 X-14.874 Y-4.075 E1794.70666
G1 X-15.648 Y-2.635 E1794.80859
G1 X-16.023 Y-1.045 E1794.91042
G1 X-15.975 Y0.586 E1795.01211
G1 X-15.505 Y2.151 E1795.114
G1 X-14.645 Y3.542 E1795.21595
G0 F18000 X-15.426 Y4.181
G1 F660 X-16.425 Y2.564 E1795.33452
G1 X-16.97 Y0.75 E1795.45266
G1 X-17.027 Y-1.148 E1795.57108
G1 X-16.59 Y-2.994 E1795.68943
G1 X-15.692 Y-4.665 E1795.80776
G1 X-14.392 Y-6.046 E1795.92604
G1 X-12.774 Y-7.045 E1796.0446
G1 X-10.961 Y-7.589 E1796.1626
G1 X-9.059 Y-7.646 E1796.28121
G1 X-7.216 Y-7.211 E1796.39923
G1 X-5.542 Y-6.31 E1796.5177
G1 X-4.163 Y-5.011 E1796.63576
G1 X-3.164 Y-3.394 E1796.75421
G1 X-2.619 Y-1.58 E1796.87225
G1 X-2.562 Y0.319 E1796.99066
G1 X-2.999 Y2.165 E1797.10898
G1 X-3.897 Y3.835 E1797.22726
G1 X-5.197 Y5.216 E1797.34558
G1 X-6.815 Y6.215 E1797.46422
G1 X-8.628 Y6.76 E1797.58234
G1 X-10.529 Y6.816 E1797.70101
G1 X-12.375 Y6.381 E1797.81934
G1 X-14.045 Y5.482 E1797.93768
G1 X-15.426 Y4.181 E1798.05604
G1 F6600 E1791.25604
G1 Z3
G0 F18000 X-30.116 Y19.906
G1 Z2.7
G1 F6600 E1798.05604
G1 F660 X-24.164 Y24.473 E1798.52385
G1 X-17.232 Y27.345 E1798.99173
G1 X-9.826 Y28.319 E1799.4575
G1 X-2.356 Y27.345 E1799.92723
G1 X4.573 Y24.473 E1800.39494
G1 X10.525 Y19.906 E1800.8628
G1 X15.092 Y13.954 E1801.33066
G1 X17.964 Y7.022 E1801.79859
G1 X18.943 Y-0.414 E1802.26632
G1 X17.967 Y-7.829 E1802.73279
G1 X15.092 Y-14.783 E1803.20212
G1 X10.525 Y-20.735 E1803.67003
G1 X4.573 Y-25.302 E1804.13793
G1 X-2.356 Y-28.174 E1804.60571
G1 X-9.794 Y-29.153 E1805.07364
G1 X-17.232 Y-28.174 E1805.54155
G1 X-24.164 Y-25.302 E1806.00951
G1 X-30.116 Y-20.735 E1806.47739
G1 X-34.672 Y-14.798 E1806.94408
G1 X-37.555 Y-7.852 E1807.41305
G1 X-38.534 Y-0.414 E1807.88085
G1 X-37.555 Y7.022 E1808.34851
G1 X-34.683 Y13.954 E1808.81642
G1 X-30.116 Y19.906 E1809.28424
G0 F18000 X-30.83 Y20.619
G1 F660 X-35.537 Y14.484 E1809.76651
G1 X-38.528 Y7.284 E1810.25275
G1 X-39.542 Y-0.414 E1810.73697
G1 X-38.528 Y-8.113 E1811.2213
G1 X-35.556 Y-15.29 E1811.70577
G1 X-30.83 Y-21.449 E1812.18992
G1 X-24.67 Y-26.176 E1812.67413
G1 X-17.494 Y-29.148 E1813.15848
G1 X-9.794 Y-30.162 E1813.64276
G1 X-2.095 Y-29.148 E1814.12697
G1 X5.08 Y-26.176 E1814.61121
G1 X11.239 Y-21.449 E1815.09535
G1 X15.966 Y-15.289 E1815.57952
G1 X18.94 Y-8.092 E1816.0651
G1 X19.952 Y-0.414 E1816.548
G1 X18.94 Y7.263 E1817.03084
G1 X15.977 Y14.431 E1817.51454
G1 X11.239 Y20.619 E1818.00057
G1 X5.08 Y25.346 E1818.48475
G1 X-2.095 Y28.318 E1818.96907
G1 X-9.794 Y29.332 E1819.45341
G1 X-17.494 Y28.318 E1819.93781
G1 X-24.67 Y25.346 E1820.42224
G1 X-30.83 Y20.619 E1820.90652
; LAYER:9
G1 F6600 E1814.10652
G1 Z3
G0 F18000 X-14.645 Y3.542 Z3
; TYPE:WALL-OUTER
G1 Z3
G1 F6600 E1820.90652
G1 F660 X-13.455 Y4.663 E1821.00843
G1 X-12.017 Y5.438 E1821.11025
G1 X-10.425 Y5.813 E1821.21218
G1 X-8.793 Y5.764 E1821.31394
G1 X-7.227 Y5.294 E1821.41585
G1 X-5.837 Y4.435 E1821.5177
G1 X-4.715 Y3.245 E1821.61965
G1 X-3.941 Y1.807 E1821.72146
G1 X-3.565 Y0.215 E1821.82346
G1 X-3.614 Y-1.416 E1821.92522
G1 X-4.084 Y-2.981 E1822.0272
G1 X-4.944 Y-4.371 E1822.12922
G1 X-6.134 Y-5.493 E1822.23131
G1 X-7.572 Y-6.267 E1822.33324
G1 X-9.164 Y-6.643 E1822.43532
G1 X-10.796 Y-6.594 E1822.53721
G1 X-12.362 Y-6.124 E1822.63921
G1 X-13.752 Y-5.264 E1822.74117
G1 X-14.874 Y-4.075 E1822.84312
G1 X-15.648 Y-2.635 E1822.94504
G1 X-16.023 Y-1.045 E1823.04687
G1 X-15.975 Y0.586 E1823.14857
G1 X-15.505 Y2.151 E1823.25045
G1 X-14.645 Y3.542 E1823.35241
G0 F18000 X-15.426 Y4.181
G1 F660 X-16.425 Y2.564 E1823.47097
G1 X-16.97 Y0.75 E1823.58911
G1 X-17.027 Y-1.148 E1823.70753
G1 X-16.59 Y-2.994 E1823.82588
G1 X-15.692 Y-4.665 E1823.94421
G1 X-14.392 Y-6.046 E1824.06249
G1 X-12.774 Y-7.045 E1824.18106
G1 X-10.961 Y-7.589 E1824.29906
G1 X-9.059 Y-7.646 E1824.41767
G1 X-7.216 Y-7.211 E1824.53568
G1 X-5.542 Y-6.31 E1824.65416
G1 X-4.163 Y-5.011 E1824.77221
G1 X-3.164 Y-3.394 E1824.89066
G1 X-2.619 Y-1.58 E1825.0087
G1 X-2.562 Y0.319 E1825.12712
G1 X-2.999 Y2.165 E1825.24544
G1 X-3.897 Y3.835 E1825.36371
G1 X-5.197 Y5.216 E1825.48204
G1 X-6.815 Y6.215 E1825.60068
G1 X-8.628 Y6.76 E1825.7188
G1 X-10.529 Y6.816 E1825.83746
G1 X-12.375 Y6.381 E1825.9558
G1 X-14.045 Y5.482 E1826.07413
G1 X-15.426 Y4.181 E1826.1925
G1 F6600 E1819.3925
G1 Z3.3
G0 F18000 X-9.834 Y28.822
; TYPE:WALL-INNER
G1 Z3
G1 F6600 E1826.1925
G1 F780 X-2.94 Y27.925 E1826.62599
G1 X-9.794 Y28.827 E1827.05717
G1 X-9.834 Y28.822 E1827.05974
G0 F18000 X-9.835 Y28.318
; TYPE:WALL-OUTER
G1 F660 X-2.356 Y27.345 E1827.53002
G1 X4.573 Y24.473 E1827.99773
G1 X10.525 Y19.906 E1828.46559
G1 X15.092 Y13.954 E1828.93345
G1 X17.964 Y7.022 E1829.40138
G1 X18.943 Y-0.414 E1829.86911
G1 X17.968 Y-7.823 E1830.3352
G1 X15.092 Y-14.783 E1830.8049
G1 X10.525 Y-20.735 E1831.27281
G1 X4.573 Y-25.302 E1831.74071
G1 X-2.356 Y-28.174 E1832.2085
G1 X-9.794 Y-29.153 E1832.67642
G1 X-17.232 Y-28.174 E1833.14433
G1 X-24.164 Y-25.302 E1833.6123
G1 X-30.116 Y-20.735 E1834.08017
G1 X-34.668 Y-14.802 E1834.54651
G1 X-37.555 Y-7.852 E1835.0158
G1 X-38.534 Y-0.414 E1835.4836
G1 X-37.555 Y7.022 E1835.95127
G1 X-34.683 Y13.954 E1836.41917
G1 X-30.116 Y19.906 E1836.887
G1 X-24.164 Y24.473 E1837.35481
G1 X-17.232 Y27.345 E1837.82268
G1 X-9.835 Y28.318 E1838.28789
G0 F18000 X-9.794 Y29.332
G1 F660 X-17.494 Y28.318 E1838.77229
G1 X-24.67 Y25.346 E1839.25673
G1 X-30.83 Y20.619 E1839.741
G1 X-35.535 Y14.487 E1840.22305
G1 X-38.528 Y7.284 E1840.70951
G1 X-39.542 Y-0.414 E1841.19373
G1 X-38.528 Y-8.113 E1841.67806
G1 X-35.556 Y-15.29 E1842.16253
G1 X-30.83 Y-21.449 E1842.64668
G1 X-24.67 Y-26.176 E1843.1309
G1 X-17.494 Y-29.148 E1843.61524
G1 X-9.794 Y-30.162 E1844.09952
G1 X-2.095 Y-29.148 E1844.58373
G1 X5.08 Y-26.176 E1845.06797
G1 X11.239 Y-21.449 E1845.55211
G1 X15.966 Y-15.289 E1846.03629
G1 X18.94 Y-8.089 E1846.52204
G1 X19.952 Y-0.414 E1847.00475
G1 X18.94 Y7.26 E1847.4874
G1 X15.98 Y14.424 E1847.9708
G1 X11.236 Y20.621 E1848.45751
G1 X5.08 Y25.346 E1848.94146
G1 X-2.095 Y28.318 E1849.42578
G1 X-9.794 Y29.332 E1849.91012
; LAYER:10
G1 F6600 E1843.11012
G1 Z3.3
G0 F18000 X-10.425 Y5.813 Z3.3
; TYPE:WALL-OUTER
G1 Z3.3
G1 F6600 E1849.91012
G1 F660 X-8.793 Y5.764 E1850.01188
G1 X-7.227 Y5.294 E1850.11378
G1 X-5.837 Y4.435 E1850.21563
G1 X-4.715 Y3.245 E1850.31758
G1 X-3.941 Y1.807 E1850.4194
G1 X-3.565 Y0.215 E1850.5214
G1 X-3.614 Y-1.416 E1850.62316
G1 X-4.084 Y-2.981 E1850.72514
G1 X-4.944 Y-4.371 E1850.82716
G1 X-6.134 Y-5.493 E1850.92924
G1 X-7.572 Y-6.267 E1851.03117
G1 X-9.164 Y-6.643 E1851.13326
G1 X-10.796 Y-6.594 E1851.23514
G1 X-12.362 Y-6.124 E1851.33715
G1 X-13.752 Y-5.264 E1851.4391
G1 X-14.874 Y-4.075 E1851.54105
G1 X-15.648 Y-2.635 E1851.64298
G1 X-16.023 Y-1.045 E1851.74481
G1 X-15.975 Y0.586 E1851.8465
G1 X-15.505 Y2.151 E1851.94839
G1 X-14.645 Y3.542 E1852.05034
G1 X-13.455 Y4.663 E1852.15225
G1 X-12.017 Y5.438 E1852.25407
G1 X-10.425 Y5.813 E1852.35601
G0 F18000 X-10.529 Y6.816
G1 F660 X-12.375 Y6.381 E1852.47434
G1 X-14.045 Y5.482 E1852.59267
G1 X-15.426 Y4.181 E1852.71104
G1 X-16.425 Y2.564 E1852.82961
G1 X-16.97 Y0.75 E1852.94775
G1 X-17.027 Y-1.148 E1853.06617
G1 X-16.59 Y-2.994 E1853.18451
G1 X-15.692 Y-4.665 E1853.30284
G1 X-14.392 Y-6.046 E1853.42112
G1 X-12.774 Y-7.045 E1853.53969
G1 X-10.961 Y-7.589 E1853.65769
G1 X-9.059 Y-7.646 E1853.7763
G1 X-7.216 Y-7.211 E1853.89432
G1 X-5.542 Y-6.31 E1854.01279
G1 X-4.163 Y-5.011 E1854.13084
G1 X-3.164 Y-3.394 E1854.24929
G1 X-2.619 Y-1.58 E1854.36734
G1 X-2.562 Y0.319 E1854.48575
G1 X-2.999 Y2.165 E1854.60407
G1 X-3.897 Y3.835 E1854.72235
G1 X-5.197 Y5.216 E1854.84067
G1 X-6.815 Y6.215 E1854.95931
G1 X-8.628 Y6.76 E1855.07743
G1 X-10.529 Y6.816 E1855.19609
G1 F6600 E1848.39609
G1 Z3.6
G0 F18000 X-9.845 Y28.82
; TYPE:WALL-INNER
G1 Z3.3
G1 F6600 E1855.19609
G1 F780 X-2.788 Y27.905 E1855.63981
G1 X-9.794 Y28.827 E1856.08055
G1 X-9.845 Y28.82 E1856.08383
G0 F18000 X-9.844 Y28.316
; TYPE:WALL-OUTER
G1 F660 X-2.356 Y27.345 E1856.55465
G1 X4.573 Y24.473 E1857.02235
G1 X10.525 Y19.906 E1857.49021
G1 X15.092 Y13.954 E1857.95807
G1 X17.964 Y7.022 E1858.426
G1 X18.943 Y-0.414 E1858.89373
G1 X17.969 Y-7.816 E1859.35938
G1 X15.092 Y-14.783 E1859.82951
G1 X10.525 Y-20.735 E1860.29742
G1 X4.573 Y-25.302 E1860.76532
G1 X-2.356 Y-28.174 E1861.2331
G1 X-9.794 Y-29.153 E1861.70103
G1 X-17.232 Y-28.174 E1862.16894
G1 X-24.164 Y-25.302 E1862.6369
G1 X-30.116 Y-20.735 E1863.10478
G1 X-34.665 Y-14.807 E1863.57076
G1 X-37.555 Y-7.852 E1864.04041
G1 X-38.534 Y-0.414 E1864.50821
G1 X-37.555 Y7.022 E1864.97587
G1 X-34.683 Y13.954 E1865.44378
G1 X-30.116 Y19.906 E1865.9116
G1 X-24.164 Y24.473 E1866.37942
G1 X-17.232 Y27.345 E1866.84729
G1 X-9.844 Y28.316 E1867.31193
G0 F18000 X-9.794 Y29.332
G1 F660 X-17.494 Y28.318 E1867.79633
G1 X-24.67 Y25.346 E1868.28076
G1 X-30.83 Y20.619 E1868.76504
G1 X-35.533 Y14.489 E1869.24691
G1 X-38.528 Y7.284 E1869.73353
G1 X-39.542 Y-0.414 E1870.21775
G1 X-38.528 Y-8.113 E1870.70208
G1 X-35.556 Y-15.29 E1871.18655
G1 X-30.83 Y-21.449 E1871.6707
G1 X-24.67 Y-26.176 E1872.15492
G1 X-17.494 Y-29.148 E1872.63926
G1 X-9.794 Y-30.162 E1873.12355
G1 X-2.095 Y-29.148 E1873.60775
G1 X5.08 Y-26.176 E1874.09199
G1 X11.239 Y-21.449 E1874.57613
G1 X15.966 Y-15.289 E1875.06031
G1 X18.941 Y-8.087 E1875.5462
G1 X19.952 Y-0.414 E1876.02878
G1 X18.941 Y7.258 E1876.5113
G1 X15.966 Y14.459 E1876.99719
G1 X11.239 Y20.619 E1877.48142
G1 X5.08 Y25.346 E1877.96559
G1 X-2.095 Y28.318 E1878.44991
G1 X-9.794 Y29.332 E1878.93425
; LAYER:11
G1 F6600 E1872.13425
G1 Z3.6
G0 F18000 X-10.425 Y5.813 Z3.6
; TYPE:WALL-OUTER
G1 Z3.6
G1 F6600 E1878.93425
G1 F660 X-8.793 Y5.764 E1879.03601
G1 X-7.227 Y5.294 E1879.13792
G1 X-5.837 Y4.435 E1879.23977
G1 X-4.715 Y3.245 E1879.34172
G1 X-3.941 Y1.807 E1879.44353
G1 X-3.565 Y0.215 E1879.54553
G1 X-3.614 Y-1.416 E1879.64729
G1 X-4.084 Y-2.981 E1879.74927
G1 X-4.944 Y-4.371 E1879.85129
G1 X-6.134 Y-5.493 E1879.95338
G1 X-7.572 Y-6.267 E1880.05531
G1 X-9.164 Y-6.643 E1880.15739
G1 X-10.796 Y-6.594 E1880.25928
G1 X-12.362 Y-6.124 E1880.36128
G1 X-13.752 Y-5.264 E1880.46324
G1 X-14.874 Y-4.075 E1880.56518
G1 X-15.648 Y-2.635 E1880.66711
G1 X-16.023 Y-1.045 E1880.76894
G1 X-15.975 Y0.586 E1880.87064
G1 X-15.505 Y2.151 E1880.97252
G1 X-14.645 Y3.542 E1881.07448
G1 X-13.455 Y4.663 E1881.17639
G1 X-12.017 Y5.438 E1881.2782
G1 X-10.425 Y5.813 E1881.38014
G0 F18000 X-10.529 Y6.816
G1 F660 X-12.375 Y6.381 E1881.49848
G1 X-14.045 Y5.482 E1881.61681
G1 X-15.426 Y4.181 E1881.73517
G1 X-16.425 Y2.564 E1881.85374
G1 X-16.97 Y0.75 E1881.97188
G1 X-17.027 Y-1.148 E1882.0903
G1 X-16.59 Y-2.994 E1882.20865
G1 X-15.692 Y-4.665 E1882.32698
G1 X-14.392 Y-6.046 E1882.44526
G1 X-12.774 Y-7.045 E1882.56383
G1 X-10.961 Y-7.589 E1882.68183
G1 X-9.059 Y-7.646 E1882.80043
G1 X-7.216 Y-7.211 E1882.91845
G1 X-5.542 Y-6.31 E1883.03692
G1 X-4.163 Y-5.011 E1883.15498
G1 X-3.164 Y-3.394 E1883.27343
G1 X-2.619 Y-1.58 E1883.39147
G1 X-2.562 Y0.319 E1883.50989
G1 X-2.999 Y2.165 E1883.6282
G1 X-3.897 Y3.835 E1883.74648
G1 X-5.197 Y5.216 E1883.8648
G1 X-6.815 Y6.215 E1883.98344
G1 X-8.628 Y6.76 E1884.10156
G1 X-10.529 Y6.816 E1884.22023
G1 F6600 E1877.42023
G1 Z3.9
G0 F18000 X-9.854 Y28.819
; TYPE:WALL-INNER
G1 Z3.6
G1 F6600 E1884.22023
G1 F780 X-2.717 Y27.895 E1884.66897
G1 X-9.794 Y28.827 E1885.11418
G1 X-9.854 Y28.819 E1885.11802
G0 F18000 X-9.796 Y28.719
G0 X-2.24 Y27.781
G0 X4.798 Y24.865
G0 X10.845 Y20.226
G0 X15.484 Y14.179
G0 X18.4 Y7.139
G0 X19.395 Y-0.414
G0 X18.266 Y-8.298
G0 X15.552 Y-14.98
G0 X15.552 Y-14.98
G1 F780 X10.883 Y-21.091 E1885.59767
G1 X15.53 Y-15.034 E1886.07371
G1 X15.552 Y-14.98 E1886.07729
G0 F18000 X15.966 Y-15.289
; TYPE:WALL-OUTER
G1 F660 X18.941 Y-8.084 E1886.56335
G1 X19.952 Y-0.414 E1887.04575
G1 X18.941 Y7.255 E1887.52809
G1 X15.966 Y14.459 E1888.01415
G1 X11.239 Y20.619 E1888.49837
G1 X5.08 Y25.346 E1888.98255
G1 X-2.095 Y28.318 E1889.46687
G1 X-9.794 Y29.332 E1889.95121
G1 X-17.494 Y28.318 E1890.43561
G1 X-24.67 Y25.346 E1890.92005
G1 X-30.83 Y20.619 E1891.40432
G1 X-35.556 Y14.46 E1891.8885
G1 X-38.528 Y7.284 E1892.3729
G1 X-39.542 Y-0.414 E1892.85712
G1 X-38.528 Y-8.113 E1893.34145
G1 X-35.556 Y-15.29 E1893.82592
G1 X-30.83 Y-21.449 E1894.31007
G1 X-24.67 Y-26.176 E1894.79429
G1 X-17.494 Y-29.148 E1895.27863
G1 X-9.794 Y-30.162 E1895.76292
G1 X-2.095 Y-29.148 E1896.24712
G1 X5.08 Y-26.176 E1896.73136
G1 X11.239 Y-21.449 E1897.2155
G1 X15.966 Y-15.289 E1897.69968
G0 F18000 X15.115 Y-14.728
G1 F660 X10.526 Y-20.735 E1898.17115
G1 X4.573 Y-25.302 E1898.63909
G1 X-2.356 Y-28.174 E1899.10688
G1 X-9.794 Y-29.153 E1899.5748
G1 X-17.232 Y-28.174 E1900.04271
G1 X-24.164 Y-25.302 E1900.51068
G1 X-30.116 Y-20.735 E1900.97855
G1 X-34.662 Y-14.811 E1901.44422
G1 X-37.555 Y-7.852 E1901.91417
G1 X-38.534 Y-0.414 E1902.38198
G1 X-37.555 Y7.022 E1902.84964
G1 X-34.683 Y13.954 E1903.31755
G1 X-30.116 Y19.906 E1903.78537
G1 X-24.164 Y24.473 E1904.25318
G1 X-17.232 Y27.345 E1904.72106
G1 X-9.853 Y28.315 E1905.18513
G1 X-2.356 Y27.345 E1905.6565
G1 X4.573 Y24.473 E1906.1242
G1 X10.525 Y19.906 E1906.59206
G1 X15.092 Y13.954 E1907.05992
G1 X17.964 Y7.022 E1907.52785
G1 X18.943 Y-0.414 E1907.99558
G1 X17.97 Y-7.806 E1908.46061
G1 X17.848 Y-8.133 E1908.48243
G1 X15.115 Y-14.728 E1908.92769
; LAYER:12
G1 F6600 E1902.12769
G1 Z3.9
G0 F18000 X-3.164 Y-3.394 Z3.9
; TYPE:WALL-OUTER
G1 Z3.9
G1 F6600 E1908.92769
G1 F660 X-2.619 Y-1.58 E1909.04573
G1 X-2.562 Y0.319 E1909.16415
G1 X-2.999 Y2.165 E1909.28247
G1 X-3.897 Y3.835 E1909.40074
G1 X-5.197 Y5.216 E1909.51906
G1 X-6.815 Y6.215 E1909.6377
G1 X-8.628 Y6.76 E1909.75583
G1 X-10.529 Y6.816 E1909.87449
G1 X-12.375 Y6.381 E1909.99283
G1 X-14.045 Y5.482 E1910.11116
G1 X-15.426 Y4.181 E1910.22953
G1 X-16.425 Y2.564 E1910.34809
G1 X-16.97 Y0.75 E1910.46623
G1 X-17.027 Y-1.148 E1910.58465
G1 X-16.59 Y-2.994 E1910.703
G1 X-15.692 Y-4.665 E1910.82133
G1 X-14.392 Y-6.046 E1910.93961
G1 X-12.774 Y-7.045 E1911.05818
G1 X-10.961 Y-7.589 E1911.17618
G1 X-9.059 Y-7.646 E1911.29478
G1 X-7.216 Y-7.211 E1911.4128
G1 X-5.542 Y-6.31 E1911.53127
G1 X-4.163 Y-5.011 E1911.64933
G1 X-3.164 Y-3.394 E1911.76778
G0 F18000 X-4.084 Y-2.981
G1 F660 X-4.944 Y-4.371 E1911.8698
G1 X-6.134 Y-5.493 E1911.97188
G1 X-7.572 Y-6.267 E1912.07381
G1 X-9.164 Y-6.643 E1912.1759
G1 X-10.796 Y-6.594 E1912.27778
G1 X-12.362 Y-6.124 E1912.37979
G1 X-13.752 Y-5.264 E1912.48174
G1 X-14.874 Y-4.075 E1912.58369
G1 X-15.648 Y-2.635 E1912.68562
G1 X-16.023 Y-1.045 E1912.78745
G1 X-15.975 Y0.586 E1912.88914
G1 X-15.505 Y2.151 E1912.99103
G1 X-14.645 Y3.542 E1913.09298
G1 X-13.455 Y4.663 E1913.19489
G1 X-12.017 Y5.438 E1913.29671
G1 X-10.425 Y5.813 E1913.39864
G1 X-8.793 Y5.764 E1913.5004
G1 X-7.227 Y5.294 E1913.60231
G1 X-5.837 Y4.435 E1913.70416
G1 X-4.715 Y3.245 E1913.80611
G1 X-3.941 Y1.807 E1913.90792
G1 X-3.565 Y0.215 E1914.00992
G1 X-3.614 Y-1.416 E1914.11168
G1 X-4.084 Y-2.981 E1914.21366
G1 F6600 E1907.41366
G1 Z4.2
G0 F18000 X15.555 Y-14.971
; TYPE:WALL-INNER
G1 Z3.9
G1 F6600 E1914.21366
G1 F780 X10.883 Y-21.091 E1914.69388
G1 X15.529 Y-15.035 E1915.16983
G1 X15.555 Y-14.971 E1915.17408
G0 F18000 X15.495 Y-14.832
G0 X18.4 Y-7.969
G0 X19.395 Y-0.414
G0 X18.4 Y7.139
G0 X15.484 Y14.179
G0 X10.845 Y20.226
G0 X4.798 Y24.865
G0 X-2.662 Y27.888
G0 X-2.662 Y27.888
G1 F780 X-9.794 Y28.827 E1915.62275
G1 X-9.863 Y28.818 E1915.62715
G1 X-2.662 Y27.888 E1916.0799
G0 F18000 X-2.095 Y28.318
; TYPE:WALL-OUTER
G1 F660 X-9.794 Y29.332 E1916.56424
G1 X-17.494 Y28.318 E1917.04864
G1 X-24.67 Y25.346 E1917.53307
G1 X-30.83 Y20.619 E1918.01735
G1 X-35.556 Y14.46 E1918.50152
G1 X-38.528 Y7.284 E1918.98593
G1 X-39.542 Y-0.414 E1919.47015
G1 X-38.528 Y-8.113 E1919.95448
G1 X-35.556 Y-15.29 E1920.43895
G1 X-30.83 Y-21.449 E1920.9231
G1 X-24.67 Y-26.176 E1921.40731
G1 X-17.494 Y-29.148 E1921.89166
G1 X-9.794 Y-30.162 E1922.37594
G1 X-2.095 Y-29.148 E1922.86015
G1 X5.08 Y-26.176 E1923.34439
G1 X11.239 Y-21.449 E1923.82853
G1 X15.966 Y-15.289 E1924.3127
G1 X18.941 Y-8.082 E1924.79888
G1 X19.952 Y-0.414 E1925.28116
G1 X18.941 Y7.253 E1925.76337
G1 X15.966 Y14.459 E1926.24955
G1 X11.239 Y20.619 E1926.73377
G1 X5.08 Y25.346 E1927.21795
G1 X-2.095 Y28.318 E1927.70227
G0 F18000 X-2.356 Y27.345
G1 F660 X4.573 Y24.473 E1928.16997
G1 X10.525 Y19.906 E1928.63783
G1 X15.092 Y13.954 E1929.10569
G1 X17.964 Y7.022 E1929.57363
G1 X18.943 Y-0.414 E1930.04136
G1 X17.964 Y-7.852 E1930.50927
G1 X15.118 Y-14.72 E1930.97296
G1 X10.526 Y-20.735 E1931.44493
G1 X4.573 Y-25.302 E1931.91288
G1 X-2.356 Y-28.174 E1932.38067
G1 X-9.794 Y-29.153 E1932.84859
G1 X-17.232 Y-28.174 E1933.3165
G1 X-24.164 Y-25.302 E1933.78447
G1 X-30.116 Y-20.735 E1934.25234
G1 X-34.683 Y-14.783 E1934.72019
G1 X-37.555 Y-7.852 E1935.18803
G1 X-38.534 Y-0.414 E1935.65583
G1 X-37.555 Y7.022 E1936.12349
G1 X-34.683 Y13.954 E1936.5914
G1 X-30.116 Y19.906 E1937.05922
G1 X-24.164 Y24.473 E1937.52704
G1 X-17.232 Y27.345 E1937.99491
G1 X-9.862 Y28.314 E1938.45842
G1 X-2.356 Y27.345 E1938.93034
; LAYER:13
G1 F6600 E1932.13034
G1 Z4.2
G0 F18000 X-8.628 Y6.76 Z4.2
; TYPE:WALL-OUTER
G1 Z4.2
G1 F6600 E1938.93034
G1 F660 X-10.529 Y6.816 E1939.049
G1 X-12.375 Y6.381 E1939.16734
G1 X-14.045 Y5.482 E1939.28567
G1 X-15.426 Y4.181 E1939.40404
G1 X-16.425 Y2.564 E1939.5226
G1 X-16.97 Y0.75 E1939.64074
G1 X-17.027 Y-1.148 E1939.75916
G1 X-16.59 Y-2.994 E1939.87751
G1 X-15.692 Y-4.665 E1939.99584
G1 X-14.392 Y-6.046 E1940.11412
G1 X-12.774 Y-7.045 E1940.23269
G1 X-10.961 Y-7.589 E1940.35069
G1 X-9.059 Y-7.646 E1940.46929
G1 X-7.216 Y-7.211 E1940.58731
G1 X-5.542 Y-6.31 E1940.70578
G1 X-4.163 Y-5.011 E1940.82384
G1 X-3.164 Y-3.394 E1940.94229
G1 X-2.619 Y-1.58 E1941.06033
G1 X-2.562 Y0.319 E1941.17875
G1 X-2.999 Y2.165 E1941.29707
G1 X-3.897 Y3.835 E1941.41534
G1 X-5.197 Y5.216 E1941.53366
G1 X-6.815 Y6.215 E1941.6523
G1 X-8.628 Y6.76 E1941.77042
G0 F18000 X-8.793 Y5.764
G1 F660 X-7.227 Y5.294 E1941.87233
G1 X-5.837 Y4.435 E1941.97418
G1 X-4.715 Y3.245 E1942.07613
G1 X-3.941 Y1.807 E1942.17794
G1 X-3.565 Y0.215 E1942.27994
G1 X-3.614 Y-1.416 E1942.3817
G1 X-4.084 Y-2.981 E1942.48369
G1 X-4.944 Y-4.371 E1942.58571
G1 X-6.134 Y-5.493 E1942.68779
G1 X-7.572 Y-6.267 E1942.78972
