; Generated with MatterSlice 1.0
; filamentDiameter = 1.75
; extrusionWidth = 0.5
; firstLayerExtrusionWidth = 0.4
; layerThickness = 0.3
; firstLayerThickness = 0.3
; automatic settings before start_gcode
G21 ; set units to millimeters
M107 ; fan off
T0 ; set the active extruder to 0
; settings from start_gcode
M104 S210
M190 S60
M109 S210
G28
; automatic settings after start_gcode
T0 ; set the active extruder to 0
G90 ; use absolute coordinates
G92 E0 ; reset the expected extruder position
M82 ; use absolute distance for extrusion
; Layer count: 217
; LAYER:0
M107
G0 F18000 X0.837 Y-47.399 Z0.3
; TYPE:SKIRT
G1 Z0.3
G1 F6600 E0
G1 F720 X12.746 Y-42.998 E0.6334
G1 X23.108 Y-35.665 E1.26669
G1 X31.2 Y-25.923 E1.89848
G1 X36.517 Y-14.392 E2.53193
G1 X38.67 Y-1.855 E3.16651
G1 X37.501 Y10.786 E3.79981
G1 X33.109 Y22.669 E4.43186
G1 X25.784 Y33.031 E5.06494
G1 X16.002 Y41.168 E5.69974
G1 X4.468 Y46.476 E6.33319
G1 X-8.044 Y48.618 E6.9665
G1 X-20.685 Y47.449 E7.5999
G1 X-32.593 Y43.047 E8.23333
G1 X-42.955 Y35.714 E8.86669
G1 X-51.067 Y25.949 E9.50007
G1 X-56.363 Y14.444 E10.13197
G1 X-58.512 Y1.935 E10.7652
G1 X-57.352 Y-10.705 E11.39846
G1 X-52.957 Y-22.615 E12.03185
G1 X-45.625 Y-32.99 E12.66568
G1 X-35.848 Y-41.119 E13.30002
G1 X-24.304 Y-46.428 E13.93392
G1 X-11.817 Y-48.566 E14.56592
G1 X0.837 Y-47.399 E15.19986
G0 F18000 X0.748 Y-47.006
G1 F720 X12.558 Y-42.642 E15.82798
G1 X22.834 Y-35.369 E16.45604
G1 X30.859 Y-25.707 E17.08262
G1 X36.131 Y-14.272 E17.71079
G1 X38.267 Y-1.84 E18.34006
G1 X37.108 Y10.696 E18.9681
G1 X32.752 Y22.481 E19.59494
G1 X25.488 Y32.757 E20.22276
G1 X15.787 Y40.826 E20.85229
G1 X4.348 Y46.091 E21.48053
G1 X-8.059 Y48.215 E22.10852
G1 X-20.595 Y47.056 E22.73666
G1 X-32.405 Y42.69 E23.36489
G1 X-42.681 Y35.418 E23.99298
G1 X-50.726 Y25.734 E24.62112
G1 X-55.978 Y14.324 E25.2478
G1 X-58.109 Y1.919 E25.87576
G1 X-56.958 Y-10.616 E26.50376
G1 X-52.6 Y-22.427 E27.13188
G1 X-45.329 Y-32.716 E27.76045
G1 X-35.633 Y-40.778 E28.38955
G1 X-24.185 Y-46.043 E29.01817
G1 X-11.801 Y-48.163 E29.64496
G1 X0.748 Y-47.006 E30.27363
G0 F18000 X-0.012 Y-43.662
; TYPE:WALL-OUTER
G1 F720 X10.96 Y-39.607 E30.85715
G1 X20.504 Y-32.852 E31.44047
G1 X27.958 Y-23.879 E32.02241
G1 X32.857 Y-13.253 E32.60613
G1 X34.841 Y-1.706 E33.19061
G1 X33.764 Y9.936 E33.77386
G1 X29.716 Y20.886 E34.35629
G1 X22.972 Y30.427 E34.9392
G1 X13.958 Y37.925 E35.52415
G1 X3.331 Y42.816 E36.1078
G1 X-8.192 Y44.789 E36.69105
G1 X-19.835 Y43.712 E37.27445
G1 X-30.807 Y39.656 E37.85809
G1 X-40.351 Y32.901 E38.44148
G1 X-47.824 Y23.906 E39.02494
G1 X-52.703 Y13.306 E39.60713
G1 X-54.683 Y1.784 E40.1904
G1 X-53.614 Y-9.858 E40.77366
G1 X-49.564 Y-20.833 E41.35733
G1 X-42.813 Y-30.386 E41.94094
G1 X-33.805 Y-37.876 E42.5254
G1 X-23.168 Y-42.768 E43.10949
G1 X-11.668 Y-44.737 E43.69154
G1 X-0.012 Y-43.662 E44.27547
G1 F6600 E37.47547
G1 Z0.6
G0 F18000 X-0.081 Y-43.369
G0 X-8.029 Y-6.903
G0 X-8.114 Y-6.512
G0 X-8.054 Y-6.797
G0 X-8.054 Y-6.797
G0 X-8.169 Y-6.521
G1 Z0.3
G1 F6600 E44.37547
G1 F720 X-9.923 Y-6.752 E44.46379
G1 X-11.677 Y-6.521 E44.5521
G1 X-13.312 Y-5.844 E44.64041
G1 X-14.715 Y-4.767 E44.72866
G1 X-15.792 Y-3.363 E44.81693
G1 X-16.469 Y-1.729 E44.90515
G1 X-16.701 Y0.024 E44.99333
G1 X-16.469 Y1.778 E45.08159
G1 X-15.792 Y3.413 E45.16986
G1 X-14.715 Y4.817 E45.25811
G1 X-13.312 Y5.894 E45.34631
G1 X-11.677 Y6.571 E45.43455
G1 X-9.923 Y6.802 E45.52276
G1 X-8.169 Y6.571 E45.61098
G1 X-6.535 Y5.894 E45.69917
G1 X-5.131 Y4.817 E45.78741
G1 X-4.054 Y3.413 E45.87566
G1 X-3.377 Y1.778 E45.96393
G1 X-3.146 Y0.024 E46.05219
G1 X-3.377 Y-1.729 E46.14041
G1 X-4.054 Y-3.363 E46.22871
G1 X-5.131 Y-4.767 E46.31706
G1 X-6.535 Y-5.844 E46.40541
G1 X-8.169 Y-6.521 E46.49372
G0 F18000 X-8.064 Y-6.911
; TYPE:WALL-INNER
G1 F720 X-9.923 Y-7.155 E46.58732
G1 X-11.782 Y-6.911 E46.6809
G1 X-13.514 Y-6.193 E46.77447
G1 X-15 Y-5.052 E46.86795
G1 X-16.141 Y-3.565 E46.96145
G1 X-16.858 Y-1.834 E47.0549
G1 X-17.104 Y0.024 E47.14836
G1 X-16.858 Y1.883 E47.24191
G1 X-16.141 Y3.615 E47.33541
G1 X-15 Y5.102 E47.42889
G1 X-13.514 Y6.243 E47.52232
G1 X-11.782 Y6.961 E47.61581
G1 X-9.923 Y7.205 E47.70931
G1 X-8.064 Y6.961 E47.8028
G1 X-6.333 Y6.243 E47.89625
G1 X-4.846 Y5.102 E47.98972
G1 X-3.705 Y3.615 E48.0832
G1 X-2.987 Y1.883 E48.17672
G1 X-2.743 Y0.024 E48.27025
G1 X-2.987 Y-1.834 E48.36375
G1 X-3.705 Y-3.565 E48.45731
G1 X-4.846 Y-5.052 E48.55089
G1 X-6.333 Y-6.193 E48.64447
G1 X-8.064 Y-6.911 E48.73803
G0 F18000 X-0.102 Y-43.268
G0 X-0.102 Y-43.268
G1 F720 X10.77 Y-39.251 E49.31621
G1 X20.232 Y-32.555 E49.89449
G1 X27.617 Y-23.663 E50.47112
G1 X32.471 Y-13.135 E51.04946
G1 X34.438 Y-1.69 E51.62878
G1 X33.371 Y9.846 E52.20672
G1 X29.36 Y20.696 E52.78383
G1 X22.674 Y30.155 E53.36173
G1 X13.742 Y37.584 E53.94134
G1 X3.212 Y42.431 E54.51966
G1 X-8.208 Y44.386 E55.0977
G1 X-19.745 Y43.319 E55.67579
G1 X-30.617 Y39.3 E56.25411
G1 X-40.079 Y32.604 E56.83246
G1 X-47.483 Y23.69 E57.41062
G1 X-52.317 Y13.188 E57.98742
G1 X-54.28 Y1.767 E58.56558
G1 X-53.22 Y-9.768 E59.14349
G1 X-49.208 Y-20.643 E59.72182
G1 X-42.515 Y-30.114 E60.30042
G1 X-33.589 Y-37.535 E60.87954
G1 X-23.049 Y-42.383 E61.45831
G1 X-11.652 Y-44.334 E62.03514
G1 X-0.102 Y-43.268 E62.61377
G0 F18000 X-0.882 Y-43.2
; TYPE:FILL
G1 F720 X-17.447 Y-43.2 E63.44025
G0 F18000 X-19.784 Y-42.8
G1 F720 X0.761 Y-42.8 E64.46519
G0 F18000 X1.843 Y-42.4
G1 F720 X-22.122 Y-42.4 E65.66081
G0 F18000 X-23.545 Y-42
G1 F720 X2.926 Y-42 E66.9814
G0 F18000 X4.008 Y-41.6
G1 F720 X-24.415 Y-41.6 E68.39943
G0 F18000 X-25.285 Y-41.2
G1 F720 X5.091 Y-41.2 E69.91485
G0 F18000 X6.174 Y-40.8
G1 F720 X-26.154 Y-40.8 E71.5277
G0 F18000 X-27.024 Y-40.4
G1 F720 X7.256 Y-40.4 E73.23789
G0 F18000 X8.339 Y-40
G1 F720 X-27.894 Y-40 E75.04556
G0 F18000 X-28.763 Y-39.6
G1 F720 X9.421 Y-39.6 E76.95052
G0 F18000 X10.504 Y-39.2
G1 F720 X-29.633 Y-39.2 E78.95296
G0 F18000 X-30.503 Y-38.8
G1 F720 X11.165 Y-38.8 E81.03173
G0 F18000 X11.73 Y-38.4
G1 F720 X-31.372 Y-38.4 E83.1821
G0 F18000 X-32.242 Y-38
G1 F720 X12.295 Y-38 E85.40401
G0 F18000 X12.86 Y-37.6
G1 F720 X-33.112 Y-37.6 E87.69756
G0 F18000 X-33.773 Y-37.2
G1 F720 X13.425 Y-37.2 E90.05223
G0 F18000 X13.99 Y-36.8
G1 F720 X-34.254 Y-36.8 E92.45913
G0 F18000 X-34.735 Y-36.4
G1 F720 X14.555 Y-36.4 E94.91817
G0 F18000 X15.12 Y-36
G1 F720 X-35.216 Y-36 E97.42945
G0 F18000 X-35.697 Y-35.6
G1 F720 X15.685 Y-35.6 E99.99285
G0 F18000 X16.25 Y-35.2
G1 F720 X-36.178 Y-35.2 E102.6085
G0 F18000 X-36.659 Y-34.8
G1 F720 X16.815 Y-34.8 E105.27628
G0 F18000 X17.381 Y-34.4
G1 F720 X-37.14 Y-34.4 E107.99634
G0 F18000 X-37.621 Y-34
G1 F720 X17.946 Y-34 E110.76854
G0 F18000 X18.511 Y-33.6
G1 F720 X-38.102 Y-33.6 E113.59297
G0 F18000 X-38.584 Y-33.2
G1 F720 X19.076 Y-33.2 E116.46959
G0 F18000 X19.641 Y-32.8
G1 F720 X-39.065 Y-32.8 E119.39845
G0 F18000 X-39.546 Y-32.399
G1 F720 X20.176 Y-32.4 E122.37794
G0 F18000 X20.509 Y-32
G1 F720 X-40.027 Y-31.999 E125.39809
G0 F18000 X-40.508 Y-31.599
G1 F720 X20.841 Y-31.6 E128.45876
G0 F18000 X21.173 Y-31.2
G1 F720 X-40.989 Y-31.199 E131.56003
G0 F18000 X-41.47 Y-30.799
G1 F720 X21.505 Y-30.8 E134.70182
G0 F18000 X21.838 Y-30.4
G1 F720 X-41.951 Y-30.399 E137.88426
G0 F18000 X-42.424 Y-29.999
G1 F720 X22.17 Y-30 E141.10682
G0 F18000 X22.503 Y-29.6
G1 F720 X-42.707 Y-29.599 E144.36016
G0 F18000 X-42.99 Y-29.199
G1 F720 X22.835 Y-29.2 E147.64413
G0 F18000 X23.168 Y-28.8
G1 F720 X-43.272 Y-28.799 E150.95884
G0 F18000 X-43.555 Y-28.399
G1 F720 X23.5 Y-28.4 E154.30418
G0 F18000 X23.832 Y-28
G1 F720 X-43.838 Y-27.999 E157.68025
G0 F18000 X-44.121 Y-27.599
G1 F720 X24.164 Y-27.6 E161.08695
G0 F18000 X24.497 Y-27.2
G1 F720 X-44.403 Y-27.199 E164.52438
G0 F18000 X-44.686 Y-26.799
G1 F720 X24.829 Y-26.8 E167.99245
G0 F18000 X25.161 Y-26.4
G1 F720 X-44.969 Y-26.399 E171.49125
G0 F18000 X-45.251 Y-25.999
G1 F720 X25.493 Y-26 E175.02063
G0 F18000 X25.826 Y-25.6
G1 F720 X-45.534 Y-25.599 E178.5808
G0 F18000 X-45.817 Y-25.199
G1 F720 X26.158 Y-25.2 E182.1716
G0 F18000 X26.49 Y-24.8
G1 F720 X-46.099 Y-24.799 E185.79308
G0 F18000 X-46.382 Y-24.399
G1 F720 X26.823 Y-24.4 E189.44524
G0 F18000 X27.155 Y-24
G1 F720 X-46.665 Y-23.999 E193.12813
G0 F18000 X-46.948 Y-23.599
G1 F720 X27.487 Y-23.6 E196.84166
G0 F18000 X27.676 Y-23.2
G1 F720 X-47.23 Y-23.199 E200.57874
G0 F18000 X-47.513 Y-22.799
G1 F720 X27.86 Y-22.8 E204.33906
G0 F18000 X28.045 Y-22.4
G1 F720 X-47.796 Y-22.399 E208.12278
G0 F18000 X-48.078 Y-21.999
G1 F720 X28.229 Y-22 E211.92971
G0 F18000 X28.414 Y-21.6
G1 F720 X-48.361 Y-21.599 E215.76003
G0 F18000 X-48.644 Y-21.199
G1 F720 X28.598 Y-21.2 E219.61359
G0 F18000 X28.782 Y-20.8
G1 F720 X-48.927 Y-20.799 E223.49051
G0 F18000 X-49.148 Y-20.399
G1 F720 X28.967 Y-20.4 E227.38764
G0 F18000 X29.151 Y-20
G1 F720 X-49.296 Y-19.999 E231.30137
G0 F18000 X-49.444 Y-19.599
G1 F720 X29.336 Y-19.6 E235.23167
G0 F18000 X29.52 Y-19.2
G1 F720 X-49.591 Y-19.199 E239.17854
G0 F18000 X-49.739 Y-18.799
G1 F720 X29.704 Y-18.8 E243.14191
G0 F18000 X29.889 Y-18.4
G1 F720 X-49.886 Y-18.399 E247.12191
G0 F18000 X-50.034 Y-17.999
G1 F720 X30.073 Y-18 E251.11841
G0 F18000 X30.258 Y-17.6
G1 F720 X-50.181 Y-17.599 E255.13153
G0 F18000 X-50.329 Y-17.199
G1 F720 X30.442 Y-17.2 E259.16116
G0 F18000 X30.627 Y-16.8
G1 F720 X-50.477 Y-16.799 E263.20745
G0 F18000 X-50.624 Y-16.399
G1 F720 X30.811 Y-16.4 E267.27021
G0 F18000 X30.995 Y-16
G1 F720 X-50.772 Y-15.999 E271.34959
G0 F18000 X-50.919 Y-15.599
G1 F720 X31.18 Y-15.6 E275.44547
G0 F18000 X31.364 Y-15.2
G1 F720 X-51.067 Y-15.199 E279.55797
G0 F18000 X-51.214 Y-14.799
G1 F720 X31.549 Y-14.8 E283.68698
G0 F18000 X31.733 Y-14.4
G1 F720 X-51.362 Y-14.399 E287.83261
G0 F18000 X-51.51 Y-13.999
G1 F720 X31.917 Y-14 E291.99475
G0 F18000 X32.102 Y-13.6
G1 F720 X-51.657 Y-13.599 E296.1735
G0 F18000 X-51.805 Y-13.199
G1 F720 X32.286 Y-13.2 E300.36877
G0 F18000 X32.387 Y-12.8
G1 F720 X-51.952 Y-12.799 E304.57646
G0 F18000 X-52.1 Y-12.399
G1 F720 X32.456 Y-12.4 E308.79493
G0 F18000 X32.524 Y-12
G1 F720 X-52.247 Y-11.999 E313.02417
G0 F18000 X-52.395 Y-11.599
G1 F720 X32.593 Y-11.6 E317.26419
G0 F18000 X32.662 Y-11.2
G1 F720 X-52.543 Y-11.199 E321.51508
G0 F18000 X-52.69 Y-10.799
G1 F720 X32.73 Y-10.8 E325.77665
G0 F18000 X32.799 Y-10.4
G1 F720 X-52.838 Y-10.399 E330.0491
G0 F18000 X-52.985 Y-9.999
G1 F720 X32.868 Y-10 E334.33227
G0 F18000 X32.937 Y-9.6
G1 F720 X-53.095 Y-9.599 E338.62443
G0 F18000 X-53.132 Y-9.199
G1 F720 X33.005 Y-9.2 E342.92177
G0 F18000 X33.074 Y-8.8
G1 F720 X-53.169 Y-8.799 E347.22445
G0 F18000 X-53.206 Y-8.399
G1 F720 X33.143 Y-8.4 E351.53237
G0 F18000 X33.212 Y-8
G1 F720 X-53.242 Y-7.999 E355.84558
G0 F18000 X-53.279 Y-7.599
G1 F720 X33.28 Y-7.6 E360.16397
G0 F18000 X33.349 Y-7.2
G1 F720 X-9.185 Y-7.199 E362.286
G0 F18000 X-10.661 Y-7.199
G1 F720 X-53.316 Y-7.199 E364.41412
G0 F18000 X-53.353 Y-6.799
G1 F720 X-12.416 Y-6.799 E366.45643
G0 F18000 X-13.381 Y-6.399
G1 F720 X-53.389 Y-6.399 E368.45248
G0 F18000 X-53.426 Y-5.999
G1 F720 X-13.994 Y-5.999 E370.4197
G0 F18000 X-14.516 Y-5.599
G1 F720 X-53.463 Y-5.599 E372.36283
G0 F18000 X-53.5 Y-5.199
G1 F720 X-15.037 Y-5.199 E374.2817
G0 F18000 X-15.37 Y-4.799
G1 F720 X-53.536 Y-4.799 E376.18586
G0 F18000 X-53.573 Y-4.399
G1 F720 X-15.676 Y-4.399 E378.0765
G0 F18000 X-15.983 Y-3.999
G1 F720 X-53.61 Y-3.999 E379.95377
G0 F18000 X-53.647 Y-3.599
G1 F720 X-16.278 Y-3.599 E381.81807
G0 F18000 X-16.444 Y-3.199
G1 F720 X-53.683 Y-3.199 E383.67598
G0 F18000 X-53.72 Y-2.799
G1 F720 X-16.61 Y-2.799 E385.52736
G0 F18000 X-16.775 Y-2.399
G1 F720 X-53.757 Y-2.399 E387.37244
G0 F18000 X-53.794 Y-1.999
G1 F720 X-16.941 Y-1.999 E389.211
G0 F18000 X-17.031 Y-1.599
G1 F720 X-53.83 Y-1.599 E391.04696
G0 F18000 X-53.867 Y-1.199
G1 F720 X-17.084 Y-1.199 E392.88202
G0 F18000 X-17.137 Y-0.799
G1 F720 X-53.904 Y-0.799 E394.71638
G0 F18000 X-53.941 Y-0.399
G1 F720 X-17.19 Y-0.399 E396.54985
G0 F18000 X-17.243 Y0
G1 F720 X-53.977 Y0 E398.38256
G0 F18000 X-54.014 Y0.4
G1 F720 X-17.196 Y0.4 E400.21937
G0 F18000 X-17.143 Y0.8
G1 F720 X-54.051 Y0.8 E402.06077
G0 F18000 X-54.088 Y1.2
G1 F720 X-17.09 Y1.2 E403.90656
G0 F18000 X-17.037 Y1.6
G1 F720 X-54.124 Y1.6 E405.75688
G0 F18000 X-54.098 Y2
G1 F720 X-16.961 Y2 E407.60961
G0 F18000 X-16.795 Y2.4
G1 F720 X-54.029 Y2.4 E409.46727
G0 F18000 X-53.96 Y2.8
G1 F720 X-16.63 Y2.8 E411.32962
G0 F18000 X-16.464 Y3.2
G1 F720 X-53.892 Y3.2 E413.19696
G0 F18000 X-53.823 Y3.6
G1 F720 X-16.299 Y3.6 E415.06899
G0 F18000 X-16.021 Y4
G1 F720 X-53.754 Y4 E416.95155
G0 F18000 X-53.685 Y4.4
G1 F720 X-15.714 Y4.4 E418.84588
G0 F18000 X-15.407 Y4.8
G1 F720 X-53.617 Y4.8 E420.75223
G0 F18000 X-53.548 Y5.2
G1 F720 X-15.101 Y5.2 E422.67031
G0 F18000 X-14.58 Y5.6
G1 F720 X-53.479 Y5.6 E424.61104
G0 F18000 X-53.41 Y6
G1 F720 X-14.058 Y6 E426.57427
G0 F18000 X-13.499 Y6.4
G1 F720 X-53.342 Y6.4 E428.56209
G0 F18000 X-53.273 Y6.8
G1 F720 X-12.534 Y6.8 E430.59452
G0 F18000 X-11.034 Y7.2
G1 F720 X-53.204 Y7.2 E432.69844
G0 F18000 X-53.135 Y7.6
G1 F720 X33.439 Y7.599 E437.01759
G0 F18000 X33.402 Y7.999
G1 F720 X-53.067 Y8 E441.33154
G0 F18000 X-52.998 Y8.4
G1 F720 X33.365 Y8.399 E445.64016
G0 F18000 X33.328 Y8.799
G1 F720 X-52.929 Y8.8 E449.94354
G0 F18000 X-52.861 Y9.2
G1 F720 X33.291 Y9.199 E454.24163
G0 F18000 X33.254 Y9.599
G1 F720 X-52.792 Y9.6 E458.53448
G0 F18000 X-52.723 Y10
G1 F720 X33.165 Y9.999 E462.8194
G0 F18000 X33.017 Y10.399
G1 F720 X-52.654 Y10.4 E467.09355
G0 F18000 X-52.586 Y10.8
G1 F720 X32.869 Y10.799 E471.35686
G0 F18000 X32.721 Y11.199
G1 F720 X-52.517 Y11.2 E475.6094
G0 F18000 X-52.448 Y11.6
G1 F720 X32.573 Y11.599 E479.85107
G0 F18000 X32.425 Y11.999
G1 F720 X-52.379 Y12 E484.08196
G0 F18000 X-52.311 Y12.4
G1 F720 X32.278 Y12.399 E488.30207
G0 F18000 X32.13 Y12.799
G1 F720 X-52.242 Y12.8 E492.51141
G0 F18000 X-52.157 Y13.2
G1 F720 X31.982 Y13.199 E496.70907
G0 F18000 X31.834 Y13.599
G1 F720 X-51.973 Y13.6 E500.89022
G0 F18000 X-51.789 Y14
G1 F720 X31.686 Y13.999 E505.05475
G0 F18000 X31.538 Y14.399
G1 F720 X-51.604 Y14.4 E509.20272
G0 F18000 X-51.42 Y14.8
G1 F720 X31.39 Y14.799 E513.33408
G0 F18000 X31.243 Y15.199
G1 F720 X-51.236 Y15.2 E517.44897
G0 F18000 X-51.052 Y15.6
G1 F720 X31.095 Y15.599 E521.54725
G0 F18000 X30.947 Y15.999
G1 F720 X-50.868 Y16 E525.62902
G0 F18000 X-50.684 Y16.4
G1 F720 X30.799 Y16.399 E529.69418
G0 F18000 X30.651 Y16.799
G1 F720 X-50.5 Y16.8 E533.74282
G0 F18000 X-50.315 Y17.2
G1 F720 X30.503 Y17.199 E537.77479
G0 F18000 X30.355 Y17.599
G1 F720 X-50.131 Y17.6 E541.79025
G0 F18000 X-49.947 Y18
G1 F720 X30.207 Y17.999 E545.7891
G0 F18000 X30.06 Y18.399
G1 F720 X-49.763 Y18.4 E549.77149
G0 F18000 X-49.579 Y18.8
G1 F720 X29.912 Y18.799 E553.73726
G0 F18000 X29.764 Y19.199
G1 F720 X-49.395 Y19.2 E557.68652
G0 F18000 X-49.211 Y19.6
G1 F720 X29.616 Y19.6 E561.61917
G0 F18000 X29.468 Y20
G1 F720 X-49.027 Y20 E565.5353
G0 F18000 X-48.842 Y20.4
G1 F720 X29.32 Y20.4 E569.43477
G0 F18000 X29.116 Y20.8
G1 F720 X-48.658 Y20.8 E573.31493
G0 F18000 X-48.474 Y21.2
G1 F720 X28.833 Y21.2 E577.17174
G0 F18000 X28.55 Y21.6
G1 F720 X-48.29 Y21.6 E581.0053
G0 F18000 X-48.106 Y22
G1 F720 X28.267 Y22 E584.81552
G0 F18000 X27.985 Y22.4
G1 F720 X-47.922 Y22.4 E588.60253
G0 F18000 X-47.738 Y22.8
G1 F720 X27.702 Y22.8 E592.3662
G0 F18000 X27.419 Y23.2
G1 F720 X-47.554 Y23.2 E596.10662
G0 F18000 X-47.369 Y23.6
G1 F720 X27.136 Y23.6 E599.82364
G0 F18000 X26.853 Y24
G1 F720 X-47.042 Y24 E603.51027
G0 F18000 X-46.71 Y24.4
G1 F720 X26.571 Y24.4 E607.16623
G0 F18000 X26.288 Y24.8
G1 F720 X-46.378 Y24.8 E610.79155
G0 F18000 X-46.045 Y25.2
G1 F720 X26.005 Y25.2 E614.38609
G0 F18000 X25.722 Y25.6
G1 F720 X-45.713 Y25.6 E617.94999
G0 F18000 X-45.381 Y26
G1 F720 X25.439 Y26 E621.48317
G0 F18000 X25.157 Y26.4
G1 F720 X-45.049 Y26.4 E624.98576
G0 F18000 X-44.716 Y26.8
G1 F720 X24.874 Y26.8 E628.45757
G0 F18000 X24.591 Y27.2
G1 F720 X-44.384 Y27.2 E631.89875
G0 F18000 X-44.052 Y27.6
G1 F720 X24.308 Y27.6 E635.30919
G0 F18000 X24.025 Y28
G1 F720 X-43.719 Y28 E638.68895
G0 F18000 X-43.387 Y28.4
G1 F720 X23.743 Y28.4 E642.03803
G0 F18000 X23.46 Y28.8
G1 F720 X-43.055 Y28.8 E645.35648
G0 F18000 X-42.723 Y29.2
G1 F720 X23.177 Y29.2 E648.64419
G0 F18000 X22.894 Y29.6
G1 F720 X-42.39 Y29.6 E651.90122
G0 F18000 X-42.058 Y30
G1 F720 X22.611 Y30 E655.12752
G0 F18000 X22.159 Y30.4
G1 F720 X-41.726 Y30.4 E658.31476
G0 F18000 X-41.393 Y30.8
G1 F720 X21.678 Y30.8 E661.46133
G0 F18000 X21.197 Y31.2
G1 F720 X-41.061 Y31.2 E664.5674
G0 F18000 X-40.729 Y31.6
G1 F720 X20.716 Y31.6 E667.63285
G0 F18000 X20.235 Y32
G1 F720 X-40.397 Y32 E670.6578
G0 F18000 X-40.064 Y32.4
G1 F720 X19.754 Y32.4 E673.64208
G0 F18000 X19.273 Y32.8
G1 F720 X-39.557 Y32.8 E676.57712
G0 F18000 X-38.992 Y33.2
G1 F720 X18.792 Y33.2 E679.45992
G0 F18000 X18.311 Y33.6
G1 F720 X-38.427 Y33.6 E682.29059
G0 F18000 X-37.862 Y34
G1 F720 X17.831 Y34 E685.06908
G0 F18000 X17.35 Y34.4
G1 F720 X-37.297 Y34.4 E687.79543
G0 F18000 X-36.732 Y34.8
G1 F720 X16.869 Y34.8 E690.46954
G0 F18000 X16.388 Y35.2
G1 F720 X-36.167 Y35.2 E693.09152
G0 F18000 X-35.602 Y35.6
G1 F720 X15.907 Y35.6 E695.66127
G0 F18000 X15.426 Y36
G1 F720 X-35.037 Y36 E698.17888
G0 F18000 X-34.472 Y36.4
G1 F720 X14.945 Y36.4 E700.64425
G0 F18000 X14.464 Y36.8
G1 F720 X-33.907 Y36.8 E703.05749
G0 F18000 X-33.342 Y37.2
G1 F720 X13.983 Y37.2 E705.41849
G0 F18000 X13.371 Y37.6
G1 F720 X-32.777 Y37.6 E707.72083
G0 F18000 X-32.211 Y38
G1 F720 X12.502 Y38 E709.95152
G0 F18000 X11.633 Y38.4
G1 F720 X-31.646 Y38.4 E712.11072
G0 F18000 X-31.081 Y38.8
G1 F720 X10.764 Y38.8 E714.19832
G0 F18000 X9.895 Y39.2
G1 F720 X-30.483 Y39.2 E716.21279
G0 F18000 X-29.401 Y39.6
G1 F720 X9.026 Y39.6 E718.12987
G0 F18000 X8.157 Y40
G1 F720 X-28.319 Y40 E719.94966
G0 F18000 X-27.237 Y40.4
G1 F720 X7.288 Y40.4 E721.67207
G0 F18000 X6.419 Y40.8
G1 F720 X-26.155 Y40.8 E723.2972
G0 F18000 X-25.073 Y41.2
G1 F720 X5.55 Y41.2 E724.82494
G0 F18000 X4.681 Y41.6
G1 F720 X-23.991 Y41.6 E726.25539
G0 F18000 X-22.909 Y42
G1 F720 X3.812 Y42 E727.58845
G0 F18000 X2.565 Y42.4
G1 F720 X-21.827 Y42.4 E728.80538
G0 F18000 X-20.744 Y42.8
G1 F720 X0.228 Y42.8 E729.85162
G0 F18000 X-2.108 Y43.2
G1 F720 X-19.516 Y43.2 E730.72016
G0 F18000 X-15.19 Y43.6
G1 F720 X-4.445 Y43.6 E731.25618
G0 F18000 X-6.782 Y44
G1 F720 X-10.863 Y44 E731.45983
G0 F18000 X-8.812 Y7.2
G0 X-8.812 Y7.2
G1 F720 X33.476 Y7.199 E733.56954
G0 F18000 X33.513 Y6.799
G1 F720 X-7.311 Y6.8 E735.60626
G0 F18000 X-6.346 Y6.4
G1 F720 X33.55 Y6.399 E737.59663
G0 F18000 X33.587 Y5.999
G1 F720 X-5.787 Y6 E739.561
G0 F18000 X-5.265 Y5.6
G1 F720 X33.624 Y5.599 E741.50113
G0 F18000 X33.661 Y5.199
G1 F720 X-4.744 Y5.2 E743.41717
G0 F18000 X-4.438 Y4.8
G1 F720 X33.698 Y4.799 E745.31973
G0 F18000 X33.735 Y4.399
G1 F720 X-4.131 Y4.4 E747.20887
G0 F18000 X-3.824 Y4
G1 F720 X33.772 Y3.999 E749.0845
G0 F18000 X33.808 Y3.599
G1 F720 X-3.547 Y3.6 E750.94814
G0 F18000 X-3.381 Y3.2
G1 F720 X33.845 Y3.199 E752.80531
G0 F18000 X33.882 Y2.799
G1 F720 X-3.216 Y2.8 E754.65613
G0 F18000 X-3.05 Y2.4
G1 F720 X33.919 Y2.399 E756.50047
G0 F18000 X33.956 Y1.999
G1 F720 X-2.884 Y2 E758.33843
G0 F18000 X-2.808 Y1.6
G1 F720 X33.993 Y1.599 E760.17439
G0 F18000 X34.03 Y1.199
G1 F720 X-2.756 Y1.2 E762.00965
G0 F18000 X-2.703 Y0.8
G1 F720 X34.067 Y0.799 E763.84406
G0 F18000 X34.104 Y0.399
G1 F720 X-2.651 Y0.4 E765.67778
G0 F18000 X-2.604 Y0
G1 F720 X34.141 Y0 E767.51094
G0 F18000 X34.178 Y-0.4
G1 F720 X-2.657 Y-0.399 E769.34865
G0 F18000 X-2.709 Y-0.799
G1 F720 X34.215 Y-0.8 E771.19074
G0 F18000 X34.252 Y-1.2
G1 F720 X-2.762 Y-1.199 E773.03738
G0 F18000 X-2.814 Y-1.599
G1 F720 X34.289 Y-1.6 E774.88841
G0 F18000 X34.243 Y-2
G1 F720 X-2.904 Y-1.999 E776.74168
G0 F18000 X-3.07 Y-2.4
G1 F720 X34.174 Y-2.4 E778.59974
G0 F18000 X34.105 Y-2.8
G1 F720 X-3.236 Y-2.8 E780.46269
G0 F18000 X-3.402 Y-3.2
G1 F720 X34.036 Y-3.2 E782.33043
G0 F18000 X33.968 Y-3.6
G1 F720 X-3.568 Y-3.6 E784.20311
G0 F18000 X-3.863 Y-3.999
G1 F720 X33.899 Y-4 E786.08701
G0 F18000 X33.83 Y-4.4
G1 F720 X-4.17 Y-4.4 E787.98284
G0 F18000 X-4.476 Y-4.8
G1 F720 X33.761 Y-4.8 E789.89044
G0 F18000 X33.693 Y-5.2
G1 F720 X-4.809 Y-5.2 E791.81131
G0 F18000 X-5.331 Y-5.6
G1 F720 X33.624 Y-5.6 E793.75474
G0 F18000 X33.555 Y-6
G1 F720 X-5.852 Y-6 E795.72076
G0 F18000 X-6.466 Y-6.4
G1 F720 X33.487 Y-6.4 E797.71397
G0 F18000 X33.418 Y-6.8
G1 F720 X-7.43 Y-6.799 E799.75189
G0 F18000 X-5.217 Y-43.6
G0 X-5.217 Y-43.6
G1 F720 X-15.11 Y-43.6 E800.2455
G0 F18000 X-12.773 Y-44
G1 F720 X-9.553 Y-44 E800.4061
; LAYER:1
G0 F18000 X-11.649 Y-44.182 Z0.6
; TYPE:WALL-INNER
G1 F2400 X-0.134 Y-43.12 E801.12718
G1 X10.703 Y-39.115 E801.84761
G1 X20.128 Y-32.446 E802.5676
G1 X27.508 Y-23.56 E803.2879
G1 X32.324 Y-13.099 E804.00604
G1 X34.286 Y-1.686 E804.72816
G1 X33.224 Y9.788 E805.44671
G1 X29.226 Y20.624 E806.167
G1 X22.546 Y30.076 E806.8888
G1 X13.662 Y37.456 E807.60906
G1 X3.169 Y42.286 E808.32943
G1 X-8.212 Y44.234 E809.0495
G1 X-19.716 Y43.17 E809.77004
G1 X-30.547 Y39.166 E810.49023
G1 X-39.975 Y32.495 E811.21053
G1 X-47.34 Y23.628 E811.92942
G1 X-52.185 Y13.117 E812.65122
G1 X-54.133 Y1.735 E813.37137
G1 X-53.069 Y-9.768 E814.09178
G1 X-49.065 Y-20.599 E814.81195
G1 X-42.39 Y-30.03 E815.53251
G1 X-33.51 Y-37.406 E816.25241
G1 X-22.985 Y-42.241 E816.97469
G1 X-11.649 Y-44.182 E817.69187
G0 F18000 X-9.923 Y-7.306
G0 X-9.923 Y-7.306
G1 F2400 X-11.821 Y-7.057 E817.81131
G1 X-13.589 Y-6.324 E817.9307
G1 X-15.107 Y-5.159 E818.05004
G1 X-16.272 Y-3.64 E818.16941
G1 X-17.005 Y-1.873 E818.28868
G1 X-17.256 Y0.024 E818.40796
G1 X-17.005 Y1.922 E818.52734
G1 X-16.272 Y3.69 E818.64668
G1 X-15.107 Y5.209 E818.76602
G1 X-13.589 Y6.374 E818.8853
G1 X-11.821 Y7.107 E819.0046
G1 X-9.923 Y7.356 E819.12392
G1 X-8.025 Y7.107 E819.24324
G1 X-6.258 Y6.374 E819.36248
G1 X-4.739 Y5.209 E819.48181
G1 X-3.574 Y3.69 E819.60116
G1 X-2.841 Y1.922 E819.72049
G1 X-2.592 Y0.024 E819.83986
G1 X-2.841 Y-1.873 E819.95919
G1 X-3.574 Y-3.64 E820.07857
G1 X-4.739 Y-5.159 E820.19804
G1 X-6.258 Y-6.324 E820.31751
G1 X-8.025 Y-7.057 E820.43689
G1 X-9.923 Y-7.306 E820.55634
G0 F18000 X-9.923 Y-6.802
; TYPE:WALL-OUTER
G1 F2100 X-11.69 Y-6.57 E820.66753
G1 X-13.337 Y-5.887 E820.77876
G1 X-14.75 Y-4.802 E820.88987
G1 X-15.835 Y-3.388 E821.00101
G1 X-16.518 Y-1.742 E821.11211
G1 X-16.751 Y0.024 E821.22314
G1 X-16.518 Y1.791 E821.33428
G1 X-15.835 Y3.438 E821.44545
G1 X-14.75 Y4.852 E821.55656
G1 X-13.337 Y5.937 E821.66761
G1 X-11.69 Y6.62 E821.77875
G1 X-9.923 Y6.852 E821.88983
G1 X-8.156 Y6.62 E822.00091
G1 X-6.51 Y5.937 E822.11199
G1 X-5.096 Y4.852 E822.22309
G1 X-4.011 Y3.438 E822.3342
G1 X-3.328 Y1.791 E822.44537
G1 X-3.096 Y0.024 E822.5565
G1 X-3.328 Y-1.742 E822.66759
G1 X-4.011 Y-3.388 E822.7788
G1 X-5.096 Y-4.802 E822.89004
G1 X-6.51 Y-5.887 E823.00128
G1 X-8.156 Y-6.57 E823.11249
G1 X-9.923 Y-6.802 E823.2237
G1 F6600 E816.4237
G1 Z0.9
G0 F18000 X-9.878 Y-7.148
G0 X-11.651 Y-44.232
G0 X-11.671 Y-44.632
G0 X-11.657 Y-44.335
G0 X-11.657 Y-44.335
G0 X-11.669 Y-44.686
G1 Z0.6
G1 F6600 E823.3237
G1 F2100 X-0.024 Y-43.612 E824.05293
G1 X10.938 Y-39.561 E824.78166
G1 X20.47 Y-32.816 E825.50984
G1 X27.934 Y-23.829 E826.23833
G1 X32.806 Y-13.246 E826.96484
G1 X34.79 Y-1.706 E827.695
G1 X33.716 Y9.898 E828.42169
G1 X29.672 Y20.86 E829.15035
G1 X22.917 Y30.418 E829.88025
G1 X13.931 Y37.882 E830.60874
G1 X3.316 Y42.768 E831.33748
G1 X-8.192 Y44.738 E832.06559
G1 X-19.827 Y43.662 E832.79434
G1 X-30.782 Y39.612 E833.52278
G1 X-40.317 Y32.865 E834.25127
G1 X-47.766 Y23.897 E834.97834
G1 X-52.667 Y13.264 E835.70852
G1 X-54.637 Y1.755 E836.4367
G1 X-53.561 Y-9.879 E837.16532
G1 X-49.511 Y-20.834 E837.89373
G1 X-42.76 Y-30.372 E838.62248
G1 X-33.777 Y-37.834 E839.35075
G1 X-23.136 Y-42.723 E840.08101
G1 X-11.669 Y-44.686 E840.80647
G0 F18000 X-11.5 Y-43.977
; TYPE:FILL
G1 F2400 X-11.5 Y-7.29 E843.09431
G0 F18000 X-11 Y-7.356
G1 F2400 X-11 Y-43.931 E845.37529
G0 F18000 X-10.5 Y-43.885
G1 F2400 X-10.5 Y-7.421 E847.64923
G0 F18000 X-10 Y-7.487
G1 F2400 X-10 Y-43.839 E849.9163
G0 F18000 X-9.5 Y-43.793
G1 F2400 X-9.5 Y-7.442 E852.18319
G0 F18000 X-9 Y-7.376
G1 F2400 X-9 Y-43.746 E854.45138
G0 F18000 X-8.5 Y-43.7
G1 F2400 X-8.5 Y-7.311 E856.72064
G0 F18000 X-8 Y-7.245
G1 F2400 X-8 Y-43.654 E858.99127
G0 F18000 X-7.5 Y-43.608
G1 F2400 X-7.5 Y-7.045 E861.27137
G0 F18000 X-7 Y-6.837
G1 F2400 X-7 Y-43.562 E863.56171
G0 F18000 X-6.5 Y-43.516
G1 F2400 X-6.5 Y-6.629 E865.86202
G0 F18000 X-6 Y-6.364
G1 F2400 X-6 Y-43.47 E868.17612
G0 F18000 X-5.5 Y-43.424
G1 F2400 X-5.5 Y-5.98 E870.51116
G0 F18000 X-5 Y-5.597
G1 F2400 X-5 Y-43.378 E872.86735
G0 F18000 X-4.5 Y-43.332
G1 F2400 X-4.5 Y-5.159 E875.24786
G0 F18000 X-4 Y-4.506
G1 F2400 X-4 Y-43.286 E877.66635
G0 F18000 X-3.5 Y-43.24
G1 F2400 X-3.5 Y-3.854 E880.12251
G0 F18000 X-3 Y-2.754
G1 F2400 X-3 Y-43.193 E882.64446
G0 F18000 X-2.5 Y-43.147
G1 F2400 X-2.5 Y-0.742 E885.28889
G0 F18000 X-2.5 Y0.787
G0 X-2.5 Y0.787
G1 F2400 X-2.499 Y43.064 E887.9254
G0 F18000 X-2.999 Y43.149
G1 F2400 X-2.999 Y2.801 E890.44161
G0 F18000 X-3.499 Y3.902
G1 F2400 X-3.499 Y43.235 E892.89453
G0 F18000 X-3.999 Y43.32
G1 F2400 X-3.999 Y4.555 E895.31202
G0 F18000 X-4.499 Y5.207
G1 F2400 X-4.499 Y43.406 E897.69421
G0 F18000 X-4.999 Y43.491
G1 F2400 X-4.999 Y5.646 E900.05433
G0 F18000 X-5.499 Y6.03
G1 F2400 X-5.499 Y43.577 E902.39587
G0 F18000 X-5.999 Y43.663
G1 F2400 X-5.999 Y6.413 E904.71888
G0 F18000 X-6.499 Y6.679
G1 F2400 X-6.499 Y43.748 E907.0306
G0 F18000 X-6.999 Y43.834
G1 F2400 X-6.999 Y6.887 E909.33472
G0 F18000 X-7.499 Y7.094
G1 F2400 X-7.499 Y43.919 E911.63123
G0 F18000 X-7.999 Y44.005
G1 F2400 X-7.999 Y7.295 E913.92057
G0 F18000 X-8.5 Y7.361
G1 F2400 X-8.499 Y44.016 E916.20647
G0 F18000 X-8.999 Y43.97
G1 F2400 X-9 Y7.426 E918.48546
G0 F18000 X-9.499 Y7.492
G1 F2400 X-9.499 Y43.924 E920.75746
G0 F18000 X-9.999 Y43.877
G1 F2400 X-9.999 Y7.537 E923.02372
G0 F18000 X-10.499 Y7.471
G1 F2400 X-10.499 Y43.831 E925.29123
G0 F18000 X-10.999 Y43.785
G1 F2400 X-11 Y7.406 E927.55992
G0 F18000 X-11.5 Y7.34
G1 F2400 X-11.499 Y43.739 E929.82987
G0 F18000 X-11.999 Y43.692
G1 F2400 X-12 Y7.238 E932.10324
G0 F18000 X-12.5 Y7.03
G1 F2400 X-12.499 Y43.646 E934.38671
G0 F18000 X-12.999 Y43.6
G1 F2400 X-13 Y6.823 E936.68023
G0 F18000 X-13.5 Y6.615
G1 F2400 X-13.499 Y43.554 E938.98385
G0 F18000 X-13.999 Y43.508
G1 F2400 X-14 Y6.295 E941.30455
G0 F18000 X-14.5 Y5.912
G1 F2400 X-14.499 Y43.461 E943.64621
G0 F18000 X-14.999 Y43.415
G1 F2400 X-15 Y5.529 E946.00888
G0 F18000 X-15.5 Y5.006
G1 F2400 X-15.499 Y43.369 E948.40131
G0 F18000 X-15.999 Y43.323
G1 F2400 X-16 Y4.354 E950.83152
G0 F18000 X-16.5 Y3.634
G1 F2400 X-16.499 Y43.276 E953.30371
G0 F18000 X-16.999 Y43.23
G1 F2400 X-17 Y2.43 E955.84811
G0 F18000 X-17 Y0.246
G0 X-17 Y-0.154
G0 X-17 Y-2.381
G0 X-17 Y-2.381
G1 F2400 X-17 Y-43.073 E958.38583
G0 F18000 X-17.5 Y-42.988
G1 F2400 X-17.499 Y43.184 E963.75969
G0 F18000 X-17.999 Y43.138
G1 F2400 X-18 Y-42.902 E969.12539
G0 F18000 X-18.5 Y-42.817
G1 F2400 X-18.499 Y43.092 E974.48284
G0 F18000 X-18.999 Y43.045
G1 F2400 X-19 Y-42.731 E979.83207
G0 F18000 X-19.5 Y-42.645
G1 F2400 X-19.499 Y42.999 E985.17301
G0 F18000 X-19.999 Y42.863
G1 F2400 X-20 Y-42.56 E990.50022
G0 F18000 X-20.5 Y-42.474
G1 F2400 X-20.499 Y42.678 E995.81047
G0 F18000 X-20.999 Y42.493
G1 F2400 X-21 Y-42.389 E1001.10395
G0 F18000 X-21.5 Y-42.303
G1 F2400 X-21.499 Y42.308 E1006.38046
G0 F18000 X-21.999 Y42.123
G1 F2400 X-22 Y-42.218 E1011.64019
G0 F18000 X-22.5 Y-42.132
G1 F2400 X-22.499 Y41.938 E1016.88297
G0 F18000 X-22.999 Y41.753
G1 F2400 X-23 Y-42.025 E1022.1076
G0 F18000 X-23.5 Y-41.796
G1 F2400 X-23.499 Y41.569 E1027.3064
G0 F18000 X-23.999 Y41.384
G1 F2400 X-24 Y-41.566 E1032.47939
G0 F18000 X-24.5 Y-41.336
G1 F2400 X-24.499 Y41.199 E1037.62644
G0 F18000 X-24.999 Y41.014
G1 F2400 X-25 Y-41.106 E1042.74767
G0 F18000 X-25.5 Y-40.877
G1 F2400 X-25.499 Y40.829 E1047.84302
G0 F18000 X-25.999 Y40.644
G1 F2400 X-26 Y-40.647 E1052.91255
G0 F18000 X-26.5 Y-40.417
G1 F2400 X-26.499 Y40.459 E1057.95614
G0 F18000 X-26.999 Y40.274
G1 F2400 X-27 Y-40.187 E1062.97391
G0 F18000 X-27.5 Y-39.958
G1 F2400 X-27.499 Y40.089 E1067.9658
G0 F18000 X-27.999 Y39.905
G1 F2400 X-28 Y-39.728 E1072.93193
G0 F18000 X-28.5 Y-39.498
G1 F2400 X-28.499 Y39.72 E1077.87212
G0 F18000 X-28.999 Y39.535
G1 F2400 X-29 Y-39.269 E1082.78655
G0 F18000 X-29.5 Y-39.039
G1 F2400 X-29.499 Y39.35 E1087.67505
G0 F18000 X-29.999 Y39.165
G1 F2400 X-30 Y-38.808 E1092.53766
G0 F18000 X-30.5 Y-38.578
G1 F2400 X-30.499 Y38.966 E1097.37345
G0 F18000 X-30.999 Y38.612
G1 F2400 X-31 Y-38.349 E1102.17295
G0 F18000 X-31.5 Y-38.119
G1 F2400 X-31.499 Y38.258 E1106.93597
G0 F18000 X-31.999 Y37.904
G1 F2400 X-32 Y-37.889 E1111.66263
G0 F18000 X-32.5 Y-37.659
G1 F2400 X-32.499 Y37.55 E1116.35281
G0 F18000 X-32.999 Y37.197
G1 F2400 X-33 Y-37.43 E1121.00675
G0 F18000 X-33.5 Y-37.165
G1 F2400 X-33.499 Y36.843 E1125.62203
G0 F18000 X-33.999 Y36.489
G1 F2400 X-34 Y-36.75 E1130.18942
G0 F18000 X-34.5 Y-36.334
G1 F2400 X-34.499 Y36.135 E1134.70872
G0 F18000 X-34.999 Y35.781
G1 F2400 X-35 Y-35.919 E1139.18013
G0 F18000 X-35.5 Y-35.504
G1 F2400 X-35.499 Y35.428 E1143.60358
G0 F18000 X-35.999 Y35.074
G1 F2400 X-36 Y-35.088 E1147.97908
G0 F18000 X-36.5 Y-34.673
G1 F2400 X-36.499 Y34.72 E1152.30656
G0 F18000 X-36.999 Y34.366
G1 F2400 X-37 Y-34.258 E1156.58614
G0 F18000 X-37.5 Y-33.843
G1 F2400 X-37.499 Y34.013 E1160.81776
G0 F18000 X-37.999 Y33.659
G1 F2400 X-38 Y-33.427 E1165.00143
G0 F18000 X-38.5 Y-33.012
G1 F2400 X-38.499 Y33.305 E1169.13708
G0 F18000 X-38.999 Y32.951
G1 F2400 X-39 Y-32.597 E1173.22483
G0 F18000 X-39.5 Y-32.181
G1 F2400 X-39.499 Y32.597 E1177.2645
G0 F18000 X-39.999 Y32.166
G1 F2400 X-40 Y-31.766 E1181.25148
G0 F18000 X-40.5 Y-31.351
G1 F2400 X-40.499 Y31.564 E1185.17497
G0 F18000 X-40.999 Y30.962
G1 F2400 X-41 Y-30.935 E1189.03504
G0 F18000 X-41.5 Y-30.52
G1 F2400 X-41.499 Y30.36 E1192.83162
G0 F18000 X-41.999 Y29.758
G1 F2400 X-42 Y-30.105 E1196.56484
G0 F18000 X-42.5 Y-29.543
G1 F2400 X-42.5 Y29.156 E1200.22541
G0 F18000 X-43 Y28.554
G1 F2400 X-43 Y-28.837 E1203.80447
G0 F18000 X-43.5 Y-28.131
G1 F2400 X-43.5 Y27.952 E1207.3019
G0 F18000 X-44 Y27.35
G1 F2400 X-44 Y-27.424 E1210.71776
G0 F18000 X-44.5 Y-26.718
G1 F2400 X-44.5 Y26.748 E1214.05198
G0 F18000 X-45 Y26.146
G1 F2400 X-45 Y-26.012 E1217.3047
G0 F18000 X-45.5 Y-25.305
G1 F2400 X-45.5 Y25.544 E1220.47572
G0 F18000 X-46 Y24.942
G1 F2400 X-46 Y-24.599 E1223.56523
G0 F18000 X-46.5 Y-23.893
G1 F2400 X-46.5 Y24.34 E1226.57311
G0 F18000 X-47 Y23.738
G1 F2400 X-47 Y-23.186 E1229.49942
G0 F18000 X-47.5 Y-22.48
G1 F2400 X-47.5 Y22.824 E1232.32464
G0 F18000 X-48 Y21.74
G1 F2400 X-48 Y-21.774 E1235.03829
G0 F18000 X-48.5 Y-21.067
G1 F2400 X-48.5 Y20.655 E1237.64013
G0 F18000 X-49 Y19.571
G1 F2400 X-49 Y-20.227 E1240.12204
G0 F18000 X-49.5 Y-18.874
G1 F2400 X-49.5 Y18.486 E1242.45185
G0 F18000 X-50 Y17.402
G1 F2400 X-50 Y-17.522 E1244.62981
G0 F18000 X-50.5 Y-16.169
G1 F2400 X-50.5 Y16.317 E1246.65566
G0 F18000 X-51 Y15.233
G1 F2400 X-51 Y-14.817 E1248.52967
G0 F18000 X-51.5 Y-13.464
G1 F2400 X-51.5 Y14.148 E1250.25156
G0 F18000 X-52 Y13.064
G1 F2400 X-52 Y-12.112 E1251.82161
G0 F18000 X-52.5 Y-10.759
G1 F2400 X-52.5 Y10.152 E1253.12561
G0 F18000 X-53 Y7.229
G0 X-53 Y7.229
G1 F2400 X-53 Y-8.45 E1254.1034
G0 F18000 X-53.5 Y-3.041
G0 X-53.5 Y-3.041
G1 F2400 X-53.5 Y4.306 E1254.56152
G0 F18000 X-16.5 Y-3.584
G0 X-16.5 Y-3.584
G1 F2400 X-16.5 Y-43.159 E1257.02958
G0 F18000 X-16 Y-43.244
G1 F2400 X-16 Y-4.304 E1259.45793
G0 F18000 X-15.5 Y-4.956
G1 F2400 X-15.5 Y-43.33 E1261.8511
G0 F18000 X-15 Y-43.415
G1 F2400 X-15 Y-5.479 E1264.21683
G0 F18000 X-14.5 Y-5.862
G1 F2400 X-14.5 Y-43.501 E1266.56416
G0 F18000 X-14 Y-43.587
G1 F2400 X-14 Y-6.245 E1268.89285
G0 F18000 X-13.5 Y-6.565
G1 F2400 X-13.5 Y-43.672 E1271.20701
G0 F18000 X-13 Y-43.758
G1 F2400 X-13 Y-6.773 E1273.51343
G0 F18000 X-12.5 Y-6.98
G1 F2400 X-12.5 Y-43.843 E1275.81237
G0 F18000 X-12 Y-43.929
G1 F2400 X-12 Y-7.188 E1278.10358
G0 F18000 X-2 Y-43.101
G0 X-2 Y-43.101
G1 F2400 X-1.999 Y42.978 E1283.47164
G0 F18000 X-1.499 Y42.893
G1 F2400 X-1.5 Y-43.055 E1288.83159
G0 F18000 X-1 Y-43.009
G1 F2400 X-0.999 Y42.807 E1294.18325
G0 F18000 X-0.499 Y42.721
G1 F2400 X-0.5 Y-42.963 E1299.52674
G0 F18000 X0 Y-42.869
G1 F2400 X0 Y42.636 E1304.85901
G0 F18000 X0.5 Y42.55
G1 F2400 X0.499 Y-42.684 E1310.17444
G0 F18000 X0.999 Y-42.499
G1 F2400 X1 Y42.465 E1315.47296
G0 F18000 X1.5 Y42.379
G1 F2400 X1.499 Y-42.314 E1320.75465
G0 F18000 X1.999 Y-42.129
G1 F2400 X2 Y42.294 E1326.01944
G0 F18000 X2.5 Y42.208
G1 F2400 X2.499 Y-41.945 E1331.26745
G0 F18000 X2.999 Y-41.76
G1 F2400 X3 Y42.123 E1336.49856
G0 F18000 X3.5 Y41.924
G1 F2400 X3.499 Y-41.575 E1341.70579
G0 F18000 X3.999 Y-41.39
G1 F2400 X4 Y41.694 E1346.88708
G0 F18000 X4.5 Y41.464
G1 F2400 X4.499 Y-41.205 E1352.04254
G0 F18000 X4.999 Y-41.021
G1 F2400 X5 Y41.233 E1357.17207
G0 F18000 X5.5 Y41.003
G1 F2400 X5.499 Y-40.836 E1362.27577
G0 F18000 X5.999 Y-40.651
G1 F2400 X6 Y40.773 E1367.35353
G0 F18000 X6.5 Y40.543
G1 F2400 X6.499 Y-40.466 E1372.40548
G0 F18000 X6.999 Y-40.281
G1 F2400 X7 Y40.313 E1377.43148
G0 F18000 X7.5 Y40.082
G1 F2400 X7.499 Y-40.097 E1382.43166
G0 F18000 X7.999 Y-39.912
G1 F2400 X8 Y39.852 E1387.4059
G0 F18000 X8.5 Y39.622
G1 F2400 X8.499 Y-39.727 E1392.35433
G0 F18000 X8.999 Y-39.542
G1 F2400 X9 Y39.392 E1397.27681
G0 F18000 X9.5 Y39.162
G1 F2400 X9.499 Y-39.357 E1402.17347
G0 F18000 X9.999 Y-39.173
G1 F2400 X10 Y38.932 E1407.04425
G0 F18000 X10.5 Y38.701
G1 F2400 X10.499 Y-38.988 E1411.88915
G0 F18000 X10.999 Y-38.672
G1 F2400 X11 Y38.471 E1416.69993
G0 F18000 X11.5 Y38.241
G1 F2400 X11.499 Y-38.318 E1421.47436
G0 F18000 X11.999 Y-37.964
G1 F2400 X12 Y38.011 E1426.21231
G0 F18000 X12.5 Y37.781
G1 F2400 X12.499 Y-37.611 E1430.91396
G0 F18000 X12.999 Y-37.257
G1 F2400 X13 Y37.55 E1435.57907
G0 F18000 X13.5 Y37.32
G1 F2400 X13.499 Y-36.903 E1440.20782
G0 F18000 X13.999 Y-36.549
G1 F2400 X14 Y36.927 E1444.78993
G0 F18000 X14.5 Y36.511
G1 F2400 X14.499 Y-36.195 E1449.32407
G0 F18000 X14.999 Y-35.841
G1 F2400 X15 Y36.096 E1453.8102
G0 F18000 X15.5 Y35.681
G1 F2400 X15.499 Y-35.487 E1458.24843
G0 F18000 X15.999 Y-35.134
G1 F2400 X16 Y35.265 E1462.63865
G0 F18000 X16.5 Y34.85
G1 F2400 X16.499 Y-34.78 E1466.98096
G0 F18000 X16.999 Y-34.426
G1 F2400 X17 Y34.435 E1471.27526
G0 F18000 X17.5 Y34.019
G1 F2400 X17.499 Y-34.072 E1475.52161
G0 F18000 X17.999 Y-33.718
G1 F2400 X18 Y33.604 E1479.71993
G0 F18000 X18.5 Y33.189
G1 F2400 X18.499 Y-33.364 E1483.87036
G0 F18000 X18.999 Y-33.011
G1 F2400 X19 Y32.773 E1487.97277
G0 F18000 X19.5 Y32.357
G1 F2400 X19.499 Y-32.657 E1492.02722
G0 F18000 X19.999 Y-32.301
G1 F2400 X20 Y31.942 E1496.03353
G0 F18000 X20.5 Y31.526
G1 F2400 X20.499 Y-31.699 E1499.97641
G0 F18000 X20.999 Y-31.097
G1 F2400 X21 Y31.111 E1503.85581
G0 F18000 X21.5 Y30.696
G1 F2400 X21.499 Y-30.495 E1507.67185
G0 F18000 X21.999 Y-29.893
G1 F2400 X22 Y30.28 E1511.42434
G0 F18000 X22.5 Y29.81
G1 F2400 X22.499 Y-29.291 E1515.11004
G0 F18000 X22.999 Y-28.689
G1 F2400 X23 Y29.102 E1518.71399
G0 F18000 X23.5 Y28.395
G1 F2400 X23.499 Y-28.087 E1522.23636
G0 F18000 X23.999 Y-27.485
G1 F2400 X24 Y27.687 E1525.67697
G0 F18000 X24.5 Y26.98
G1 F2400 X24.499 Y-26.883 E1529.03602
G0 F18000 X24.999 Y-26.281
G1 F2400 X25 Y26.273 E1532.31337
G0 F18000 X25.5 Y25.565
G1 F2400 X25.499 Y-25.679 E1535.50909
G0 F18000 X25.999 Y-25.077
G1 F2400 X26 Y24.858 E1538.62311
G0 F18000 X26.5 Y24.15
G1 F2400 X26.499 Y-24.474 E1541.65543
G0 F18000 X26.999 Y-23.872
G1 F2400 X27 Y23.443 E1544.60607
G0 F18000 X27.5 Y22.736
G1 F2400 X27.499 Y-23.12 E1547.46577
G0 F18000 X27.999 Y-22.034
G1 F2400 X28 Y22.028 E1550.21354
G0 F18000 X28.5 Y21.321
G1 F2400 X28.499 Y-20.949 E1552.84961
G0 F18000 X28.999 Y-19.863
G1 F2400 X29 Y20.613 E1555.37374
G0 F18000 X29.5 Y19.328
G1 F2400 X29.499 Y-18.777 E1557.75008
G0 F18000 X29.999 Y-17.691
G1 F2400 X30 Y17.973 E1559.97412
G0 F18000 X30.5 Y16.618
G1 F2400 X30.499 Y-16.605 E1562.046
G0 F18000 X30.999 Y-15.519
G1 F2400 X31 Y15.263 E1563.96558
G0 F18000 X31.5 Y13.908
G1 F2400 X31.5 Y-14.433 E1565.73301
G0 F18000 X32 Y-13.347
G1 F2400 X32 Y12.553 E1567.34814
G0 F18000 X32.5 Y11.197
G1 F2400 X32.5 Y-10.956 E1568.72966
G0 F18000 X33 Y-8.046
G0 X33 Y-8.046
G1 F2400 X33 Y9.842 E1569.84515
G0 F18000 X33.5 Y4.739
G0 X33.5 Y4.739
G1 F2400 X33.5 Y-5.136 E1570.46098
G0 F18000 X34 Y-2.226
G0 X34 Y-2.226
G1 F2400 X34 Y-0.663 E1570.55839
; LAYER:2
M106 S153
G0 F18000 X34.286 Y-1.686 Z0.9
; TYPE:WALL-INNER
G1 F2400 X33.222 Y9.817 E1571.27875
G1 X29.225 Y20.63 E1571.99767
G1 X22.546 Y30.076 E1572.71913
G1 X13.662 Y37.456 E1573.43939
G1 X3.169 Y42.286 E1574.15975
G1 X-8.212 Y44.234 E1574.87983
G1 X-19.716 Y43.17 E1575.60037
G1 X-30.547 Y39.166 E1576.32056
G1 X-39.975 Y32.495 E1577.04086
G1 X-47.344 Y23.623 E1577.76015
G1 X-52.185 Y13.117 E1578.48156
G1 X-54.133 Y1.735 E1579.20171
G1 X-53.069 Y-9.768 E1579.92212
G1 X-49.065 Y-20.599 E1580.64229
G1 X-42.388 Y-30.032 E1581.36303
G1 X-33.509 Y-37.407 E1582.08284
G1 X-23.019 Y-42.234 E1582.80293
G1 X-11.66 Y-44.18 E1583.52158
G1 X-0.134 Y-43.12 E1584.24333
G1 X10.703 Y-39.115 E1584.96375
G1 X20.128 Y-32.446 E1585.68375
G1 X27.508 Y-23.56 E1586.40405
G1 X32.338 Y-13.068 E1587.12431
G1 X34.286 Y-1.686 E1587.84438
G0 F18000 X-2.592 Y0.024
G0 X-2.592 Y0.024
G1 F2400 X-2.841 Y-1.873 E1587.9637
G1 X-3.574 Y-3.641 E1588.08314
G1 X-4.739 Y-5.159 E1588.20256
G1 X-6.258 Y-6.324 E1588.32203
G1 X-8.025 Y-7.057 E1588.44141
G1 X-9.923 Y-7.306 E1588.56086
G1 X-11.821 Y-7.057 E1588.6803
G1 X-13.589 Y-6.324 E1588.79969
G1 X-15.107 Y-5.159 E1588.91903
G1 X-16.272 Y-3.64 E1589.0384
G1 X-17.005 Y-1.873 E1589.15767
G1 X-17.256 Y0.024 E1589.27695
G1 X-17.005 Y1.922 E1589.39633
G1 X-16.272 Y3.69 E1589.51567
G1 X-15.107 Y5.209 E1589.63501
G1 X-13.589 Y6.374 E1589.75429
G1 X-11.821 Y7.107 E1589.87359
G1 X-9.923 Y7.356 E1589.99291
G1 X-8.025 Y7.107 E1590.11223
G1 X-6.258 Y6.374 E1590.23147
G1 X-4.739 Y5.209 E1590.3508
G1 X-3.574 Y3.69 E1590.47015
G1 X-2.841 Y1.922 E1590.58948
G1 X-2.592 Y0.024 E1590.70885
G0 F18000 X-3.096 Y0.024
; TYPE:WALL-OUTER
G1 F2100 X-3.328 Y-1.742 E1590.81994
G1 X-4.011 Y-3.388 E1590.93115
G1 X-5.096 Y-4.802 E1591.04239
G1 X-6.51 Y-5.887 E1591.15363
G1 X-8.156 Y-6.57 E1591.26485
G1 X-9.923 Y-6.802 E1591.37606
G1 X-11.69 Y-6.57 E1591.48725
G1 X-13.337 Y-5.887 E1591.59848
G1 X-14.75 Y-4.802 E1591.70959
G1 X-15.835 Y-3.388 E1591.82073
G1 X-16.518 Y-1.742 E1591.93183
G1 X-16.751 Y0.024 E1592.04286
G1 X-16.518 Y1.791 E1592.154
G1 X-15.835 Y3.438 E1592.26517
G1 X-14.75 Y4.852 E1592.37628
G1 X-13.337 Y5.937 E1592.48733
G1 X-11.69 Y6.62 E1592.59847
G1 X-9.923 Y6.852 E1592.70955
G1 X-8.156 Y6.62 E1592.82063
G1 X-6.51 Y5.937 E1592.93171
G1 X-5.096 Y4.852 E1593.04281
G1 X-4.011 Y3.438 E1593.15392
G1 X-3.328 Y1.791 E1593.26509
G1 X-3.096 Y0.024 E1593.37622
G1 F6600 E1586.57622
G1 Z1.2
G0 F18000 X-2.75 Y0.069
G0 X34.337 Y-1.689
G0 X34.737 Y-1.708
G0 X34.439 Y-1.695
G0 X34.439 Y-1.695
G0 X34.79 Y-1.706
G1 Z0.9
G1 F6600 E1593.47622
G1 F2100 X33.714 Y9.928 E1594.20478
G1 X29.671 Y20.865 E1594.93195
G1 X22.917 Y30.418 E1595.66156
G1 X13.931 Y37.882 E1596.39006
G1 X3.316 Y42.768 E1597.1188
G1 X-8.192 Y44.738 E1597.84691
G1 X-19.827 Y43.662 E1598.57566
G1 X-30.782 Y39.612 E1599.30409
G1 X-40.317 Y32.865 E1600.03258
G1 X-47.77 Y23.892 E1600.76006
G1 X-52.667 Y13.264 E1601.48985
G1 X-54.637 Y1.755 E1602.21803
G1 X-53.561 Y-9.879 E1602.94665
G1 X-49.511 Y-20.834 E1603.67506
G1 X-42.758 Y-30.374 E1604.40398
G1 X-33.778 Y-37.833 E1605.13199
G1 X-23.15 Y-42.719 E1605.86143
G1 X-11.68 Y-44.684 E1606.5871
G1 X-0.024 Y-43.612 E1607.317
G1 X10.938 Y-39.561 E1608.04573
G1 X20.47 Y-32.816 E1608.77391
G1 X27.934 Y-23.829 E1609.5024
G1 X32.82 Y-13.215 E1610.23103
G1 X34.79 Y-1.706 E1610.95914
G0 F18000 X34.077 Y-1.5
; TYPE:FILL
G1 F2400 X-2.6 Y-1.499 E1613.24642
G0 F18000 X-2.534 Y-0.999
G1 F2400 X34.031 Y-1 E1615.52665
G0 F18000 X33.985 Y-0.5
G1 F2400 X-2.469 Y-0.499 E1617.80002
G0 F18000 X-2.403 Y0
G1 F2400 X33.939 Y0 E1620.06635
G0 F18000 X33.893 Y0.499
G1 F2400 X-2.462 Y0.5 E1622.33355
G0 F18000 X-2.528 Y1
G1 F2400 X33.846 Y0.999 E1624.60187
G0 F18000 X33.8 Y1.499
G1 F2400 X-2.593 Y1.5 E1626.87143
G0 F18000 X-2.667 Y2
G1 F2400 X33.754 Y1.999 E1629.14269
G0 F18000 X33.708 Y2.499
G1 F2400 X-2.875 Y2.5 E1631.4241
G0 F18000 X-3.082 Y3
G1 F2400 X33.661 Y2.999 E1633.71543
G0 F18000 X33.615 Y3.499
G1 F2400 X-3.29 Y3.5 E1636.01693
G0 F18000 X-3.573 Y4
G1 F2400 X33.569 Y3.999 E1638.33315
G0 F18000 X33.523 Y4.499
G1 F2400 X-3.956 Y4.5 E1640.67044
G0 F18000 X-4.34 Y5
G1 F2400 X33.477 Y4.999 E1643.02875
G0 F18000 X33.43 Y5.499
G1 F2400 X-4.808 Y5.5 E1645.41338
G0 F18000 X-5.46 Y6
G1 F2400 X33.384 Y5.999 E1647.83573
G0 F18000 X33.338 Y6.499
G1 F2400 X-6.112 Y6.5 E1650.29594
G0 F18000 X-7.272 Y7
G1 F2400 X33.292 Y6.999 E1652.82557
G0 F18000 X33.245 Y7.499
G1 F2400 X-9.564 Y7.5 E1655.49525
G0 F18000 X-10.282 Y7.5
G1 F2400 X-52.954 Y7.5 E1658.15646
G0 F18000 X-53.039 Y7
G1 F2400 X-12.573 Y7 E1660.67997
G0 F18000 X-13.733 Y6.5
G1 F2400 X-53.125 Y6.5 E1663.13662
G0 F18000 X-53.21 Y6
G1 F2400 X-14.385 Y6 E1665.55779
G0 F18000 X-15.037 Y5.5
G1 F2400 X-53.296 Y5.5 E1667.94379
G0 F18000 X-53.381 Y5
G1 F2400 X-15.505 Y5 E1670.30578
G0 F18000 X-15.888 Y4.5
G1 F2400 X-53.467 Y4.5 E1672.64937
G0 F18000 X-53.552 Y4
G1 F2400 X-16.271 Y4 E1674.97426
G0 F18000 X-16.556 Y3.5
G1 F2400 X-53.638 Y3.5 E1677.28686
G0 F18000 X-53.723 Y3
G1 F2400 X-16.763 Y3 E1679.59172
G0 F18000 X-16.971 Y2.5
G1 F2400 X-53.809 Y2.5 E1681.8891
G0 F18000 X-53.894 Y2
G1 F2400 X-17.179 Y2 E1684.17869
G0 F18000 X-17.253 Y1.5
G1 F2400 X-53.92 Y1.5 E1686.46541
G0 F18000 X-53.874 Y1
G1 F2400 X-17.319 Y1 E1688.74501
G0 F18000 X-17.385 Y0.5
G1 F2400 X-53.827 Y0.5 E1691.0177
G0 F18000 X-53.781 Y0
G1 F2400 X-17.445 Y0 E1693.28365
G0 F18000 X-17.379 Y-0.499
G1 F2400 X-53.735 Y-0.499 E1695.55097
G0 F18000 X-53.689 Y-0.999
G1 F2400 X-17.313 Y-0.999 E1697.81942
G0 F18000 X-17.247 Y-1.499
G1 F2400 X-53.643 Y-1.499 E1700.08924
G0 F18000 X-53.596 Y-1.999
G1 F2400 X-17.159 Y-1.999 E1702.36148
G0 F18000 X-16.951 Y-2.499
G1 F2400 X-53.55 Y-2.499 E1704.64396
G0 F18000 X-53.504 Y-2.999
G1 F2400 X-16.743 Y-2.999 E1706.93642
G0 F18000 X-16.535 Y-3.499
G1 F2400 X-53.458 Y-3.499 E1709.2391
G0 F18000 X-53.411 Y-3.999
G1 F2400 X-16.234 Y-3.999 E1711.5575
G0 F18000 X-15.85 Y-4.499
G1 F2400 X-53.365 Y-4.499 E1713.8971
G0 F18000 X-53.319 Y-4.999
G1 F2400 X-15.467 Y-4.999 E1716.25759
G0 F18000 X-14.973 Y-5.499
G1 F2400 X-53.273 Y-5.499 E1718.64615
G0 F18000 X-53.227 Y-5.999
G1 F2400 X-14.321 Y-5.999 E1721.07237
G0 F18000 X-13.659 Y-6.499
G1 F2400 X-53.18 Y-6.499 E1723.53707
G0 F18000 X-53.134 Y-6.999
G1 F2400 X-12.455 Y-6.999 E1726.07386
G0 F18000 X-10.534 Y-6.998
G0 X-9.923 Y-7.254
G0 X-9.311 Y-6.999
G0 X-7.391 Y-7
G0 X-7.391 Y-7
G1 F2400 X33.184 Y-7 E1728.60417
G0 F18000 X33.269 Y-6.5
G1 F2400 X-6.188 Y-6.5 E1731.06482
G0 F18000 X-5.525 Y-6
G1 F2400 X33.355 Y-6 E1733.48942
G0 F18000 X33.44 Y-5.5
G1 F2400 X-4.873 Y-5.5 E1735.87872
G0 F18000 X-4.378 Y-5
G1 F2400 X33.526 Y-5 E1738.24246
G0 F18000 X33.611 Y-4.5
G1 F2400 X-3.995 Y-4.5 E1740.58767
G0 F18000 X-3.611 Y-4
G1 F2400 X33.697 Y-4 E1742.91424
G0 F18000 X33.782 Y-3.5
G1 F2400 X-3.309 Y-3.5 E1745.22733
G0 F18000 X-3.102 Y-3
G1 F2400 X33.868 Y-3 E1747.53282
G0 F18000 X33.954 Y-2.5
G1 F2400 X-2.895 Y-2.5 E1749.83083
G0 F18000 X-2.687 Y-1.999
G1 F2400 X34.039 Y-2 E1752.1211
G0 F18000 X33.098 Y-7.5
G0 X33.098 Y-7.5
G1 F2400 X-53.088 Y-7.499 E1757.4959
G0 F18000 X-53.042 Y-7.999
G1 F2400 X33.013 Y-8 E1762.86246
G0 F18000 X32.927 Y-8.5
G1 F2400 X-52.995 Y-8.499 E1768.22079
G0 F18000 X-52.949 Y-8.999
G1 F2400 X32.842 Y-9 E1773.57089
G0 F18000 X32.756 Y-9.5
G1 F2400 X-52.903 Y-9.499 E1778.91282
G0 F18000 X-52.781 Y-9.999
G1 F2400 X32.671 Y-10 E1784.24178
G0 F18000 X32.585 Y-10.5
G1 F2400 X-52.596 Y-10.499 E1789.55391
G0 F18000 X-52.411 Y-10.999
G1 F2400 X32.499 Y-11 E1794.84907
G0 F18000 X32.414 Y-11.5
G1 F2400 X-52.227 Y-11.499 E1800.12751
G0 F18000 X-52.042 Y-11.999
G1 F2400 X32.328 Y-12 E1805.38899
G0 F18000 X32.243 Y-12.5
G1 F2400 X-51.857 Y-12.499 E1810.6337
G0 F18000 X-51.672 Y-12.999
G1 F2400 X32.157 Y-13 E1815.86145
G0 F18000 X31.929 Y-13.5
G1 F2400 X-51.487 Y-13.499 E1821.0635
G0 F18000 X-51.302 Y-13.999
G1 F2400 X31.699 Y-14 E1826.23961
G0 F18000 X31.469 Y-14.5
G1 F2400 X-51.117 Y-14.499 E1831.3899
G0 F18000 X-50.933 Y-14.999
G1 F2400 X31.239 Y-15 E1836.51431
G0 F18000 X31.009 Y-15.5
G1 F2400 X-50.748 Y-15.499 E1841.6129
G0 F18000 X-50.563 Y-15.999
G1 F2400 X30.779 Y-16 E1846.68555
G0 F18000 X30.548 Y-16.5
G1 F2400 X-50.378 Y-16.499 E1851.73231
G0 F18000 X-50.193 Y-16.999
G1 F2400 X30.318 Y-17 E1856.75314
G0 F18000 X30.088 Y-17.5
G1 F2400 X-50.008 Y-17.499 E1861.74815
G0 F18000 X-49.824 Y-17.999
G1 F2400 X29.858 Y-18 E1866.71727
G0 F18000 X29.628 Y-18.5
G1 F2400 X-49.639 Y-18.499 E1871.66058
G0 F18000 X-49.454 Y-18.999
G1 F2400 X29.397 Y-19 E1876.57789
G0 F18000 X29.167 Y-19.5
G1 F2400 X-49.269 Y-19.499 E1881.46937
G0 F18000 X-49.084 Y-19.999
G1 F2400 X28.937 Y-20 E1886.33491
G0 F18000 X28.707 Y-20.5
G1 F2400 X-48.899 Y-20.499 E1891.17464
G0 F18000 X-48.548 Y-20.999
G1 F2400 X28.477 Y-21 E1895.97806
G0 F18000 X28.246 Y-21.5
G1 F2400 X-48.195 Y-21.499 E1900.74514
G0 F18000 X-47.841 Y-21.999
G1 F2400 X28.016 Y-22 E1905.47572
G0 F18000 X27.786 Y-22.5
G1 F2400 X-47.487 Y-22.499 E1910.16996
G0 F18000 X-47.133 Y-22.999
G1 F2400 X27.556 Y-23 E1914.82771
G0 F18000 X27.31 Y-23.5
G1 F2400 X-46.779 Y-23.499 E1919.4481
G0 F18000 X-46.425 Y-23.999
G1 F2400 X26.895 Y-24 E1924.02047
G0 F18000 X26.48 Y-24.5
G1 F2400 X-46.071 Y-24.499 E1928.54495
G0 F18000 X-45.717 Y-24.999
G1 F2400 X26.064 Y-25 E1933.02135
G0 F18000 X25.649 Y-25.5
G1 F2400 X-45.363 Y-25.499 E1937.44986
G0 F18000 X-45.009 Y-25.999
G1 F2400 X25.234 Y-26 E1941.83034
G0 F18000 X24.819 Y-26.5
G1 F2400 X-44.655 Y-26.499 E1946.16293
G0 F18000 X-44.301 Y-26.999
G1 F2400 X24.403 Y-27 E1950.44744
G0 F18000 X23.988 Y-27.5
G1 F2400 X-43.948 Y-27.499 E1954.68412
G0 F18000 X-43.594 Y-27.999
G1 F2400 X23.573 Y-28 E1958.87277
G0 F18000 X23.158 Y-28.5
G1 F2400 X-43.24 Y-28.499 E1963.01353
G0 F18000 X-42.886 Y-28.999
G1 F2400 X22.743 Y-29 E1967.10628
G0 F18000 X22.327 Y-29.5
G1 F2400 X-42.532 Y-29.499 E1971.15106
G0 F18000 X-42.129 Y-29.999
G1 F2400 X21.911 Y-30 E1975.14471
G0 F18000 X21.496 Y-30.5
G1 F2400 X-41.527 Y-30.499 E1979.075
G0 F18000 X-40.925 Y-30.999
G1 F2400 X21.081 Y-31 E1982.9418
G0 F18000 X20.665 Y-31.5
G1 F2400 X-40.323 Y-31.499 E1986.74518
G0 F18000 X-39.721 Y-31.999
G1 F2400 X20.25 Y-32 E1990.48508
G0 F18000 X19.722 Y-32.5
G1 F2400 X-39.119 Y-32.499 E1994.15456
G0 F18000 X-38.517 Y-33
G1 F2400 X19.015 Y-33 E1997.74235
G0 F18000 X18.309 Y-33.5
G1 F2400 X-37.915 Y-33.5 E2001.24864
G0 F18000 X-37.313 Y-34
G1 F2400 X17.602 Y-34 E2004.67323
G0 F18000 X16.895 Y-34.5
G1 F2400 X-36.711 Y-34.5 E2008.01624
G0 F18000 X-36.109 Y-35
G1 F2400 X16.189 Y-35 E2011.27763
G0 F18000 X15.482 Y-35.5
G1 F2400 X-35.507 Y-35.5 E2014.45744
G0 F18000 X-34.905 Y-36
G1 F2400 X14.775 Y-36 E2017.55556
G0 F18000 X14.069 Y-36.5
G1 F2400 X-34.303 Y-36.5 E2020.57217
G0 F18000 X-33.701 Y-37
G1 F2400 X13.362 Y-37 E2023.50709
G0 F18000 X12.656 Y-37.5
G1 F2400 X-32.851 Y-37.5 E2026.34503
G0 F18000 X-31.764 Y-38
G1 F2400 X11.949 Y-38 E2029.07103
G0 F18000 X11.242 Y-38.5
G1 F2400 X-30.678 Y-38.5 E2031.68528
G0 F18000 X-29.591 Y-39
G1 F2400 X10.466 Y-39 E2034.18328
G0 F18000 X9.113 Y-39.5
G1 F2400 X-28.505 Y-39.5 E2036.52924
G0 F18000 X-27.418 Y-40
G1 F2400 X7.76 Y-40 E2038.72298
G0 F18000 X6.408 Y-40.5
G1 F2400 X-26.332 Y-40.5 E2040.76473
G0 F18000 X-25.245 Y-41
G1 F2400 X5.055 Y-41 E2042.65426
G0 F18000 X3.702 Y-41.5
G1 F2400 X-24.159 Y-41.5 E2044.39175
G0 F18000 X-23.072 Y-42
G1 F2400 X2.349 Y-42 E2045.97701
G0 F18000 X0.997 Y-42.5
G1 F2400 X-20.343 Y-42.5 E2047.30783
G0 F18000 X-17.423 Y-43
G1 F2400 X-0.903 Y-43 E2048.338
G0 F18000 X-6.343 Y-43.5
G0 X-6.343 Y-43.5
G1 F2400 X-14.503 Y-43.5 E2048.84695
G0 F18000 X-52.868 Y8
G0 X-52.868 Y8
G1 F2400 X33.199 Y7.999 E2054.21426
G0 F18000 X33.153 Y8.499
G1 F2400 X-52.783 Y8.5 E2059.57346
G0 F18000 X-52.697 Y9
G1 F2400 X33.107 Y8.999 E2064.92438
G0 F18000 X33.061 Y9.499
G1 F2400 X-52.611 Y9.5 E2070.26712
G0 F18000 X-52.526 Y10
G1 F2400 X32.952 Y9.999 E2075.5977
G0 F18000 X32.767 Y10.499
G1 F2400 X-52.44 Y10.5 E2080.91144
G0 F18000 X-52.355 Y11
G1 F2400 X32.583 Y10.999 E2086.20835
G0 F18000 X32.398 Y11.499
G1 F2400 X-52.269 Y11.5 E2091.48841
G0 F18000 X-52.184 Y12
G1 F2400 X32.213 Y11.999 E2096.75158
G0 F18000 X32.028 Y12.499
G1 F2400 X-52.098 Y12.5 E2101.99791
G0 F18000 X-52.013 Y13
G1 F2400 X31.843 Y12.999 E2107.22734
G0 F18000 X31.658 Y13.499
G1 F2400 X-51.799 Y13.5 E2112.43195
G0 F18000 X-51.568 Y14
G1 F2400 X31.474 Y13.999 E2117.61061
G0 F18000 X31.289 Y14.499
G1 F2400 X-51.338 Y14.5 E2122.76346
G0 F18000 X-51.108 Y15
G1 F2400 X31.104 Y14.999 E2127.89036
G0 F18000 X30.919 Y15.499
G1 F2400 X-50.877 Y15.5 E2132.99139
G0 F18000 X-50.647 Y16
G1 F2400 X30.734 Y15.999 E2138.06647
G0 F18000 X30.549 Y16.499
G1 F2400 X-50.416 Y16.5 E2143.11567
G0 F18000 X-50.186 Y17
G1 F2400 X30.365 Y16.999 E2148.13899
G0 F18000 X30.18 Y17.499
G1 F2400 X-49.955 Y17.5 E2153.13643
G0 F18000 X-49.725 Y18
G1 F2400 X29.995 Y17.999 E2158.10792
G0 F18000 X29.81 Y18.499
G1 F2400 X-49.495 Y18.5 E2163.0536
G0 F18000 X-49.264 Y19
G1 F2400 X29.625 Y19 E2167.97328
G0 F18000 X29.44 Y19.5
G1 F2400 X-49.034 Y19.5 E2172.86713
G0 F18000 X-48.803 Y20
G1 F2400 X29.256 Y20 E2177.73504
G0 F18000 X29.071 Y20.5
G1 F2400 X-48.573 Y20.5 E2182.57714
G0 F18000 X-48.342 Y21
G1 F2400 X28.731 Y21 E2187.38356
G0 F18000 X28.377 Y21.5
G1 F2400 X-48.112 Y21.5 E2192.15362
G0 F18000 X-47.882 Y22
G1 F2400 X28.024 Y22 E2196.88727
G0 F18000 X27.67 Y22.5
G1 F2400 X-47.651 Y22.5 E2201.58449
G0 F18000 X-47.421 Y23
G1 F2400 X27.316 Y23 E2206.24523
G0 F18000 X26.963 Y23.5
G1 F2400 X-47.19 Y23.5 E2210.86962
G0 F18000 X-46.782 Y24
G1 F2400 X26.609 Y24 E2215.44642
G0 F18000 X26.256 Y24.5
G1 F2400 X-46.367 Y24.5 E2219.97539
G0 F18000 X-45.952 Y25
G1 F2400 X25.902 Y25 E2224.45634
G0 F18000 X25.548 Y25.5
G1 F2400 X-45.537 Y25.5 E2228.8894
G0 F18000 X-45.121 Y26
G1 F2400 X25.195 Y26 E2233.27444
G0 F18000 X24.841 Y26.5
G1 F2400 X-44.706 Y26.5 E2237.61158
G0 F18000 X-44.291 Y27
G1 F2400 X24.488 Y27 E2241.90076
G0 F18000 X24.134 Y27.5
G1 F2400 X-43.875 Y27.5 E2246.14199
G0 F18000 X-43.46 Y28
G1 F2400 X23.78 Y28 E2250.3352
G0 F18000 X23.427 Y28.5
G1 F2400 X-43.045 Y28.5 E2254.48058
G0 F18000 X-42.63 Y29
G1 F2400 X23.073 Y29 E2258.57794
G0 F18000 X22.72 Y29.5
G1 F2400 X-42.214 Y29.5 E2262.6274
G0 F18000 X-41.799 Y30
G1 F2400 X22.339 Y30 E2266.62716
G0 F18000 X21.737 Y30.5
G1 F2400 X-41.384 Y30.5 E2270.56356
G0 F18000 X-40.969 Y31
G1 F2400 X21.135 Y31 E2274.43647
G0 F18000 X20.533 Y31.5
G1 F2400 X-40.553 Y31.5 E2278.24596
G0 F18000 X-40.138 Y32
G1 F2400 X19.931 Y32 E2281.99197
G0 F18000 X19.329 Y32.5
G1 F2400 X-39.638 Y32.5 E2285.66931
G0 F18000 X-38.931 Y33
G1 F2400 X18.727 Y33 E2289.26496
G0 F18000 X18.125 Y33.5
G1 F2400 X-38.225 Y33.5 E2292.7791
G0 F18000 X-37.518 Y34
G1 F2400 X17.523 Y34 E2296.21155
G0 F18000 X16.921 Y34.5
G1 F2400 X-36.812 Y34.5 E2299.56249
G0 F18000 X-36.105 Y35
G1 F2400 X16.319 Y35 E2302.83173
G0 F18000 X15.718 Y35.5
G1 F2400 X-35.398 Y35.5 E2306.01947
G0 F18000 X-34.692 Y36
G1 F2400 X15.116 Y36 E2309.12557
G0 F18000 X14.514 Y36.5
G1 F2400 X-33.985 Y36.5 E2312.1501
G0 F18000 X-33.279 Y37
G1 F2400 X13.912 Y37 E2315.093
G0 F18000 X13.109 Y37.5
G1 F2400 X-32.571 Y37.5 E2317.94173
G0 F18000 X-31.865 Y38
G1 F2400 X12.023 Y38 E2320.67864
G0 F18000 X10.937 Y38.5
G1 F2400 X-31.158 Y38.5 E2323.3038
G0 F18000 X-30.448 Y39
G1 F2400 X9.851 Y39 E2325.8169
G0 F18000 X8.765 Y39.5
G1 F2400 X-29.095 Y39.5 E2328.17795
G0 F18000 X-27.743 Y40
G1 F2400 X7.679 Y40 E2330.3869
G0 F18000 X6.593 Y40.5
G1 F2400 X-26.39 Y40.5 E2332.44381
G0 F18000 X-25.038 Y41
G1 F2400 X5.507 Y41 E2334.34862
G0 F18000 X4.421 Y41.5
G1 F2400 X-23.685 Y41.5 E2336.10139
G0 F18000 X-22.333 Y42
G1 F2400 X3.335 Y42 E2337.70205
G0 F18000 X0.795 Y42.5
G0 X0.795 Y42.5
G1 F2400 X-20.98 Y42.5 E2339.06
G0 F18000 X-19.49 Y43
G1 F2400 X-2.127 Y43 E2340.14274
G0 F18000 X-5.049 Y43.5
G1 F2400 X-14.081 Y43.5 E2340.70607
G0 F18000 X-8.671 Y44
G1 F2400 X-7.972 Y44 E2340.74959
; LAYER:3
G0 F18000 X-8.212 Y44.234 Z1.2
; TYPE:WALL-INNER
G1 F2400 X-19.716 Y43.17 E2341.47014
G1 X-30.547 Y39.166 E2342.19033
G1 X-39.975 Y32.495 E2342.91063
G1 X-47.339 Y23.629 E2343.62943
G1 X-52.185 Y13.117 E2344.35132
G1 X-54.133 Y1.735 E2345.07146
G1 X-53.069 Y-9.768 E2345.79187
G1 X-49.065 Y-20.599 E2346.51204
G1 X-42.394 Y-30.027 E2347.23231
G1 X-33.509 Y-37.407 E2347.9526
G1 X-23.019 Y-42.234 E2348.6727
G1 X-11.671 Y-44.179 E2349.39066
G1 X-0.134 Y-43.12 E2350.11309
G1 X10.703 Y-39.115 E2350.83351
G1 X20.128 Y-32.446 E2351.55351
G1 X27.508 Y-23.56 E2352.27381
G1 X32.338 Y-13.068 E2352.99407
G1 X34.286 Y-1.686 E2353.71414
G1 X33.222 Y9.817 E2354.4345
G1 X29.227 Y20.623 E2355.15297
G1 X22.546 Y30.076 E2355.87486
G1 X13.662 Y37.456 E2356.59511
G1 X3.169 Y42.286 E2357.31548
G1 X-8.212 Y44.234 E2358.03555
G0 F18000 X-9.923 Y7.356
G0 X-9.923 Y7.356
G1 F2400 X-8.025 Y7.107 E2358.15487
G1 X-6.258 Y6.374 E2358.27411
G1 X-4.739 Y5.209 E2358.39344
G1 X-3.574 Y3.69 E2358.51279
G1 X-2.841 Y1.922 E2358.63212
G1 X-2.592 Y0.024 E2358.75149
G1 X-2.841 Y-1.873 E2358.87082
G1 X-3.574 Y-3.64 E2358.9902
G1 X-4.739 Y-5.159 E2359.10967
G1 X-6.258 Y-6.324 E2359.22914
G1 X-8.025 Y-7.057 E2359.34852
G1 X-9.923 Y-7.306 E2359.46797
G1 X-11.821 Y-7.057 E2359.5874
G1 X-13.589 Y-6.324 E2359.70679
G1 X-15.107 Y-5.159 E2359.82614
G1 X-16.272 Y-3.64 E2359.94551
G1 X-17.005 Y-1.873 E2360.06477
G1 X-17.256 Y0.024 E2360.18405
G1 X-17.005 Y1.922 E2360.30344
G1 X-16.272 Y3.69 E2360.42277
G1 X-15.107 Y5.209 E2360.54212
G1 X-13.589 Y6.374 E2360.6614
G1 X-11.821 Y7.107 E2360.7807
G1 X-9.923 Y7.356 E2360.90002
G0 F18000 X-9.923 Y6.852
; TYPE:WALL-OUTER
G1 F2100 X-8.156 Y6.62 E2361.01109
G1 X-6.51 Y5.937 E2361.12217
G1 X-5.096 Y4.852 E2361.23327
G1 X-4.011 Y3.438 E2361.34438
G1 X-3.328 Y1.791 E2361.45555
G1 X-3.096 Y0.024 E2361.56669
G1 X-3.328 Y-1.742 E2361.67777
G1 X-4.011 Y-3.388 E2361.78899
G1 X-5.096 Y-4.802 E2361.90023
G1 X-6.51 Y-5.887 E2362.01146
G1 X-8.156 Y-6.57 E2362.12268
G1 X-9.923 Y-6.802 E2362.23389
G1 X-11.69 Y-6.57 E2362.34509
G1 X-13.337 Y-5.887 E2362.45631
G1 X-14.75 Y-4.802 E2362.56742
G1 X-15.835 Y-3.388 E2362.67856
G1 X-16.518 Y-1.742 E2362.78966
G1 X-16.751 Y0.024 E2362.9007
G1 X-16.518 Y1.791 E2363.01184
G1 X-15.835 Y3.438 E2363.12301
G1 X-14.75 Y4.852 E2363.23412
G1 X-13.337 Y5.937 E2363.34517
G1 X-11.69 Y6.62 E2363.45631
G1 X-9.923 Y6.852 E2363.56738
G1 F6600 E2356.76738
G1 Z1.5
G0 F18000 X-9.968 Y7.198
G0 X-8.207 Y44.285
G0 X-8.188 Y44.685
G0 X-8.203 Y44.387
G0 X-8.203 Y44.387
G0 X-8.192 Y44.738
G1 Z1.2
G1 F6600 E2363.66738
G1 F2100 X-19.827 Y43.662 E2364.39613
G1 X-30.782 Y39.612 E2365.12457
G1 X-40.317 Y32.865 E2365.85306
G1 X-47.765 Y23.898 E2366.58004
G1 X-52.667 Y13.264 E2367.3103
G1 X-54.637 Y1.755 E2368.03849
G1 X-53.561 Y-9.879 E2368.76711
G1 X-49.511 Y-20.834 E2369.49552
G1 X-42.764 Y-30.369 E2370.22397
G1 X-33.778 Y-37.833 E2370.95246
G1 X-23.132 Y-42.722 E2371.68301
G1 X-11.691 Y-44.683 E2372.40685
G1 X-0.024 Y-43.612 E2373.13743
G1 X10.938 Y-39.561 E2373.86616
G1 X20.47 Y-32.816 E2374.59433
G1 X27.934 Y-23.829 E2375.32283
G1 X32.82 Y-13.215 E2376.05146
G1 X34.79 Y-1.706 E2376.77957
G1 X33.714 Y9.928 E2377.50813
G1 X29.673 Y20.858 E2378.23485
G1 X22.917 Y30.418 E2378.96489
G1 X13.931 Y37.882 E2379.69338
G1 X3.316 Y42.768 E2380.42212
G1 X-8.192 Y44.738 E2381.15023
G0 F18000 X-7.999 Y44.005
; TYPE:FILL
G1 F2400 X-7.999 Y7.482 E2383.42791
G0 F18000 X-8.064 Y7.304
G1 F2400 X-8.256 Y7.636 E2383.45186
G0 F18000 X-8.499 Y7.546
G1 F2400 X-8.499 Y44.016 E2385.72623
G0 F18000 X-8.999 Y43.97
G1 F2400 X-8.999 Y7.61 E2387.99374
G0 F18000 X-9.001 Y7.732
G1 F2400 X-9.166 Y7.447 E2388.0143
G0 F18000 X-9.499 Y7.674
G1 F2400 X-9.499 Y43.924 E2390.27495
G0 F18000 X-9.999 Y43.877
G1 F2400 X-9.999 Y7.726 E2392.52943
G0 F18000 X-10.114 Y7.522
G1 F2400 X-10.28 Y7.811 E2392.55025
G0 F18000 X-10.499 Y7.66
G1 F2400 X-10.499 Y43.831 E2394.80597
G0 F18000 X-10.999 Y43.785
G1 F2400 X-10.999 Y7.594 E2397.06294
G0 F18000 X-10.929 Y7.724
G1 F2400 X-11.123 Y7.389 E2397.08711
G0 F18000 X-11.499 Y7.528
G1 F2400 X-11.499 Y43.739 E2399.34533
G0 F18000 X-11.999 Y43.692
G1 F2400 X-11.999 Y7.439 E2401.60617
G0 F18000 X-12.052 Y7.547
G1 F2400 X-11.898 Y7.28 E2401.62536
G0 F18000 X-12.5 Y7.232
G1 F2400 X-12.499 Y43.646 E2403.89623
G0 F18000 X-12.999 Y43.6
G1 F2400 X-13 Y7.025 E2406.17715
G0 F18000 X-13.239 Y7.056
G1 F2400 X-13.47 Y6.627 E2406.2086
G1 X-13.604 Y6.904 E2406.22782
G0 F18000 X-13.5 Y6.818
G1 F2400 X-13.499 Y43.554 E2408.51878
G0 F18000 X-13.999 Y43.508
G1 F2400 X-14 Y6.532 E2410.8247
G0 F18000 X-14.026 Y6.664
G1 F2400 X-13.382 Y6.664 E2410.8648
G0 F18000 X-14.5 Y6.149
G1 F2400 X-14.499 Y43.461 E2413.19168
G0 F18000 X-14.999 Y43.415
G1 F2400 X-15 Y5.766 E2415.53958
G0 F18000 X-14.971 Y5.939
G1 F2400 X-14.816 Y5.67 E2415.55891
G0 F18000 X-15.5 Y5.317
G1 F2400 X-15.499 Y43.369 E2417.93193
G0 F18000 X-15.999 Y43.323
G1 F2400 X-16 Y4.664 E2420.34281
G0 F18000 X-16.156 Y4.659
G1 F2400 X-15.988 Y4.369 E2420.36368
G0 F18000 X-16.5 Y4.012
G1 F2400 X-16.499 Y43.276 E2422.8123
G0 F18000 X-16.999 Y43.23
G1 F2400 X-17 Y2.92 E2425.32614
G0 F18000 X-17.106 Y2.973
G1 F2400 X-16.935 Y2.984 E2425.35032
G1 X-16.625 Y3.332 E2425.37934
G0 F18000 X-17.231 Y1.666
G0 X-17.231 Y1.666
G1 F2400 X-17.54 Y1.666 E2425.39867
G0 F18000 X-17.5 Y1.055
G1 F2400 X-17.499 Y43.184 E2428.02595
G0 F18000 X-17.999 Y43.138
G1 F2400 X-18 Y-42.902 E2433.39164
G0 F18000 X-17.5 Y-42.987
G1 F2400 X-17.5 Y-1.007 E2436.00957
G0 F18000 X-17.671 Y-0.619
G1 F2400 X-17.432 Y-0.092 E2436.04075
G1 X-17.589 Y0.096 E2436.06008
G1 X-17.676 Y0.628 E2436.09371
G0 F18000 X-17.534 Y-1.665
G0 X-17.534 Y-1.665
G1 F2400 X-17.225 Y-1.665 E2436.11291
G0 F18000 X-16.901 Y-2.618
G1 F2400 X-17.094 Y-2.953 E2436.13711
G0 F18000 X-17 Y-2.87
G1 F2400 X-17 Y-43.073 E2438.64434
G0 F18000 X-16.5 Y-43.159
G1 F2400 X-16.5 Y-3.962 E2441.08871
G0 F18000 X-16.605 Y-3.331
G1 F2400 X-16.938 Y-3.331 E2441.10954
G0 F18000 X-15.972 Y-4.34
G1 F2400 X-16.139 Y-4.63 E2441.1305
G0 F18000 X-16 Y-4.614
G1 F2400 X-16 Y-43.244 E2443.53963
G0 F18000 X-15.5 Y-43.33
G1 F2400 X-15.5 Y-5.267 E2445.91328
G0 F18000 X-15.469 Y-4.997
G1 F2400 X-15.859 Y-4.997 E2445.93767
G0 F18000 X-15 Y-5.716
G1 F2400 X-15 Y-43.415 E2448.28874
G0 F18000 X-14.5 Y-43.501
G1 F2400 X-14.5 Y-6.1 E2450.62111
G0 F18000 X-14.951 Y-5.905
G1 F2400 X-14.795 Y-5.635 E2450.64047
G0 F18000 X-14 Y-6.483
G1 F2400 X-14 Y-43.587 E2452.95444
G0 F18000 X-13.5 Y-43.672
G1 F2400 X-13.5 Y-6.769 E2455.25575
G0 F18000 X-13.582 Y-6.865
G1 F2400 X-13.478 Y-6.574 E2455.2751
G1 X-13.277 Y-6.991 E2455.304
G0 F18000 X-13 Y-6.976
G1 F2400 X-13 Y-43.758 E2457.59788
G0 F18000 X-12.5 Y-43.844
G1 F2400 X-12.5 Y-7.183 E2459.8841
G0 F18000 X-12 Y-7.39
G1 F2400 X-12 Y-43.929 E2462.16284
G0 F18000 X-11.5 Y-43.972
G1 F2400 X-11.5 Y-7.479 E2464.43858
G0 F18000 X-11.154 Y-7.336
G1 F2400 X-10.96 Y-7.671 E2464.46274
G0 F18000 X-11 Y-7.545
G1 F2400 X-11 Y-43.926 E2466.73163
G0 F18000 X-10.5 Y-43.88
G1 F2400 X-10.5 Y-7.611 E2468.9934
G0 F18000 X-10.254 Y-7.765
G1 F2400 X-10.087 Y-7.475 E2469.01418
G0 F18000 X-10 Y-7.677
G1 F2400 X-10 Y-43.834 E2471.26909
G0 F18000 X-9.5 Y-43.788
G1 F2400 X-9.5 Y-7.631 E2473.52388
G0 F18000 X-9.193 Y-7.401
G1 F2400 X-9.026 Y-7.69 E2473.54472
G0 F18000 X-9 Y-7.566
G1 F2400 X-9 Y-43.743 E2475.80088
G0 F18000 X-8.5 Y-43.697
G1 F2400 X-8.5 Y-7.5 E2478.05816
G0 F18000 X-8.226 Y-7.584
G1 F2400 X-8.033 Y-7.25 E2478.08213
G0 F18000 X-8 Y-7.434
G1 F2400 X-8 Y-43.651 E2480.34079
G0 F18000 X-7.5 Y-43.605
G1 F2400 X-7.5 Y-7.248 E2482.60805
G0 F18000 X-7.325 Y-7.304
G1 F2400 X-7.479 Y-7.036 E2482.6273
G0 F18000 X-7 Y-7.04
G1 F2400 X-7 Y-43.559 E2484.90479
G0 F18000 X-6.5 Y-43.513
G1 F2400 X-6.5 Y-6.833 E2487.19219
G0 F18000 X-6.582 Y-6.664
G1 F2400 X-5.843 Y-6.634 E2487.23577
G1 X-5.961 Y-6.334 E2487.25583
G0 F18000 X-6 Y-6.602
G1 F2400 X-6 Y-43.467 E2489.5549
G0 F18000 X-5.5 Y-43.422
G1 F2400 X-5.5 Y-6.218 E2491.87498
G0 F18000 X-5.683 Y-6.511
G1 F2400 X-5.278 Y-5.811 E2491.92533
G0 F18000 X-5 Y-5.835
G1 F2400 X-5 Y-43.376 E2494.26655
G0 F18000 X-4.5 Y-43.33
G1 F2400 X-4.5 Y-5.452 E2496.62867
G0 F18000 X-4.472 Y-5.581
G1 F2400 X-4.502 Y-5.154 E2496.64806
G1 X-3.987 Y-4.998 E2496.68154
G0 F18000 X-4 Y-4.817
G1 F2400 X-4 Y-43.284 E2499.08051
G0 F18000 X-3.5 Y-43.238
G1 F2400 X-3.5 Y-4.165 E2501.51715
G0 F18000 X-3.358 Y-4.178
G1 F2400 X-3.383 Y-3.609 E2501.538
G1 X-2.907 Y-3.332 E2501.57226
G0 F18000 X-3 Y-3.244
G1 F2400 X-3 Y-43.192 E2504.06359
G0 F18000 X-2.5 Y-43.146
G1 F2400 X-2.5 Y-2.038 E2506.62713
G0 F18000 X-2.689 Y-2.005
G1 F2400 X-2.558 Y-2.002 E2506.6512
G1 X-2.427 Y-1.369 E2506.67043
G1 X-2.116 Y-0.188 E2506.72049
G1 X-2.268 Y0.181 E2506.73988
G1 X-2.574 Y1.362 E2506.7898
G1 X-2.306 Y1.666 E2506.81503
G0 F18000 X-2.499 Y2.084
G1 F2400 X-2.499 Y43.064 E2509.37066
G0 F18000 X-2.999 Y43.149
G1 F2400 X-2.999 Y3.291 E2511.85631
G0 F18000 X-2.887 Y3.332
G1 F2400 X-3.365 Y3.623 E2511.87714
G1 X-3.342 Y4.206 E2511.91353
G0 F18000 X-3.499 Y4.213
G1 F2400 X-3.499 Y43.235 E2514.34705
G0 F18000 X-3.999 Y43.32
G1 F2400 X-3.999 Y4.865 E2516.74521
G0 F18000 X-3.948 Y4.998
G1 F2400 X-4.473 Y5.172 E2516.7696
G1 X-4.452 Y5.616 E2516.79732
G0 F18000 X-4.499 Y5.501
G1 F2400 X-4.499 Y43.406 E2519.16118
G0 F18000 X-4.999 Y43.491
G1 F2400 X-4.999 Y5.884 E2521.50645
G0 F18000 X-5.33 Y5.901
G1 F2400 X-5.759 Y6.619 E2521.55677
G1 X-5.941 Y6.368 E2521.57614
G0 F18000 X-5.999 Y6.65
G1 F2400 X-5.999 Y43.663 E2523.88437
G0 F18000 X-6.499 Y43.748
G1 F2400 X-6.499 Y6.882 E2526.18344
G0 F18000 X-6.462 Y6.664
G1 F2400 X-5.818 Y6.664 E2526.22354
G0 F18000 X-5.499 Y6.267
G1 F2400 X-5.499 Y43.577 E2528.55029
G0 F18000 X-6.999 Y43.834
G1 F2400 X-6.999 Y7.089 E2530.84181
G0 F18000 X-7.302 Y7.344
G1 F2400 X-7.456 Y7.076 E2530.86112
G0 F18000 X-7.499 Y7.297
G1 F2400 X-7.499 Y43.919 E2533.14496
G0 F18000 X-1.999 Y42.978
G1 F2400 X-2 Y-43.101 E2538.51309
G0 F18000 X-1.5 Y-43.055
G1 F2400 X-1.499 Y42.893 E2543.87298
G0 F18000 X-0.999 Y42.807
G1 F2400 X-1 Y-43.009 E2549.2247
G0 F18000 X-0.5 Y-42.963
G1 F2400 X-0.499 Y42.721 E2554.56813
G0 F18000 X0 Y42.636
G1 F2400 X0 Y-42.869 E2559.90046
G0 F18000 X0.499 Y-42.684
G1 F2400 X0.5 Y42.55 E2565.21582
G0 F18000 X1 Y42.465
G1 F2400 X0.999 Y-42.499 E2570.51441
G0 F18000 X1.499 Y-42.314
G1 F2400 X1.5 Y42.379 E2575.79604
G0 F18000 X2 Y42.294
G1 F2400 X1.999 Y-42.129 E2581.06089
G0 F18000 X2.499 Y-41.945
G1 F2400 X2.5 Y42.208 E2586.30884
G0 F18000 X3 Y42.123
G1 F2400 X2.999 Y-41.76 E2591.54001
G0 F18000 X3.499 Y-41.575
G1 F2400 X3.5 Y41.924 E2596.74718
G0 F18000 X4 Y41.694
G1 F2400 X3.999 Y-41.39 E2601.92852
G0 F18000 X4.499 Y-41.205
G1 F2400 X4.5 Y41.464 E2607.08393
G0 F18000 X5 Y41.233
G1 F2400 X4.999 Y-41.021 E2612.21351
G0 F18000 X5.499 Y-40.836
G1 F2400 X5.5 Y41.003 E2617.31716
G0 F18000 X6 Y40.773
G1 F2400 X5.999 Y-40.651 E2622.39498
G0 F18000 X6.499 Y-40.466
G1 F2400 X6.5 Y40.543 E2627.44686
G0 F18000 X7 Y40.313
G1 F2400 X6.999 Y-40.281 E2632.47293
G0 F18000 X7.499 Y-40.097
G1 F2400 X7.5 Y40.082 E2637.47305
G0 F18000 X8 Y39.852
G1 F2400 X7.999 Y-39.912 E2642.44735
G0 F18000 X8.499 Y-39.727
G1 F2400 X8.5 Y39.622 E2647.39571
G0 F18000 X9 Y39.392
G1 F2400 X8.999 Y-39.542 E2652.31825
G0 F18000 X9.499 Y-39.357
G1 F2400 X9.5 Y39.162 E2657.21485
G0 F18000 X10 Y38.932
G1 F2400 X9.999 Y-39.173 E2662.08569
G0 F18000 X10.499 Y-38.988
G1 F2400 X10.5 Y38.701 E2666.93053
G0 F18000 X11 Y38.471
G1 F2400 X10.999 Y-38.672 E2671.74138
G0 F18000 X11.499 Y-38.318
G1 F2400 X11.5 Y38.241 E2676.51575
G0 F18000 X12 Y38.011
G1 F2400 X11.999 Y-37.964 E2681.25376
G0 F18000 X12.499 Y-37.611
G1 F2400 X12.5 Y37.781 E2685.95535
G0 F18000 X13 Y37.55
G1 F2400 X12.999 Y-37.257 E2690.62052
G0 F18000 X13.499 Y-36.903
G1 F2400 X13.5 Y37.32 E2695.24921
G0 F18000 X14 Y36.927
G1 F2400 X13.999 Y-36.549 E2699.83137
G0 F18000 X14.499 Y-36.195
G1 F2400 X14.5 Y36.511 E2704.36546
G0 F18000 X15 Y36.096
G1 F2400 X14.999 Y-35.841 E2708.85165
G0 F18000 X15.499 Y-35.487
G1 F2400 X15.5 Y35.681 E2713.28982
G0 F18000 X16 Y35.265
G1 F2400 X15.999 Y-35.134 E2717.68009
G0 F18000 X16.499 Y-34.78
G1 F2400 X16.5 Y34.85 E2722.02235
G0 F18000 X17 Y34.435
G1 F2400 X16.999 Y-34.426 E2726.31671
G0 F18000 X17.499 Y-34.072
G1 F2400 X17.5 Y34.019 E2730.56299
G0 F18000 X18 Y33.604
G1 F2400 X17.999 Y-33.718 E2734.76138
G0 F18000 X18.499 Y-33.364
G1 F2400 X18.5 Y33.189 E2738.91174
G0 F18000 X19 Y32.773
G1 F2400 X18.999 Y-33.011 E2743.01421
G0 F18000 X19.499 Y-32.657
G1 F2400 X19.5 Y32.357 E2747.0686
G0 F18000 X20 Y31.942
G1 F2400 X19.999 Y-32.301 E2751.07497
G0 F18000 X20.499 Y-31.699
G1 F2400 X20.5 Y31.526 E2755.0178
G0 F18000 X21 Y31.111
G1 F2400 X20.999 Y-31.097 E2758.89726
G0 F18000 X21.499 Y-30.495
G1 F2400 X21.5 Y30.696 E2762.71324
G0 F18000 X22 Y30.28
G1 F2400 X21.999 Y-29.893 E2766.46579
G0 F18000 X22.499 Y-29.291
G1 F2400 X22.5 Y29.81 E2770.15143
G0 F18000 X23 Y29.102
G1 F2400 X22.999 Y-28.689 E2773.75543
G0 F18000 X23.499 Y-28.087
G1 F2400 X23.5 Y28.395 E2777.27774
G0 F18000 X24 Y27.687
G1 F2400 X23.999 Y-27.485 E2780.71842
G0 F18000 X24.499 Y-26.883
G1 F2400 X24.5 Y26.98 E2784.0774
G0 F18000 X25 Y26.272
G1 F2400 X24.999 Y-26.281 E2787.35475
G0 F18000 X25.499 Y-25.679
G1 F2400 X25.5 Y25.565 E2790.55041
G0 F18000 X26 Y24.857
G1 F2400 X25.999 Y-25.077 E2793.66443
G0 F18000 X26.499 Y-24.474
G1 F2400 X26.5 Y24.15 E2796.6967
G0 F18000 X27 Y23.442
G1 F2400 X26.999 Y-23.872 E2799.64733
G0 F18000 X27.499 Y-23.12
G1 F2400 X27.5 Y22.735 E2802.50691
G0 F18000 X28 Y22.028
G1 F2400 X27.999 Y-22.034 E2805.25474
G0 F18000 X28.499 Y-20.948
G1 F2400 X28.5 Y21.32 E2807.89062
G0 F18000 X29 Y20.613
G1 F2400 X28.999 Y-19.863 E2810.41482
G0 F18000 X29.499 Y-18.777
G1 F2400 X29.5 Y19.334 E2812.79146
G0 F18000 X30 Y17.982
G1 F2400 X29.999 Y-17.691 E2815.01613
G0 F18000 X30.499 Y-16.605
G1 F2400 X30.5 Y16.63 E2817.08869
G0 F18000 X31 Y15.278
G1 F2400 X30.999 Y-15.519 E2819.00928
G0 F18000 X31.5 Y-14.433
G1 F2400 X31.5 Y13.926 E2820.77776
G0 F18000 X32 Y12.574
G1 F2400 X32 Y-13.347 E2822.39427
G0 F18000 X32.5 Y-10.997
G1 F2400 X32.5 Y11.222 E2823.77984
G0 F18000 X33 Y9.87
G1 F2400 X33 Y-8.074 E2824.89888
G0 F18000 X33.5 Y-5.151
G0 X33.5 Y-5.151
G1 F2400 X33.5 Y4.745 E2825.51596
G0 F18000 X34 Y-0.662
G0 X34 Y-0.662
G1 F2400 X34 Y-2.228 E2825.61368
G0 F18000 X-2.485 Y2.359
G0 X-2.485 Y2.359
G1 F2400 X-2.677 Y2.026 E2825.63768
G0 F18000 X-2.914 Y1.786
G0 X-2.644 Y0.024
G0 X-2.892 Y-1.859
G0 X-3.445 Y-3.196
G0 X-3.619 Y-3.613
G0 X-4.776 Y-5.122
G0 X-6.285 Y-6.279
G0 X-8.039 Y-7.006
G0 X-9.923 Y-7.254
G0 X-11.626 Y-6.99
G0 X-11.875 Y-7.24
G0 X-11.875 Y-7.24
G1 F2400 X-12.029 Y-7.508 E2825.65704
G0 F18000 X-13.264 Y-6.663
G1 F2400 X-13.964 Y-6.663 E2825.70076
G0 F18000 X-14.075 Y-5.814
G0 X-15.07 Y-5.122
G0 X-16.227 Y-3.613
G0 X-16.954 Y-1.859
G0 X-17.203 Y0.024
G0 X-16.954 Y1.908
G0 X-16.227 Y3.663
G0 X-15.45 Y4.582
G0 X-15.506 Y4.998
G0 X-15.506 Y4.998
G1 F2400 X-15.896 Y4.998 E2825.72514
G0 F18000 X-43.5 Y27.952
G0 X-43.5 Y27.952
G1 F2400 X-43.5 Y-28.133 E2829.22276
G0 F18000 X-43 Y-28.839
G1 F2400 X-43 Y28.554 E2832.80188
G0 F18000 X-42.5 Y29.156
G1 F2400 X-42.5 Y-29.546 E2836.4627
G0 F18000 X-42 Y-30.105
G1 F2400 X-41.999 Y29.758 E2840.19586
G0 F18000 X-41.499 Y30.36
G1 F2400 X-41.5 Y-30.52 E2843.9925
G0 F18000 X-41 Y-30.936
G1 F2400 X-40.999 Y30.962 E2847.85257
G0 F18000 X-40.499 Y31.564
G1 F2400 X-40.5 Y-31.351 E2851.77612
G0 F18000 X-40 Y-31.766
G1 F2400 X-39.999 Y32.166 E2855.76304
G0 F18000 X-39.499 Y32.597
G1 F2400 X-39.5 Y-32.182 E2859.80283
G0 F18000 X-39 Y-32.597
G1 F2400 X-38.999 Y32.951 E2863.89053
G0 F18000 X-38.499 Y33.305
G1 F2400 X-38.5 Y-33.012 E2868.02624
G0 F18000 X-38 Y-33.427
G1 F2400 X-37.999 Y33.659 E2872.20984
G0 F18000 X-37.499 Y34.013
G1 F2400 X-37.5 Y-33.843 E2876.44153
G0 F18000 X-37 Y-34.258
G1 F2400 X-36.999 Y34.366 E2880.72105
G0 F18000 X-36.499 Y34.72
G1 F2400 X-36.5 Y-34.673 E2885.04859
G0 F18000 X-36 Y-35.089
G1 F2400 X-35.999 Y35.074 E2889.42408
G0 F18000 X-35.499 Y35.428
G1 F2400 X-35.5 Y-35.504 E2893.8476
G0 F18000 X-35 Y-35.919
G1 F2400 X-34.999 Y35.781 E2898.31894
G0 F18000 X-34.499 Y36.135
G1 F2400 X-34.5 Y-36.334 E2902.83831
G0 F18000 X-34 Y-36.75
G1 F2400 X-33.999 Y36.489 E2907.40563
G0 F18000 X-33.499 Y36.843
G1 F2400 X-33.5 Y-37.165 E2912.02098
G0 F18000 X-33 Y-37.43
G1 F2400 X-32.999 Y37.197 E2916.67486
G0 F18000 X-32.499 Y37.55
G1 F2400 X-32.5 Y-37.66 E2921.36516
G0 F18000 X-32 Y-37.89
G1 F2400 X-31.999 Y37.904 E2926.09182
G0 F18000 X-31.499 Y38.258
G1 F2400 X-31.5 Y-38.12 E2930.85496
G0 F18000 X-31 Y-38.35
G1 F2400 X-30.999 Y38.612 E2935.65446
G0 F18000 X-30.499 Y38.966
G1 F2400 X-30.5 Y-38.58 E2940.49045
G0 F18000 X-30 Y-38.811
G1 F2400 X-29.999 Y39.165 E2945.35318
G0 F18000 X-29.499 Y39.35
G1 F2400 X-29.5 Y-39.042 E2950.24192
G0 F18000 X-29 Y-39.272
G1 F2400 X-28.999 Y39.535 E2955.15648
G0 F18000 X-28.499 Y39.72
G1 F2400 X-28.5 Y-39.502 E2960.09698
G0 F18000 X-28 Y-39.732
G1 F2400 X-27.999 Y39.905 E2965.0633
G0 F18000 X-27.499 Y40.089
G1 F2400 X-27.5 Y-39.962 E2970.0555
G0 F18000 X-27 Y-40.192
G1 F2400 X-26.999 Y40.274 E2975.07352
G0 F18000 X-26.499 Y40.459
G1 F2400 X-26.5 Y-40.422 E2980.11749
G0 F18000 X-26 Y-40.652
G1 F2400 X-25.999 Y40.644 E2985.18727
G0 F18000 X-25.499 Y40.829
G1 F2400 X-25.5 Y-40.883 E2990.28305
G0 F18000 X-25 Y-41.113
G1 F2400 X-24.999 Y41.014 E2995.40465
G0 F18000 X-24.499 Y41.199
G1 F2400 X-24.5 Y-41.343 E3000.5522
G0 F18000 X-24 Y-41.573
G1 F2400 X-23.999 Y41.384 E3005.72557
G0 F18000 X-23.499 Y41.569
G1 F2400 X-23.5 Y-41.803 E3010.92487
G0 F18000 X-23 Y-42.033
G1 F2400 X-22.999 Y41.753 E3016.14994
G0 F18000 X-22.499 Y41.938
G1 F2400 X-22.5 Y-42.131 E3021.39271
G0 F18000 X-22 Y-42.216
G1 F2400 X-21.999 Y42.123 E3026.65226
G0 F18000 X-21.499 Y42.308
G1 F2400 X-21.5 Y-42.302 E3031.92877
G0 F18000 X-21 Y-42.388
G1 F2400 X-20.999 Y42.493 E3037.22212
G0 F18000 X-20.499 Y42.678
G1 F2400 X-20.5 Y-42.473 E3042.53237
G0 F18000 X-20 Y-42.559
G1 F2400 X-19.999 Y42.863 E3047.85946
G0 F18000 X-19.499 Y42.999
G1 F2400 X-19.5 Y-42.645 E3053.20046
G0 F18000 X-19 Y-42.73
G1 F2400 X-18.999 Y43.045 E3058.54956
G0 F18000 X-18.499 Y43.092
G1 F2400 X-18.5 Y-42.816 E3063.90702
G0 F18000 X-44 Y-27.426
G0 X-44 Y-27.426
G1 F2400 X-44 Y27.35 E3067.32294
G0 F18000 X-44.5 Y26.748
G1 F2400 X-44.5 Y-26.72 E3070.65735
G0 F18000 X-45 Y-26.013
G1 F2400 X-45 Y26.146 E3073.91007
G0 F18000 X-45.5 Y25.544
G1 F2400 X-45.5 Y-25.307 E3077.08128
G0 F18000 X-46 Y-24.6
G1 F2400 X-46 Y24.942 E3080.17079
G0 F18000 X-46.5 Y24.34
G1 F2400 X-46.5 Y-23.894 E3083.1788
G0 F18000 X-47 Y-23.187
G1 F2400 X-47 Y23.738 E3086.1051
G0 F18000 X-47.5 Y22.823
G1 F2400 X-47.5 Y-22.481 E3088.93039
G0 F18000 X-48 Y-21.774
G1 F2400 X-48 Y21.739 E3091.64392
G0 F18000 X-48.5 Y20.654
G1 F2400 X-48.5 Y-21.068 E3094.24581
G0 F18000 X-49 Y-20.227
G1 F2400 X-49 Y19.57 E3096.7276
G0 F18000 X-49.5 Y18.486
G1 F2400 X-49.5 Y-18.874 E3099.05747
G0 F18000 X-50 Y-17.522
G1 F2400 X-50 Y17.401 E3101.23531
G0 F18000 X-50.5 Y16.317
G1 F2400 X-50.5 Y-16.169 E3103.26122
G0 F18000 X-51 Y-14.817
G1 F2400 X-51 Y15.232 E3105.1351
G0 F18000 X-51.5 Y14.148
G1 F2400 X-51.5 Y-13.464 E3106.85706
G0 F18000 X-52 Y-12.112
G1 F2400 X-52 Y13.064 E3108.42704
G0 F18000 X-52.5 Y10.152
G0 X-52.5 Y10.152
G1 F2400 X-52.5 Y-10.759 E3109.73111
G0 F18000 X-53 Y-8.45
G0 X-53 Y-8.45
G1 F2400 X-53 Y7.229 E3110.70883
G0 F18000 X-53.5 Y4.306
G0 X-53.5 Y4.306
G1 F2400 X-53.5 Y-3.041 E3111.16701
; LAYER:4
G0 F18000 X-54.133 Y1.735 Z1.5
G0 X-54.133 Y1.735
; TYPE:WALL-INNER
G1 F2400 X-53.069 Y-9.768 E3111.88743
G1 X-49.065 Y-20.599 E3112.60759
G1 X-42.394 Y-30.027 E3113.32786
G1 X-33.509 Y-37.407 E3114.04816
G1 X-23.015 Y-42.236 E3114.76853
G1 X-11.633 Y-44.185 E3115.48862
G1 X-0.135 Y-43.12 E3116.20867
G1 X10.703 Y-39.115 E3116.92915
G1 X20.128 Y-32.446 E3117.64914
G1 X27.508 Y-23.56 E3118.36944
G1 X32.338 Y-13.068 E3119.0897
G1 X34.286 Y-1.686 E3119.80977
G1 X33.222 Y9.817 E3120.53013
G1 X29.231 Y20.613 E3121.24793
G1 X22.544 Y30.078 E3121.97065
G1 X13.662 Y37.456 E3122.69073
G1 X3.169 Y42.286 E3123.41109
G1 X-8.212 Y44.234 E3124.13117
G1 X-19.716 Y43.17 E3124.85171
G1 X-30.547 Y39.166 E3125.5719
G1 X-39.975 Y32.495 E3126.2922
G1 X-47.335 Y23.634 E3127.0106
G1 X-52.185 Y13.117 E3127.73288
G1 X-54.133 Y1.735 E3128.45302
G0 F18000 X-17.256 Y0.024
G0 X-17.256 Y0.024
G1 F2400 X-17.005 Y1.922 E3128.57241
G1 X-16.272 Y3.69 E3128.69174
G1 X-15.107 Y5.209 E3128.81108
G1 X-13.589 Y6.374 E3128.93037
G1 X-11.821 Y7.107 E3129.04967
G1 X-9.923 Y7.356 E3129.16898
G1 X-8.025 Y7.107 E3129.2883
G1 X-6.258 Y6.374 E3129.40754
G1 X-4.739 Y5.209 E3129.52688
G1 X-3.574 Y3.69 E3129.64622
G1 X-2.841 Y1.922 E3129.76555
G1 X-2.592 Y0.024 E3129.88492
G1 X-2.841 Y-1.873 E3130.00425
G1 X-3.574 Y-3.64 E3130.12363
G1 X-4.739 Y-5.159 E3130.2431
G1 X-6.258 Y-6.324 E3130.36257
G1 X-8.025 Y-7.057 E3130.48195
G1 X-9.923 Y-7.306 E3130.6014
G1 X-11.821 Y-7.057 E3130.72083
G1 X-13.589 Y-6.324 E3130.84022
G1 X-15.107 Y-5.159 E3130.95957
G1 X-16.272 Y-3.64 E3131.07894
G1 X-17.005 Y-1.873 E3131.1982
G1 X-17.256 Y0.024 E3131.31748
G0 F18000 X-16.751 Y0.024
; TYPE:WALL-OUTER
G1 F2100 X-16.518 Y1.791 E3131.42862
G1 X-15.835 Y3.438 E3131.53979
G1 X-14.75 Y4.852 E3131.6509
G1 X-13.337 Y5.937 E3131.76195
G1 X-11.69 Y6.62 E3131.87309
G1 X-9.923 Y6.852 E3131.98417
G1 X-8.156 Y6.62 E3132.09525
G1 X-6.51 Y5.937 E3132.20633
G1 X-5.096 Y4.852 E3132.31743
G1 X-4.011 Y3.438 E3132.42854
G1 X-3.328 Y1.791 E3132.53971
G1 X-3.096 Y0.024 E3132.65084
G1 X-3.328 Y-1.742 E3132.76193
G1 X-4.011 Y-3.388 E3132.87314
G1 X-5.096 Y-4.802 E3132.98438
G1 X-6.51 Y-5.887 E3133.09562
G1 X-8.156 Y-6.57 E3133.20683
G1 X-9.923 Y-6.802 E3133.31804
G1 X-11.69 Y-6.57 E3133.42924
G1 X-13.337 Y-5.887 E3133.54047
G1 X-14.75 Y-4.802 E3133.65158
G1 X-15.835 Y-3.388 E3133.76272
G1 X-16.518 Y-1.742 E3133.87382
G1 X-16.751 Y0.024 E3133.98485
G1 F6600 E3127.18485
G1 Z1.8
G0 F18000 X-17.097 Y-0.021
G0 X-54.184 Y1.739
G0 X-54.583 Y1.758
G0 X-54.286 Y1.744
G0 X-54.286 Y1.744
G0 X-54.637 Y1.755
G1 Z1.5
G1 F6600 E3134.08485
G1 F2100 X-53.561 Y-9.879 E3134.81347
G1 X-49.511 Y-20.834 E3135.54188
G1 X-42.764 Y-30.369 E3136.27034
G1 X-33.778 Y-37.833 E3136.99882
G1 X-23.164 Y-42.718 E3137.72745
G1 X-11.653 Y-44.689 E3138.45571
G1 X-0.024 Y-43.612 E3139.18396
G1 X10.938 Y-39.561 E3139.91269
G1 X20.47 Y-32.816 E3140.64086
G1 X27.934 Y-23.829 E3141.36936
G1 X32.82 Y-13.215 E3142.09799
G1 X34.79 Y-1.706 E3142.8261
G1 X33.714 Y9.928 E3143.55466
G1 X29.676 Y20.852 E3144.28096
G1 X22.917 Y30.418 E3145.01141
G1 X13.931 Y37.882 E3145.73991
G1 X3.316 Y42.768 E3146.46865
G1 X-8.192 Y44.738 E3147.19676
G1 X-19.827 Y43.662 E3147.92551
G1 X-30.782 Y39.612 E3148.65394
G1 X-40.317 Y32.865 E3149.38243
G1 X-47.761 Y23.903 E3150.10902
G1 X-52.667 Y13.264 E3150.83967
G1 X-54.637 Y1.755 E3151.56785
G0 F18000 X-53.92 Y1.5
; TYPE:FILL
G1 F2400 X-17.441 Y1.5 E3153.84272
G0 F18000 X-17.54 Y1.666
G1 F2400 X-17.231 Y1.666 E3153.86193
G0 F18000 X-17.376 Y2
G1 F2400 X-53.894 Y2 E3156.13935
G0 F18000 X-53.809 Y2.5
G1 F2400 X-17.174 Y2.5 E3158.42395
G0 F18000 X-16.912 Y2.637
G1 F2400 X-17.106 Y2.973 E3158.44818
G0 F18000 X-16.967 Y3
G1 F2400 X-53.723 Y3 E3160.74044
G0 F18000 X-53.638 Y3.5
G1 F2400 X-16.76 Y3.5 E3163.0402
G0 F18000 X-16.625 Y3.332
G1 F2400 X-16.959 Y3.332 E3163.06109
G0 F18000 X-16.509 Y4
G1 F2400 X-53.552 Y4 E3165.37125
G0 F18000 X-53.467 Y4.5
G1 F2400 X-16.126 Y4.5 E3167.69988
G0 F18000 X-16.156 Y4.659
G1 F2400 X-15.942 Y4.683 E3167.72073
G1 X-15.506 Y4.998 E3167.75422
G0 F18000 X-15.743 Y5
G1 F2400 X-53.381 Y5 E3170.1015
G0 F18000 X-53.296 Y5.5
G1 F2400 X-15.347 Y5.5 E3172.46804
G0 F18000 X-14.816 Y5.67
G1 F2400 X-14.971 Y5.939 E3172.48743
G0 F18000 X-14.694 Y6
G1 F2400 X-53.21 Y6 E3174.88946
G0 F18000 X-53.125 Y6.5
G1 F2400 X-14.042 Y6.5 E3177.32672
G0 F18000 X-14.026 Y6.664
G1 F2400 X-13.416 Y6.65 E3177.36676
G1 X-13.547 Y6.761 E3177.38608
G1 X-13.239 Y7.056 E3177.41263
G0 F18000 X-13.06 Y7
G1 F2400 X-53.039 Y7 E3179.90589
G0 F18000 X-52.954 Y7.5
G1 F2400 X-11.714 Y7.5 E3182.47767
G0 F18000 X-11.898 Y7.28
G1 F2400 X-11.587 Y7.468 E3182.49689
G1 X-10.604 Y7.767 E3182.52096
G1 X-9.64 Y7.484 E3182.54174
G1 X-8.628 Y7.684 E3182.56218
G1 X-8.064 Y7.304 E3182.60453
G0 F18000 X-8.14 Y7.5
G1 F2400 X33.245 Y7.499 E3185.18535
G0 F18000 X33.199 Y7.999
G1 F2400 X-52.868 Y8 E3190.55273
G0 F18000 X-52.783 Y8.5
G1 F2400 X33.153 Y8.499 E3195.91187
G0 F18000 X33.107 Y8.999
G1 F2400 X-52.697 Y9 E3201.26285
G0 F18000 X-52.611 Y9.5
G1 F2400 X33.061 Y9.499 E3206.60553
G0 F18000 X32.952 Y9.999
G1 F2400 X-52.526 Y10 E3211.93617
G0 F18000 X-52.44 Y10.5
G1 F2400 X32.767 Y10.499 E3217.24985
G0 F18000 X32.583 Y10.999
G1 F2400 X-52.355 Y11 E3222.54682
G0 F18000 X-52.269 Y11.5
G1 F2400 X32.398 Y11.499 E3227.82682
G0 F18000 X32.213 Y11.999
G1 F2400 X-52.184 Y12 E3233.09005
G0 F18000 X-52.098 Y12.5
G1 F2400 X32.028 Y12.499 E3238.33632
G0 F18000 X31.843 Y12.999
G1 F2400 X-52.013 Y13 E3243.56581
G0 F18000 X-51.799 Y13.5
G1 F2400 X31.658 Y13.499 E3248.77036
G0 F18000 X31.474 Y13.999
G1 F2400 X-51.568 Y14 E3253.94908
G0 F18000 X-51.337 Y14.5
G1 F2400 X31.289 Y14.499 E3259.10181
G0 F18000 X31.104 Y14.999
G1 F2400 X-51.107 Y15 E3264.22871
G0 F18000 X-50.876 Y15.5
G1 F2400 X30.919 Y15.499 E3269.32961
G0 F18000 X30.734 Y15.999
G1 F2400 X-50.646 Y16 E3274.40469
G0 F18000 X-50.415 Y16.5
G1 F2400 X30.549 Y16.499 E3279.45377
G0 F18000 X30.365 Y16.999
G1 F2400 X-50.184 Y17 E3284.47702
G0 F18000 X-49.954 Y17.5
G1 F2400 X30.18 Y17.499 E3289.47434
G0 F18000 X29.995 Y17.999
G1 F2400 X-49.723 Y18 E3294.44577
G0 F18000 X-49.492 Y18.5
G1 F2400 X29.81 Y18.499 E3299.3912
G0 F18000 X29.625 Y19
G1 F2400 X-49.262 Y19 E3304.31081
G0 F18000 X-49.031 Y19.5
G1 F2400 X29.441 Y19.5 E3309.20448
G0 F18000 X29.256 Y20
G1 F2400 X-48.801 Y20 E3314.07233
G0 F18000 X-48.57 Y20.5
G1 F2400 X29.071 Y20.5 E3318.91417
G0 F18000 X28.726 Y21
G1 F2400 X-48.339 Y21 E3323.72016
G0 F18000 X-48.109 Y21.5
G1 F2400 X28.372 Y21.5 E3328.48966
G0 F18000 X28.019 Y22
G1 F2400 X-47.878 Y22 E3333.22281
G0 F18000 X-47.648 Y22.5
G1 F2400 X27.666 Y22.5 E3337.91953
G0 F18000 X27.312 Y23
G1 F2400 X-47.417 Y23 E3342.57984
G0 F18000 X-47.186 Y23.5
G1 F2400 X26.959 Y23.5 E3347.20366
G0 F18000 X26.606 Y24
G1 F2400 X-46.782 Y24 E3351.78034
G0 F18000 X-46.367 Y24.5
G1 F2400 X26.252 Y24.5 E3356.309
G0 F18000 X25.899 Y25
G1 F2400 X-45.952 Y25 E3360.78983
G0 F18000 X-45.537 Y25.5
G1 F2400 X25.546 Y25.5 E3365.22269
G0 F18000 X25.192 Y26
G1 F2400 X-45.121 Y26 E3369.60761
G0 F18000 X-44.706 Y26.5
G1 F2400 X24.839 Y26.5 E3373.94456
G0 F18000 X24.486 Y27
G1 F2400 X-44.291 Y27 E3378.23369
G0 F18000 X-43.876 Y27.5
G1 F2400 X24.132 Y27.5 E3382.47479
G0 F18000 X23.779 Y28
G1 F2400 X-43.46 Y28 E3386.668
G0 F18000 X-43.045 Y28.5
G1 F2400 X23.426 Y28.5 E3390.81325
G0 F18000 X23.072 Y29
G1 F2400 X-42.63 Y29 E3394.91061
G0 F18000 X-42.214 Y29.5
G1 F2400 X22.719 Y29.5 E3398.95995
G0 F18000 X22.339 Y30
G1 F2400 X-41.799 Y30 E3402.95977
G0 F18000 X-41.384 Y30.5
G1 F2400 X21.737 Y30.5 E3406.89611
G0 F18000 X21.135 Y31
G1 F2400 X-40.969 Y31 E3410.76908
G0 F18000 X-40.553 Y31.5
G1 F2400 X20.533 Y31.5 E3414.57851
G0 F18000 X19.931 Y32
G1 F2400 X-40.138 Y32 E3418.32458
G0 F18000 X-39.638 Y32.5
G1 F2400 X19.329 Y32.5 E3422.00186
G0 F18000 X18.727 Y33
G1 F2400 X-38.931 Y33 E3425.59757
G0 F18000 X-38.225 Y33.5
G1 F2400 X18.125 Y33.5 E3429.11165
G0 F18000 X17.524 Y34
G1 F2400 X-37.518 Y34 E3432.54422
G0 F18000 X-36.812 Y34.5
G1 F2400 X16.922 Y34.5 E3435.89516
G0 F18000 X16.32 Y35
G1 F2400 X-36.105 Y35 E3439.16453
G0 F18000 X-35.398 Y35.5
G1 F2400 X15.718 Y35.5 E3442.3522
G0 F18000 X15.116 Y36
G1 F2400 X-34.692 Y36 E3445.45836
G0 F18000 X-33.985 Y36.5
G1 F2400 X14.514 Y36.5 E3448.48283
G0 F18000 X13.912 Y37
G1 F2400 X-33.279 Y37 E3451.42579
G0 F18000 X-32.571 Y37.5
G1 F2400 X13.109 Y37.5 E3454.27446
G0 F18000 X12.023 Y38
G1 F2400 X-31.865 Y38 E3457.01144
G0 F18000 X-31.158 Y38.5
G1 F2400 X10.937 Y38.5 E3459.63654
G0 F18000 X9.851 Y39
G1 F2400 X-30.448 Y39 E3462.14969
G0 F18000 X-29.095 Y39.5
G1 F2400 X8.765 Y39.5 E3464.51068
G0 F18000 X7.679 Y40
G1 F2400 X-27.743 Y40 E3466.7197
G0 F18000 X-26.39 Y40.5
G1 F2400 X6.593 Y40.5 E3468.77655
G0 F18000 X5.507 Y41
G1 F2400 X-25.038 Y41 E3470.68142
G0 F18000 X-23.685 Y41.5
G1 F2400 X4.421 Y41.5 E3472.43412
G0 F18000 X3.335 Y42
G1 F2400 X-22.333 Y42 E3474.03485
G0 F18000 X-20.98 Y42.5
G1 F2400 X0.795 Y42.5 E3475.39273
G0 F18000 X-2.127 Y43
G1 F2400 X-19.49 Y43 E3476.4756
G0 F18000 X-14.081 Y43.5
G1 F2400 X-5.049 Y43.5 E3477.0388
G0 F18000 X-7.972 Y44
G1 F2400 X-8.671 Y44 E3477.08245
G0 F18000 X-7.302 Y7.344
G0 X-7.302 Y7.344
G1 F2400 X-7.456 Y7.076 E3477.10176
G0 F18000 X-6.783 Y7
G1 F2400 X33.292 Y6.999 E3479.60089
G0 F18000 X33.338 Y6.499
G1 F2400 X-5.803 Y6.5 E3482.04183
G0 F18000 X-5.734 Y6.6
G1 F2400 X-5.33 Y5.901 E3482.09214
G0 F18000 X-5.15 Y6
G1 F2400 X33.384 Y5.999 E3484.49517
G0 F18000 X33.43 Y5.499
G1 F2400 X-4.498 Y5.5 E3486.86046
G0 F18000 X-4.452 Y5.616
G1 F2400 X-4.473 Y5.172 E3486.87981
G1 X-3.948 Y4.998 E3486.91424
G0 F18000 X-4.103 Y5
G1 F2400 X33.477 Y4.999 E3489.25777
G0 F18000 X33.523 Y4.499
G1 F2400 X-3.718 Y4.5 E3491.58023
G0 F18000 X-3.342 Y4.206
G1 F2400 X-3.51 Y3.915 E3491.60121
G0 F18000 X-3.335 Y4
G1 F2400 X33.569 Y3.999 E3493.90258
G0 F18000 X33.615 Y3.499
G1 F2400 X-3.086 Y3.5 E3496.19136
G0 F18000 X-3.22 Y3.332
G1 F2400 X-2.887 Y3.332 E3496.21206
G0 F18000 X-2.879 Y3
G1 F2400 X33.661 Y2.999 E3498.49074
G0 F18000 X33.708 Y2.499
G1 F2400 X-2.672 Y2.5 E3500.75949
G0 F18000 X-2.485 Y2.359
G1 F2400 X-2.677 Y2.026 E3500.7835
G0 F18000 X-2.47 Y2
G1 F2400 X33.754 Y1.999 E3503.04246
G0 F18000 X33.8 Y1.499
G1 F2400 X-2.405 Y1.5 E3505.30031
G0 F18000 X-2.306 Y1.666
G1 F2400 X-2.574 Y1.362 E3505.31965
G1 X-2.133 Y0.363 E3505.38772
G0 F18000 X-2.273 Y0.5
G1 F2400 X33.893 Y0.499 E3507.64307
G0 F18000 X33.939 Y0
G1 F2400 X-2.213 Y0 E3509.89761
G0 F18000 X-2.092 Y0
G1 F2400 X-2.272 Y-0.188 E3509.91714
G1 X-2.543 Y-1.073 E3509.97494
G0 F18000 X-2.345 Y-0.999
G1 F2400 X34.031 Y-1 E3512.24338
G0 F18000 X34.077 Y-1.5
G1 F2400 X-2.411 Y-1.499 E3514.51888
G0 F18000 X-2.312 Y-1.665
G1 F2400 X-2.655 Y-1.835 E3514.53818
G1 X-2.496 Y-2.339 E3514.57118
G0 F18000 X-2.692 Y-2.5
G1 F2400 X33.954 Y-2.5 E3516.85647
G0 F18000 X34.039 Y-2
G1 F2400 X-2.485 Y-1.999 E3519.1342
G0 F18000 X-2.899 Y-3
G1 F2400 X33.868 Y-3 E3521.42703
G0 F18000 X33.782 Y-3.5
G1 F2400 X-3.106 Y-3.5 E3523.72747
G0 F18000 X-3.24 Y-3.332
G1 F2400 X-2.907 Y-3.332 E3523.74817
G0 F18000 X-3.373 Y-4
G1 F2400 X33.697 Y-4 E3526.0599
G0 F18000 X33.611 Y-4.5
G1 F2400 X-3.757 Y-4.5 E3528.39027
G0 F18000 X-3.358 Y-4.178
G1 F2400 X-3.526 Y-3.887 E3528.4112
G0 F18000 X-3.987 Y-4.998
G1 F2400 X-4.377 Y-4.998 E3528.43559
G0 F18000 X-4.141 Y-5
G1 F2400 X33.526 Y-5 E3530.78454
G0 F18000 X33.44 Y-5.5
G1 F2400 X-4.563 Y-5.5 E3533.15451
G0 F18000 X-4.472 Y-5.581
G1 F2400 X-4.953 Y-5.561 E3533.17389
G1 X-5.744 Y-6.557 E3533.22423
G1 X-5.961 Y-6.334 E3533.24363
G0 F18000 X-5.867 Y-6.5
G1 F2400 X33.269 Y-6.5 E3535.6842
G0 F18000 X33.184 Y-7
G1 F2400 X-6.901 Y-7 E3538.18401
G0 F18000 X-6.582 Y-6.664
G1 F2400 X-5.882 Y-6.664 E3538.2276
G0 F18000 X-5.215 Y-6
G1 F2400 X33.355 Y-6 E3540.63287
G0 F18000 X33.098 Y-7.5
G0 X33.098 Y-7.5
G1 F2400 X-8.495 Y-7.499 E3543.22673
G0 F18000 X-8.226 Y-7.584
G1 F2400 X-7.756 Y-7.143 E3543.25063
G1 X-7.325 Y-7.304 E3543.27928
G0 F18000 X-9.026 Y-7.69
G0 X-9.026 Y-7.69
G1 F2400 X-9.64 Y-7.438 E3543.3
G1 X-10.607 Y-7.718 E3543.32074
G1 X-11.154 Y-7.336 E3543.36236
G0 F18000 X-11.35 Y-7.499
G1 F2400 X-53.088 Y-7.499 E3545.96532
G0 F18000 X-53.134 Y-6.999
G1 F2400 X-12.945 Y-6.999 E3548.47156
G0 F18000 X-13.277 Y-6.991
G1 F2400 X-13.478 Y-6.574 E3548.50305
G1 X-13.423 Y-6.764 E3548.52248
G1 X-13.964 Y-6.663 E3548.55685
G0 F18000 X-13.979 Y-6.499
G1 F2400 X-53.18 Y-6.499 E3551.0016
G0 F18000 X-53.227 Y-5.999
G1 F2400 X-14.631 Y-5.999 E3553.40849
G0 F18000 X-14.951 Y-5.905
G1 F2400 X-14.795 Y-5.635 E3553.42785
G0 F18000 X-15.283 Y-5.499
G1 F2400 X-53.273 Y-5.499 E3555.79707
G0 F18000 X-53.319 Y-4.999
G1 F2400 X-15.705 Y-4.999 E3558.14272
G0 F18000 X-15.859 Y-4.997
G1 F2400 X-15.804 Y-4.813 E3558.16707
G1 X-15.972 Y-4.34 E3558.19833
G0 F18000 X-16.089 Y-4.499
G1 F2400 X-53.365 Y-4.499 E3560.52303
G0 F18000 X-53.411 Y-3.999
G1 F2400 X-16.472 Y-3.999 E3562.82659
G0 F18000 X-16.739 Y-3.499
G1 F2400 X-53.458 Y-3.499 E3565.11655
G0 F18000 X-53.504 Y-2.999
G1 F2400 X-16.947 Y-2.999 E3567.39628
G0 F18000 X-17.094 Y-2.953
G1 F2400 X-16.901 Y-2.618 E3567.4203
G0 F18000 X-17.154 Y-2.499
G1 F2400 X-53.55 Y-2.499 E3569.69012
G0 F18000 X-53.596 Y-1.999
G1 F2400 X-17.361 Y-1.999 E3571.94977
G0 F18000 X-17.225 Y-1.665
G1 F2400 X-17.534 Y-1.665 E3571.96911
G0 F18000 X-17.435 Y-1.499
G1 F2400 X-53.643 Y-1.499 E3574.2272
G0 F18000 X-53.689 Y-0.999
G1 F2400 X-17.501 Y-0.999 E3576.48392
G0 F18000 X-17.671 Y-0.619
G1 F2400 X-17.432 Y-0.092 E3576.5151
G1 X-17.754 Y0 E3576.53603
G0 F18000 X-17.633 Y0
G1 F2400 X-53.781 Y0 E3578.79038
G0 F18000 X-53.735 Y-0.499
G1 F2400 X-17.567 Y-0.499 E3581.04585
G0 F18000 X-17.424 Y0.192
G1 F2400 X-17.676 Y0.628 E3581.07729
G0 F18000 X-17.573 Y0.5
G1 F2400 X-53.827 Y0.5 E3583.33825
G0 F18000 X-53.874 Y1
G1 F2400 X-17.507 Y1 E3585.60613
G0 F18000 X-16.938 Y-3.331
G0 X-16.938 Y-3.331
G1 F2400 X-16.605 Y-3.331 E3585.62684
G0 F18000 X-15.635 Y-4.131
G0 X-15.07 Y-5.122
G0 X-13.563 Y-6.279
G0 X-12.873 Y-6.413
G0 X-11.875 Y-7.24
G0 X-11.875 Y-7.24
G1 F2400 X-12.029 Y-7.508 E3585.6462
G0 F18000 X-11.33 Y-7.006
G0 X-9.923 Y-7.254
G0 X-8.039 Y-7.006
G0 X-6.285 Y-6.279
G0 X-4.776 Y-5.122
G0 X-3.619 Y-3.613
G0 X-3.406 Y-3.102
G0 X-2.892 Y-1.859
G0 X-2.815 Y-0.885
G0 X-2.279 Y-0.499
G0 X-2.279 Y-0.499
G1 F2400 X33.985 Y-0.5 E3587.90766
G0 F18000 X33.846 Y0.999
G0 X33.846 Y0.999
G1 F2400 X-2.339 Y1 E3590.16426
G0 F18000 X-3.247 Y2.354
G0 X-3.619 Y3.663
G0 X-4.776 Y5.172
G0 X-5.29 Y5.398
G0 X-5.941 Y6.368
G0 X-5.941 Y6.368
G1 F2400 X-5.801 Y6.651 E3590.18364
G1 X-6.462 Y6.664 E3590.22494
G0 F18000 X33.013 Y-8
G0 X33.013 Y-8
G1 F2400 X-53.042 Y-7.999 E3595.59156
G0 F18000 X-52.995 Y-8.499
G1 F2400 X32.927 Y-8.5 E3600.94983
G0 F18000 X32.842 Y-9
G1 F2400 X-52.949 Y-8.999 E3606.29999
G0 F18000 X-52.903 Y-9.499
G1 F2400 X32.756 Y-9.5 E3611.64186
G0 F18000 X32.671 Y-10
G1 F2400 X-52.781 Y-9.999 E3616.97089
G0 F18000 X-52.596 Y-10.499
G1 F2400 X32.585 Y-10.5 E3622.28294
G0 F18000 X32.499 Y-11
G1 F2400 X-52.411 Y-10.999 E3627.57817
G0 F18000 X-52.227 Y-11.499
G1 F2400 X32.414 Y-11.5 E3632.85655
G0 F18000 X32.328 Y-12
G1 F2400 X-52.042 Y-11.999 E3638.1181
G0 F18000 X-51.857 Y-12.499
G1 F2400 X32.243 Y-12.5 E3643.36274
G0 F18000 X32.157 Y-13
G1 F2400 X-51.672 Y-12.999 E3648.59055
G0 F18000 X-51.487 Y-13.499
G1 F2400 X31.929 Y-13.5 E3653.79254
G0 F18000 X31.699 Y-14
G1 F2400 X-51.302 Y-13.999 E3658.96871
G0 F18000 X-51.117 Y-14.499
G1 F2400 X31.469 Y-14.5 E3664.11894
G0 F18000 X31.239 Y-15
G1 F2400 X-50.933 Y-14.999 E3669.24341
G0 F18000 X-50.748 Y-15.499
G1 F2400 X31.009 Y-15.5 E3674.34194
G0 F18000 X30.779 Y-16
G1 F2400 X-50.563 Y-15.999 E3679.41465
G0 F18000 X-50.378 Y-16.499
G1 F2400 X30.548 Y-16.5 E3684.46135
G0 F18000 X30.318 Y-17
G1 F2400 X-50.193 Y-16.999 E3689.48224
G0 F18000 X-50.008 Y-17.499
G1 F2400 X30.088 Y-17.5 E3694.47719
G0 F18000 X29.858 Y-18
G1 F2400 X-49.824 Y-17.999 E3699.44638
G0 F18000 X-49.639 Y-18.499
G1 F2400 X29.628 Y-18.5 E3704.38962
G0 F18000 X29.397 Y-19
G1 F2400 X-49.454 Y-18.999 E3709.30699
G0 F18000 X-49.269 Y-19.499
G1 F2400 X29.167 Y-19.5 E3714.19841
G0 F18000 X28.937 Y-20
G1 F2400 X-49.084 Y-19.999 E3719.06401
G0 F18000 X-48.899 Y-20.499
G1 F2400 X28.707 Y-20.5 E3723.90367
G0 F18000 X28.477 Y-21
G1 F2400 X-48.549 Y-20.999 E3728.70723
G0 F18000 X-48.195 Y-21.499
G1 F2400 X28.246 Y-21.5 E3733.47424
G0 F18000 X28.016 Y-22
G1 F2400 X-47.841 Y-21.999 E3738.20489
G0 F18000 X-47.487 Y-22.499
G1 F2400 X27.786 Y-22.5 E3742.89906
G0 F18000 X27.556 Y-23
G1 F2400 X-47.133 Y-22.999 E3747.55687
G0 F18000 X-46.78 Y-23.499
G1 F2400 X27.31 Y-23.5 E3752.17726
G0 F18000 X26.895 Y-24
G1 F2400 X-46.426 Y-23.999 E3756.74976
G0 F18000 X-46.072 Y-24.499
G1 F2400 X26.48 Y-24.5 E3761.27424
G0 F18000 X26.064 Y-25
G1 F2400 X-45.718 Y-24.999 E3765.75077
G0 F18000 X-45.364 Y-25.499
G1 F2400 X25.649 Y-25.5 E3770.17927
G0 F18000 X25.234 Y-26
G1 F2400 X-45.011 Y-25.999 E3774.55994
G0 F18000 X-44.657 Y-26.499
G1 F2400 X24.819 Y-26.5 E3778.89259
G0 F18000 X24.403 Y-27
G1 F2400 X-44.303 Y-26.999 E3783.17729
G0 F18000 X-43.949 Y-27.499
G1 F2400 X23.988 Y-27.5 E3787.41397
G0 F18000 X23.573 Y-28
G1 F2400 X-43.596 Y-27.999 E3791.60281
G0 F18000 X-43.242 Y-28.499
G1 F2400 X23.158 Y-28.5 E3795.74363
G0 F18000 X22.743 Y-29
G1 F2400 X-42.888 Y-28.999 E3799.83656
G0 F18000 X-42.534 Y-29.499
G1 F2400 X22.327 Y-29.5 E3803.88141
G0 F18000 X21.911 Y-30
G1 F2400 X-42.129 Y-29.999 E3807.87512
G0 F18000 X-41.527 Y-30.499
G1 F2400 X21.496 Y-30.5 E3811.80535
G0 F18000 X21.081 Y-31
G1 F2400 X-40.925 Y-30.999 E3815.67221
G0 F18000 X-40.323 Y-31.499
G1 F2400 X20.665 Y-31.5 E3819.47553
G0 F18000 X20.25 Y-32
G1 F2400 X-39.721 Y-31.999 E3823.21549
G0 F18000 X-39.119 Y-32.499
G1 F2400 X19.722 Y-32.5 E3826.88491
G0 F18000 X19.015 Y-33
G1 F2400 X-38.517 Y-33 E3830.47276
G0 F18000 X-37.915 Y-33.5
G1 F2400 X18.309 Y-33.5 E3833.97899
G0 F18000 X17.602 Y-34
G1 F2400 X-37.313 Y-34 E3837.40364
G0 F18000 X-36.711 Y-34.5
G1 F2400 X16.895 Y-34.5 E3840.74659
G0 F18000 X16.189 Y-35
G1 F2400 X-36.109 Y-35 E3844.00804
G0 F18000 X-35.507 Y-35.5
G1 F2400 X15.482 Y-35.5 E3847.18779
G0 F18000 X14.776 Y-36
G1 F2400 X-34.905 Y-36 E3850.28604
G0 F18000 X-34.303 Y-36.5
G1 F2400 X14.069 Y-36.5 E3853.30258
G0 F18000 X13.362 Y-37
G1 F2400 X-33.701 Y-37 E3856.23756
G0 F18000 X-32.851 Y-37.5
G1 F2400 X12.656 Y-37.5 E3859.07544
G0 F18000 X11.949 Y-38
G1 F2400 X-31.764 Y-38 E3861.8015
G0 F18000 X-30.678 Y-38.5
G1 F2400 X11.242 Y-38.5 E3864.41569
G0 F18000 X10.463 Y-39
G1 F2400 X-29.591 Y-39 E3866.91357
G0 F18000 X-28.505 Y-39.5
G1 F2400 X9.11 Y-39.5 E3869.25928
G0 F18000 X7.757 Y-40
G1 F2400 X-27.418 Y-40 E3871.45289
G0 F18000 X-26.332 Y-40.5
G1 F2400 X6.404 Y-40.5 E3873.49433
G0 F18000 X5.051 Y-41
G1 F2400 X-25.245 Y-41 E3875.38368
G0 F18000 X-24.159 Y-41.5
G1 F2400 X3.698 Y-41.5 E3877.12085
G0 F18000 X2.345 Y-42
G1 F2400 X-23.072 Y-42 E3878.70593
G0 F18000 X-20.349 Y-42.5
G0 X-20.349 Y-42.5
G1 F2400 X0.992 Y-42.5 E3880.03675
G0 F18000 X-0.903 Y-43
G0 X-0.903 Y-43
G1 F2400 X-17.428 Y-43 E3881.06735
G0 F18000 X-14.506 Y-43.5
G1 F2400 X-6.302 Y-43.5 E3881.57892
; LAYER:5
G1 F6600 E3874.77892
G1 Z1.8
G0 F18000 X-9.923 Y-7.748 Z1.8
; TYPE:WALL-OUTER
G1 Z1.8
G1 F6600 E3881.67892
G1 F1701 X-7.91 Y-7.483 E3881.80547
G1 X-6.035 Y-6.706 E3881.93196
G1 X-4.426 Y-5.471 E3882.05836
G1 X-3.192 Y-3.863 E3882.18468
G1 X-2.415 Y-1.987 E3882.31123
G1 X-2.15 Y0.024 E3882.43765
G1 X-2.415 Y2.036 E3882.56422
G1 X-3.192 Y3.913 E3882.69093
G1 X-4.426 Y5.521 E3882.81737
G1 X-6.035 Y6.755 E3882.94388
G1 X-7.91 Y7.532 E3883.07051
G1 X-9.953 Y7.794 E3883.19902
G1 X-11.934 Y7.532 E3883.3237
G1 X-13.811 Y6.755 E3883.45044
G1 X-15.42 Y5.521 E3883.57695
G1 X-16.654 Y3.913 E3883.70339
G1 X-17.431 Y2.036 E3883.8301
G1 X-17.696 Y0.024 E3883.95667
G1 X-17.431 Y-1.987 E3884.08315
G1 X-16.654 Y-3.863 E3884.20982
G1 X-15.42 Y-5.471 E3884.33623
G1 X-13.811 Y-6.706 E3884.46271
G1 X-11.935 Y-7.483 E3884.58931
G1 X-9.923 Y-7.748 E3884.71581
G0 F18000 X-9.923 Y-6.802
G1 F1701 X-11.69 Y-6.57 E3884.82701
G1 X-13.337 Y-5.887 E3884.93824
G1 X-14.75 Y-4.802 E3885.04935
G1 X-15.835 Y-3.388 E3885.16049
G1 X-16.518 Y-1.742 E3885.27159
G1 X-16.751 Y0.024 E3885.38262
G1 X-16.518 Y1.791 E3885.49376
G1 X-15.835 Y3.438 E3885.60493
G1 X-14.75 Y4.852 E3885.71604
G1 X-13.337 Y5.937 E3885.82709
G1 X-11.69 Y6.62 E3885.93823
G1 X-9.923 Y6.852 E3886.04931
G1 X-8.156 Y6.62 E3886.16039
G1 X-6.51 Y5.937 E3886.27146
G1 X-5.096 Y4.852 E3886.38256
G1 X-4.011 Y3.438 E3886.49368
G1 X-3.328 Y1.791 E3886.60484
G1 X-3.096 Y0.024 E3886.71598
G1 X-3.328 Y-1.742 E3886.82706
G1 X-4.011 Y-3.388 E3886.93828
G1 X-5.096 Y-4.802 E3887.04952
G1 X-6.51 Y-5.887 E3887.16076
G1 X-8.156 Y-6.57 E3887.27197
G1 X-9.923 Y-6.802 E3887.38318
G0 F18000 X-9.952 Y-7.242
; TYPE:FILL
G1 F1944 X-9.723 Y-7.349 E3887.40408
G1 X-9.161 Y-7.455 E3887.43969
G0 F18000 X-8.068 Y-7.311
G1 F1944 X-7.84 Y-6.915 E3887.4681
G0 F18000 X-7.732 Y-6.999
G1 F1944 X-12.114 Y-6.999 E3887.74144
G0 F18000 X-11.903 Y-7.289
G1 F1944 X-11.526 Y-7.034 E3887.76164
G1 X-11.118 Y-7.398 E3887.79574
G0 F18000 X-11.098 Y-7.239
G0 X-12.415 Y-6.648
G0 X-12.415 Y-6.648
G0 X-12.355 Y-6.499
G1 F1944 X-13.31 Y-6.438 E3887.85595
G1 X-13.468 Y-6.641 E3887.87531
G1 X-13.649 Y-6.041 E3887.91497
G1 X-14.13 Y-5.749 E3887.95296
G1 X-14.715 Y-5.458 E3887.99105
G1 X-14.814 Y-5.343 E3888.01051
G1 X-15.229 Y-4.998 E3888.04182
G1 X-15.616 Y-4.748 E3888.06608
G1 X-15.411 Y-4.249 E3888.09522
G1 X-15.953 Y-4.052 E3888.12438
G1 X-15.995 Y-3.947 E3888.14543
G1 X-16.365 Y-3.415 E3888.17088
G1 X-16.635 Y-3.165 E3888.19163
G1 X-16.305 Y-2.749 E3888.2166
G1 X-16.776 Y-2.422 E3888.24157
G1 X-16.976 Y-2.339 E3888.26558
G1 X-16.794 Y-1.832 E3888.29052
G1 X-17.198 Y-1.582 E3888.30979
G1 X-16.775 Y-1.249 E3888.33303
G1 X-17.214 Y-0.749 E3888.35626
G1 X-17.015 Y-0.385 E3888.37957
G1 X-17.486 Y0.136 E3888.41873
G1 X-17.253 Y0 E3888.43805
G1 X-17.052 Y0.128 E3888.46141
G1 X-17.359 Y0.118 E3888.49885
G1 X-16.847 Y0.75 E3888.52216
G1 X-17.154 Y1.25 E3888.54538
G1 X-16.864 Y1.583 E3888.56859
G1 X-17.162 Y1.833 E3888.58779
G1 X-16.696 Y2.183 E3888.61269
G1 X-16.889 Y2.6 E3888.63673
G1 X-16.525 Y2.75 E3888.66176
G1 X-16.288 Y3.166 E3888.68669
G1 X-16.551 Y3.416 E3888.70746
G1 X-16.061 Y3.75 E3888.73243
G1 X-15.747 Y4.067 E3888.7616
G1 X-15.873 Y4.462 E3888.78256
G1 X-15.225 Y4.749 E3888.81169
G1 X-15.462 Y4.999 E3888.83601
G1 X-14.778 Y5.225 E3888.86563
G1 X-14.835 Y5.61 E3888.885
G1 X-14.194 Y5.75 E3888.923
G1 X-13.656 Y6.086 E3888.961
G1 X-13.461 Y6.692 E3888.99886
G1 X-13.381 Y6.459 E3889.01807
G1 X-12.602 Y6.582 E3889.07829
G1 X-13.531 Y6.664 E3889.13651
G0 F18000 X-12.232 Y7
G1 F1944 X-10.251 Y7 E3889.25999
G0 F18000 X-9.979 Y7.288
G1 F1944 X-10.145 Y7.577 E3889.2808
G0 F18000 X-9.595 Y7
G1 F1944 X-7.613 Y7 E3889.40434
G0 F18000 X-7.582 Y6.858
G1 F1944 X-7.653 Y7.053 E3889.42356
G1 X-8.099 Y7.364 E3889.45752
G0 F18000 X-9.137 Y7.497
G1 F1944 X-9.301 Y7.214 E3889.47794
G0 F18000 X-11.066 Y7.295
G0 X-11.066 Y7.295
G0 X-11.087 Y7.451
G1 F1944 X-11.523 Y7.085 E3889.50205
G1 X-11.926 Y7.328 E3889.53145
G0 F18000 X-11.865 Y7.184
G0 X-10.719 Y7.048
G0 X-9.923 Y7.304
G0 X-8.039 Y7.056
G0 X-7.473 Y6.666
G0 X-7.311 Y6.648
G0 X-7.311 Y6.648
G0 X-7.372 Y6.5
G1 F1944 X-6.36 Y6.582 E3889.59154
G1 X-7.115 Y6.664 E3889.63896
G0 F18000 X-6.282 Y6
G1 F1944 X-5.54 Y6.018 E3889.67687
G1 X-5.012 Y5.418 E3889.72727
G1 X-5.848 Y5.824 E3889.76521
G1 X-5.911 Y6.42 E3889.80259
G0 F18000 X-6.007 Y6.293
G0 X-4.674 Y5.27
G0 X-4.674 Y5.27
G0 X-4.578 Y5.398
G1 F1944 X-4.697 Y5.055 E3889.82312
G1 X-4.383 Y4.999 E3889.84751
G1 X-4.783 Y4.75 E3889.87712
G1 X-4.162 Y4.25 E3889.90623
G1 X-3.606 Y3.986 E3889.93544
G1 X-3.738 Y3.59 E3889.95638
G1 X-3.461 Y3.416 E3889.98141
G1 X-3.191 Y3.166 E3890.00216
G1 X-3.52 Y2.75 E3890.02713
G1 X-3.112 Y2.25 E3890.05213
G1 X-2.725 Y2.043 E3890.07705
G1 X-2.869 Y1.678 E3890.10551
G1 X-2.642 Y1.583 E3890.12477
G1 X-2.979 Y1.561 E3890.14805
G1 X-2.56 Y0.965 E3890.19799
G1 X-2.999 Y0.75 E3890.2212
G1 X-2.564 Y0.25 E3890.2444
G1 X-2.781 Y0 E3890.26769
G1 X-2.472 Y-0.249 E3890.28706
G1 X-3.005 Y-0.749 E3890.31025
G1 X-2.567 Y-0.971 E3890.33345
G1 X-2.871 Y-1.651 E3890.38342
G1 X-2.648 Y-1.582 E3890.40268
G1 X-2.99 Y-1.59 E3890.42588
G1 X-2.741 Y-2.032 E3890.45349
G1 X-3.133 Y-2.249 E3890.47843
G1 X-3.34 Y-2.75 E3890.50337
G1 X-3.577 Y-3.166 E3890.52828
G1 X-3.314 Y-3.416 E3890.54914
G1 X-3.76 Y-3.576 E3890.57457
G1 X-3.634 Y-3.971 E3890.59549
G1 X-4.2 Y-4.249 E3890.62465
G1 X-4.659 Y-4.749 E3890.65384
G1 X-4.421 Y-4.999 E3890.67816
G1 X-4.998 Y-5.123 E3890.70944
G1 X-5.547 Y-5.973 E3890.75973
G1 X-6.217 Y-6.058 E3890.79779
G1 X-6.181 Y-6.525 E3890.81716
G1 X-7.362 Y-6.581 E3890.8672
G1 X-6.527 Y-6.5 E3890.91945
G0 F18000 X-7.451 Y-7.085
G1 F1944 X-7.606 Y-6.817 E3890.93873
G0 F18000 X-6.633 Y-6.239
G0 X-6.285 Y-6.279
G0 X-6.131 Y-5.942
G0 X-5.597 Y-5.627
G0 X-5.597 Y-5.627
G0 X-5.695 Y-5.5
G1 F1944 X-4.841 Y-5.431 E3890.97673
G1 X-4.759 Y-5.084 E3890.99889
G0 F18000 X-4.958 Y-5.123
G0 X-6.285 Y-6.279
G0 X-8.039 Y-7.006
G0 X-9.923 Y-7.254
G0 X-11.807 Y-7.006
G0 X-12.474 Y-6.634
G0 X-12.613 Y-6.663
G0 X-12.613 Y-6.663
G1 F1944 X-13.415 Y-6.663 E3891.04897
G1 F6600 E3884.24897
G1 Z2.1
G0 F18000 X-33.508 Y-37.407
; TYPE:WALL-INNER
G1 Z1.8
G1 F6600 E3891.14897
G1 F1944 X-42.393 Y-30.027 E3891.86928
G1 X-49.053 Y-20.615 E3892.58831
G1 X-53.059 Y-9.793 E3893.30791
G1 X-54.13 Y1.704 E3894.02795
G1 X-52.19 Y13.088 E3894.74811
G1 X-47.367 Y23.583 E3895.46838
G1 X-47.355 Y23.61 E3895.4702
G1 X-52.185 Y13.117 E3896.1906
G1 X-54.133 Y1.735 E3896.91074
G1 X-53.069 Y-9.768 E3897.63116
G1 X-49.065 Y-20.599 E3898.35132
G1 X-42.394 Y-30.027 E3899.07159
G1 X-33.509 Y-37.407 E3899.79189
G1 X-23.016 Y-42.236 E3900.5122
G1 X-23.045 Y-42.222 E3900.51424
G1 X-33.508 Y-37.407 E3901.23255
G1 F6600 E3894.43255
G1 Z2.1
G0 F18000 X-33.055 Y-37.424
G0 X-23.029 Y-42.173
G0 X-11.639 Y-44.13
G0 X-0.144 Y-43.07
G0 X10.248 Y-39.098
G0 X10.701 Y-39.116
G0 X10.701 Y-39.116
G1 Z1.8
G1 F6600 E3901.33255
G1 F1944 X20.128 Y-32.446 E3902.05268
G1 X27.508 Y-23.56 E3902.77298
G1 X32.338 Y-13.068 E3903.49324
G1 X34.286 Y-1.686 E3904.21331
G1 X33.222 Y9.817 E3904.93367
G1 X29.218 Y20.648 E3905.6538
G1 X29.2 Y20.673 E3905.65572
G1 X33.215 Y9.835 E3906.37649
G1 X34.286 Y-1.685 E3907.09801
G1 X32.334 Y-13.075 E3907.81874
G1 X27.515 Y-23.545 E3908.53758
G1 X20.147 Y-32.422 E3909.25707
G1 X10.701 Y-39.116 E3909.9791
G0 F18000 X10.466 Y-38.67
; TYPE:WALL-OUTER
G1 F1701 X-0.244 Y-42.629 E3910.6912
G1 X-11.622 Y-43.679 E3911.40385
G1 X-22.896 Y-41.741 E3912.11729
G1 X-33.239 Y-36.98 E3912.82739
G1 X-42.023 Y-29.684 E3913.53951
G1 X-48.607 Y-20.38 E3914.2503
G1 X-52.567 Y-9.681 E3914.96172
G1 X-53.626 Y1.685 E3915.67355
G1 X-51.708 Y12.939 E3916.38549
G1 X-46.94 Y23.314 E3917.09753
G1 X-39.656 Y32.096 E3917.80903
G1 X-30.313 Y38.72 E3918.52321
G1 X-19.599 Y42.679 E3919.23547
G1 X-8.232 Y43.73 E3919.9473
G1 X3.02 Y41.804 E3920.65915
G1 X13.392 Y37.029 E3921.37123
G1 X22.176 Y29.734 E3922.08331
G1 X28.754 Y20.438 E3922.79349
G1 X32.723 Y9.723 E3923.50608
G1 X33.782 Y-1.666 E3924.21939
G1 X31.852 Y-12.926 E3924.9319
G1 X27.088 Y-23.276 E3925.6425
G1 X19.804 Y-32.052 E3926.3538
G1 X10.466 Y-38.67 E3927.0676
G0 F18000 X10.938 Y-39.561
G1 F1701 X20.47 Y-32.816 E3927.79578
G1 X27.934 Y-23.829 E3928.52427
G1 X32.82 Y-13.215 E3929.2529
G1 X34.79 Y-1.706 E3929.98101
G1 X33.714 Y9.928 E3930.70957
G1 X29.664 Y20.883 E3931.43795
G1 X22.917 Y30.418 E3932.16639
G1 X13.931 Y37.882 E3932.89488
G1 X3.316 Y42.768 E3933.62362
G1 X-8.192 Y44.738 E3934.35173
G1 X-19.827 Y43.662 E3935.08048
G1 X-30.782 Y39.612 E3935.80892
G1 X-40.317 Y32.865 E3936.53741
G1 X-47.781 Y23.879 E3937.26594
G1 X-52.667 Y13.264 E3937.99471
G1 X-54.637 Y1.755 E3938.72289
G1 X-53.561 Y-9.879 E3939.45151
G1 X-49.511 Y-20.834 E3940.17992
G1 X-42.764 Y-30.369 E3940.90838
G1 X-33.778 Y-37.833 E3941.63687
G1 X-23.163 Y-42.718 E3942.36555
G1 X-11.653 Y-44.689 E3943.09374
G1 X-0.024 Y-43.612 E3943.822
G1 X10.938 Y-39.561 E3944.55072
G0 F18000 X10.554 Y-39.5
; TYPE:FILL
G1 F1944 X8.768 Y-39.5 E3944.6621
G0 F18000 X9.201 Y-40
G1 F1944 X7.415 Y-40 E3944.77348
G0 F18000 X7.848 Y-40.5
G1 F1944 X6.063 Y-40.5 E3944.8848
G0 F18000 X6.496 Y-41
G1 F1944 X4.711 Y-41 E3944.99612
G0 F18000 X5.143 Y-41.5
G1 F1944 X3.359 Y-41.5 E3945.10737
G0 F18000 X3.79 Y-42
G1 F1944 X2.007 Y-42 E3945.21857
G0 F18000 X2.438 Y-42.5
G1 F1944 X0.655 Y-42.5 E3945.32976
G0 F18000 X1.085 Y-43
G1 F1944 X-2.195 Y-43 E3945.53431
G0 F18000 X-0.874 Y-43.5
G1 F1944 X-7.617 Y-43.5 E3945.95488
G0 F18000 X-6.276 Y-44
G1 F1944 X-14.55 Y-44 E3946.47093
G0 F18000 X-13.792 Y-43.5
G1 F1944 X-17.471 Y-43.5 E3946.70043
G0 F18000 X-16.714 Y-43
G1 F1944 X-20.392 Y-43 E3946.92986
G0 F18000 X-19.636 Y-42.5
G1 F1944 X-22.928 Y-42.5 E3947.13522
G0 F18000 X-23.001 Y-42
G1 F1944 X-22.557 Y-42 E3947.16285
G1 F6600 E3940.36285
G1 Z2.1
G0 F18000 X-22.581 Y-42.15
G0 X-22.394 Y-42.132
G0 X-11.639 Y-44.13
G0 X-0.144 Y-43.07
G0 X9.994 Y-39.165
