; Generated with MatterSlice 1.0
; filamentDiameter = 1.75
; extrusionWidth = 0.5
; firstLayerExtrusionWidth = 0.4
; layerThickness = 0.3
; firstLayerThickness = 0.3
; automatic settings before start_gcode
G21 ; set units to millimeters
M107 ; fan off
T0 ; set the active extruder to 0
; settings from start_gcode
M104 S210
M190 S60
M109 S210
G28
; automatic settings after start_gcode
T0 ; set the active extruder to 0
G90 ; use absolute coordinates
G92 E0 ; reset the expected extruder position
M82 ; use absolute distance for extrusion
; Layer count: 155
; LAYER:0
M107
G0 F18000 X-1.184 Y-42.876 Z0.3
; TYPE:SKIRT
G1 Z0.3
G1 F6600 E0
G1 F720 X9.757 Y-39.712 E0.56815
G1 X19.506 Y-33.823 E1.13636
G1 X27.372 Y-25.641 E1.70257
G1 X32.88 Y-15.673 E2.2707
G1 X35.63 Y-4.582 E2.84074
G1 X35.405 Y6.806 E3.40895
G1 X32.25 Y17.718 E3.97565
G1 X26.374 Y27.463 E4.54338
G1 X18.144 Y35.39 E5.11346
G1 X8.167 Y40.89 E5.68184
G1 X-2.881 Y43.62 E6.2496
G1 X-3.419 Y43.611 E6.2765
G1 X-14.281 Y43.396 E6.81856
G1 X-25.217 Y40.233 E7.38657
G1 X-34.958 Y34.35 E7.95434
G1 X-42.848 Y26.148 E8.52217
G1 X-48.341 Y16.194 E9.0894
G1 X-51.082 Y5.141 E9.65755
G1 X-50.868 Y-6.244 E10.22565
G1 X-47.703 Y-17.225 E10.79583
G1 X-41.809 Y-26.982 E11.36455
G1 X-33.603 Y-34.87 E11.93242
G1 X-23.629 Y-40.369 E12.50062
G1 X-12.589 Y-43.095 E13.06792
G1 X-1.184 Y-42.876 E13.63697
G0 F18000 X-1.244 Y-42.477
G1 F720 X9.595 Y-39.342 E14.19983
G1 X19.254 Y-33.507 E14.7628
G1 X27.048 Y-25.401 E15.32379
G1 X32.505 Y-15.526 E15.88663
G1 X35.229 Y-4.537 E16.45142
G1 X35.006 Y6.745 E17.01434
G1 X31.88 Y17.556 E17.5758
G1 X26.059 Y27.212 E18.1383
G1 X17.904 Y35.065 E18.70313
G1 X8.02 Y40.515 E19.26624
G1 X-2.926 Y43.219 E19.82875
G1 X-3.412 Y43.212 E19.85305
G1 X-14.221 Y42.997 E20.39247
G1 X-25.056 Y39.863 E20.95524
G1 X-34.706 Y34.035 E21.51771
G1 X-42.523 Y25.909 E22.08028
G1 X-47.966 Y16.047 E22.64228
G1 X-50.681 Y5.096 E23.20518
G1 X-50.47 Y-6.183 E23.76799
G1 X-47.334 Y-17.064 E24.33298
G1 X-41.494 Y-26.73 E24.89642
G1 X-33.364 Y-34.545 E25.45903
G1 X-23.482 Y-39.994 E26.02201
G1 X-12.544 Y-42.694 E26.58405
G1 X-1.244 Y-42.477 E27.14786
G0 F18000 X-1.758 Y-39.087
; TYPE:WALL-OUTER
G1 F720 X8.222 Y-36.2 E27.66612
G1 X17.112 Y-30.83 E28.18425
G1 X24.288 Y-23.366 E28.70078
G1 X29.313 Y-14.272 E29.2191
G1 X31.82 Y-4.155 E29.73905
G1 X31.616 Y6.231 E30.25726
G1 X28.738 Y16.185 E30.77421
G1 X23.38 Y25.072 E31.29193
G1 X15.869 Y32.305 E31.81216
G1 X6.77 Y37.322 E32.33054
G1 X-3.313 Y39.813 E32.84871
G1 X-13.706 Y39.607 E33.36737
G1 X-23.683 Y36.721 E33.88558
G1 X-32.565 Y31.357 E34.40328
G1 X-39.763 Y23.874 E34.92133
G1 X-44.774 Y14.795 E35.43872
G1 X-47.274 Y4.713 E35.95696
G1 X-47.078 Y-5.673 E36.47521
G1 X-44.191 Y-15.691 E36.99538
G1 X-38.817 Y-24.588 E37.51396
G1 X-31.33 Y-31.784 E38.03204
G1 X-22.232 Y-36.801 E38.55036
G1 X-12.163 Y-39.287 E39.06775
G1 X-1.758 Y-39.087 E39.58691
G1 F6600 E32.78691
G1 Z0.6
G0 F18000 X-1.798 Y-38.789
G0 X-5.829 Y-6.732
G0 X-5.879 Y-6.335
G0 X-5.844 Y-6.622
G0 X-5.844 Y-6.622
G0 X-5.959 Y-6.346
G1 Z0.3
G1 F6600 E39.68691
G1 F720 X-7.73 Y-6.579 E39.77608
G1 X-9.5 Y-6.346 E39.86519
G1 X-11.15 Y-5.663 E39.95431
G1 X-12.567 Y-4.576 E40.04342
G1 X-13.654 Y-3.159 E40.13251
G1 X-14.338 Y-1.509 E40.22159
G1 X-14.571 Y0.26 E40.31057
G1 X-14.338 Y2.03 E40.39963
G1 X-13.654 Y3.68 E40.48872
G1 X-12.567 Y5.097 E40.57779
G1 X-11.15 Y6.184 E40.66685
G1 X-9.5 Y6.867 E40.7559
G1 X-7.73 Y7.101 E40.84492
G1 X-5.959 Y6.867 E40.934
G1 X-4.309 Y6.184 E41.02304
G1 X-2.892 Y5.097 E41.1121
G1 X-1.805 Y3.68 E41.20117
G1 X-1.122 Y2.03 E41.29024
G1 X-0.889 Y0.26 E41.37931
G1 X-1.122 Y-1.509 E41.46833
G1 X-1.805 Y-3.159 E41.55749
G1 X-2.892 Y-4.576 E41.64666
G1 X-4.309 Y-5.663 E41.73583
G1 X-5.959 Y-6.346 E41.82498
G0 F18000 X-5.854 Y-6.736
; TYPE:WALL-INNER
G1 F720 X-7.73 Y-6.982 E41.91944
G1 X-9.605 Y-6.736 E42.01382
G1 X-11.352 Y-6.012 E42.1082
G1 X-12.852 Y-4.861 E42.20253
G1 X-14.003 Y-3.361 E42.29685
G1 X-14.728 Y-1.614 E42.39119
G1 X-14.974 Y0.26 E42.48545
G1 X-14.728 Y2.135 E42.57978
G1 X-14.003 Y3.882 E42.67413
G1 X-12.852 Y5.382 E42.76843
G1 X-11.352 Y6.533 E42.86272
G1 X-9.605 Y7.256 E42.957
G1 X-7.73 Y7.504 E43.05131
G1 X-5.854 Y7.257 E43.14566
G1 X-4.107 Y6.533 E43.23996
G1 X-2.607 Y5.382 E43.33425
G1 X-1.456 Y3.882 E43.42855
G1 X-0.732 Y2.135 E43.52287
G1 X-0.486 Y0.26 E43.61721
G1 X-0.732 Y-1.614 E43.71152
G1 X-1.456 Y-3.361 E43.80593
G1 X-2.607 Y-4.861 E43.90033
G1 X-4.107 Y-6.012 E43.99472
G1 X-5.854 Y-6.736 E44.08914
G0 F18000 X-1.817 Y-38.687
G0 X-1.817 Y-38.687
G1 F720 X8.057 Y-35.831 E44.60188
G1 X16.86 Y-30.513 E45.11496
G1 X23.964 Y-23.125 E45.62627
G1 X28.937 Y-14.125 E46.13922
G1 X31.419 Y-4.112 E46.65384
G1 X31.217 Y6.172 E47.16696
G1 X28.369 Y16.02 E47.67841
G1 X23.062 Y24.823 E48.19123
G1 X15.63 Y31.98 E48.70599
G1 X6.623 Y36.946 E49.21913
G1 X-3.357 Y39.412 E49.732
G1 X-13.647 Y39.208 E50.24553
G1 X-23.518 Y36.352 E50.75824
G1 X-32.316 Y31.039 E51.27104
G1 X-39.438 Y23.635 E51.78362
G1 X-44.398 Y14.647 E52.2958
G1 X-46.873 Y4.669 E52.8087
G1 X-46.68 Y-5.611 E53.32166
G1 X-43.821 Y-15.529 E53.83666
G1 X-38.5 Y-24.336 E54.35003
G1 X-31.089 Y-31.46 E54.86289
G1 X-22.088 Y-36.423 E55.37567
G1 X-12.116 Y-38.885 E55.88807
G1 X-1.817 Y-38.687 E56.40194
G0 F18000 X-1.326 Y-38.4
; TYPE:FILL
G1 F720 X-13.497 Y-38.4 E57.0092
G0 F18000 X-15.116 Y-38
G1 F720 X0.056 Y-38 E57.76609
G0 F18000 X1.438 Y-37.6
G1 F720 X-16.737 Y-37.6 E58.67284
G0 F18000 X-18.357 Y-37.2
G0 X-18.357 Y-37.2
G1 F720 X2.821 Y-37.2 E59.72936
G0 F18000 X4.203 Y-36.8
G1 F720 X-19.978 Y-36.8 E60.93576
G0 F18000 X-21.598 Y-36.4
G1 F720 X5.585 Y-36.4 E62.29188
G0 F18000 X6.968 Y-36
G1 F720 X-22.565 Y-36 E63.76528
G0 F18000 X-23.29 Y-35.6
G1 F720 X8.168 Y-35.6 E65.33468
G0 F18000 X8.83 Y-35.2
G1 F720 X-24.016 Y-35.2 E66.97337
G0 F18000 X-24.741 Y-34.8
G1 F720 X9.493 Y-34.8 E68.68126
G0 F18000 X10.155 Y-34.4
G1 F720 X-25.467 Y-34.4 E70.45845
G0 F18000 X-26.192 Y-34
G1 F720 X10.817 Y-34 E72.30479
G0 F18000 X11.479 Y-33.6
G1 F720 X-26.918 Y-33.6 E74.22042
G0 F18000 X-27.643 Y-33.2
G1 F720 X12.141 Y-33.2 E76.2052
G0 F18000 X12.804 Y-32.8
G1 F720 X-28.369 Y-32.8 E78.25933
G0 F18000 X-29.094 Y-32.4
G1 F720 X13.466 Y-32.4 E80.38261
G0 F18000 X14.128 Y-32
G1 F720 X-29.82 Y-31.999 E82.57519
G0 F18000 X-30.545 Y-31.599
G1 F720 X14.79 Y-31.6 E84.83691
G0 F18000 X15.452 Y-31.2
G1 F720 X-31.157 Y-31.199 E87.16224
G0 F18000 X-31.573 Y-30.799
G1 F720 X16.114 Y-30.8 E89.5413
G0 F18000 X16.774 Y-30.4
G1 F720 X-31.989 Y-30.399 E91.9741
G0 F18000 X-32.405 Y-29.999
G1 F720 X17.158 Y-30 E94.44676
G0 F18000 X17.544 Y-29.6
G1 F720 X-32.822 Y-29.599 E96.95953
G0 F18000 X-33.238 Y-29.199
G1 F720 X17.929 Y-29.2 E99.51221
G0 F18000 X18.313 Y-28.8
G1 F720 X-33.654 Y-28.799 E102.10486
G0 F18000 X-34.07 Y-28.399
G1 F720 X18.698 Y-28.4 E104.73741
G0 F18000 X19.083 Y-28
G1 F720 X-34.486 Y-27.999 E107.40998
G0 F18000 X-34.902 Y-27.599
G1 F720 X19.467 Y-27.6 E110.12241
G0 F18000 X19.852 Y-27.2
G1 F720 X-35.319 Y-27.199 E112.8749
G0 F18000 X-35.735 Y-26.799
G1 F720 X20.236 Y-26.8 E115.66726
G0 F18000 X20.621 Y-26.4
G1 F720 X-36.151 Y-26.399 E118.49962
G0 F18000 X-36.567 Y-25.999
G1 F720 X21.006 Y-26 E121.3719
G0 F18000 X21.39 Y-25.6
G1 F720 X-36.983 Y-25.599 E124.28414
G0 F18000 X-37.399 Y-25.199
G1 F720 X21.775 Y-25.2 E127.2363
G0 F18000 X22.16 Y-24.8
G1 F720 X-37.816 Y-24.799 E130.22851
G0 F18000 X-38.232 Y-24.399
G1 F720 X22.544 Y-24.4 E133.26059
G0 F18000 X22.929 Y-24
G1 F720 X-38.54 Y-23.999 E136.32729
G0 F18000 X-38.782 Y-23.599
G1 F720 X23.313 Y-23.6 E139.42517
G0 F18000 X23.698 Y-23.2
G1 F720 X-39.023 Y-23.199 E142.55433
G0 F18000 X-39.265 Y-22.799
G1 F720 X23.984 Y-22.8 E145.70979
G0 F18000 X24.205 Y-22.4
G1 F720 X-39.507 Y-22.399 E148.8884
G0 F18000 X-39.748 Y-21.999
G1 F720 X24.426 Y-22 E152.09
G0 F18000 X24.647 Y-21.6
G1 F720 X-39.99 Y-21.599 E155.31475
G0 F18000 X-40.232 Y-21.199
G1 F720 X24.868 Y-21.2 E158.56255
G0 F18000 X25.089 Y-20.8
G1 F720 X-40.473 Y-20.799 E161.83346
G0 F18000 X-40.715 Y-20.399
G1 F720 X25.31 Y-20.4 E165.12741
G0 F18000 X25.531 Y-20
G1 F720 X-40.956 Y-19.999 E168.44446
G0 F18000 X-41.198 Y-19.599
G1 F720 X25.752 Y-19.6 E171.78456
G0 F18000 X25.973 Y-19.2
G1 F720 X-41.44 Y-19.199 E175.1478
G0 F18000 X-41.681 Y-18.799
G1 F720 X26.194 Y-18.8 E178.53405
G0 F18000 X26.415 Y-18.4
G1 F720 X-41.923 Y-18.399 E181.94345
G0 F18000 X-42.165 Y-17.999
G1 F720 X26.636 Y-18 E185.37589
G0 F18000 X26.857 Y-17.6
G1 F720 X-42.406 Y-17.599 E188.83144
G0 F18000 X-42.648 Y-17.199
G1 F720 X27.078 Y-17.2 E192.31003
G0 F18000 X27.299 Y-16.8
G1 F720 X-42.889 Y-16.799 E195.81173
G0 F18000 X-43.131 Y-16.399
G1 F720 X27.519 Y-16.4 E199.33642
G0 F18000 X27.74 Y-16
G1 F720 X-43.373 Y-15.999 E202.88426
G0 F18000 X-43.614 Y-15.599
G1 F720 X27.961 Y-15.6 E206.4551
G0 F18000 X28.182 Y-15.2
G1 F720 X-43.77 Y-15.199 E210.0448
G0 F18000 X-43.885 Y-14.799
G1 F720 X28.403 Y-14.8 E213.65122
G0 F18000 X28.624 Y-14.4
G1 F720 X-44 Y-14.399 E217.27444
G0 F18000 X-44.116 Y-13.999
G1 F720 X28.824 Y-14 E220.91338
G0 F18000 X28.923 Y-13.6
G1 F720 X-44.231 Y-13.599 E224.56305
G0 F18000 X-44.346 Y-13.199
G1 F720 X29.022 Y-13.2 E228.22335
G0 F18000 X29.121 Y-12.8
G1 F720 X-44.462 Y-12.799 E231.89442
G0 F18000 X-44.577 Y-12.399
G1 F720 X29.22 Y-12.4 E235.57611
G0 F18000 X29.319 Y-12
G1 F720 X-44.692 Y-11.999 E239.26854
G0 F18000 X-44.808 Y-11.599
G1 F720 X29.418 Y-11.6 E242.97164
G0 F18000 X29.517 Y-11.2
G1 F720 X-44.923 Y-11.199 E246.68547
G0 F18000 X-45.038 Y-10.799
G1 F720 X29.617 Y-10.8 E250.40997
G0 F18000 X29.716 Y-10.4
G1 F720 X-45.154 Y-10.399 E254.14525
G0 F18000 X-45.269 Y-9.999
G1 F720 X29.815 Y-10 E257.89115
G0 F18000 X29.914 Y-9.6
G1 F720 X-45.384 Y-9.599 E261.64779
G0 F18000 X-45.5 Y-9.199
G1 F720 X30.013 Y-9.2 E265.4151
G0 F18000 X30.112 Y-8.8
G1 F720 X-45.615 Y-8.799 E269.19313
G0 F18000 X-45.73 Y-8.399
G1 F720 X30.211 Y-8.4 E272.98179
G0 F18000 X30.311 Y-8
G1 F720 X-45.845 Y-7.999 E276.78123
G0 F18000 X-45.961 Y-7.599
G1 F720 X30.41 Y-7.6 E280.59135
G0 F18000 X30.509 Y-7.2
G1 F720 X-46.076 Y-7.199 E284.41219
G0 F18000 X-46.191 Y-6.799
G1 F720 X-9.817 Y-6.799 E286.22684
G0 F18000 X-10.782 Y-6.399
G1 F720 X-46.307 Y-6.399 E287.99924
G0 F18000 X-46.422 Y-5.999
G1 F720 X-11.596 Y-5.999 E289.73667
G0 F18000 X-12.118 Y-5.599
G1 F720 X-46.537 Y-5.599 E291.45389
G0 F18000 X-46.547 Y-5.199
G1 F720 X-12.64 Y-5.199 E293.14547
G0 F18000 X-13.075 Y-4.799
G1 F720 X-46.555 Y-4.799 E294.81584
G0 F18000 X-46.562 Y-4.399
G1 F720 X-13.382 Y-4.399 E296.47115
G0 F18000 X-13.689 Y-3.999
G1 F720 X-46.57 Y-3.999 E298.11164
G0 F18000 X-46.578 Y-3.599
G1 F720 X-13.995 Y-3.599 E299.73716
G0 F18000 X-14.222 Y-3.199
G1 F720 X-46.585 Y-3.199 E301.35181
G0 F18000 X-46.593 Y-2.799
G1 F720 X-14.388 Y-2.799 E302.95847
G0 F18000 X-14.554 Y-2.399
G1 F720 X-46.6 Y-2.399 E304.5573
G0 F18000 X-46.608 Y-1.999
G1 F720 X-14.72 Y-1.999 E306.14815
G0 F18000 X-14.872 Y-1.599
G1 F720 X-46.615 Y-1.599 E307.73187
G0 F18000 X-46.623 Y-1.199
G1 F720 X-14.924 Y-1.199 E309.31328
G0 F18000 X-14.977 Y-0.799
G1 F720 X-46.63 Y-0.799 E310.89251
G0 F18000 X-46.638 Y-0.399
G1 F720 X-15.029 Y-0.399 E312.46944
G0 F18000 X-15.082 Y0
G1 F720 X-46.645 Y0 E314.04417
G0 F18000 X-46.653 Y0.4
G1 F720 X-15.097 Y0.4 E315.61846
G0 F18000 X-15.045 Y0.8
G1 F720 X-46.66 Y0.8 E317.19579
G0 F18000 X-46.668 Y1.2
G1 F720 X-14.992 Y1.2 E318.77606
G0 F18000 X-14.94 Y1.6
G1 F720 X-46.675 Y1.6 E320.35937
G0 F18000 X-46.683 Y2
G1 F720 X-14.887 Y2 E321.94563
G0 F18000 X-14.77 Y2.4
G1 F720 X-46.691 Y2.4 E323.53823
G0 F18000 X-46.698 Y2.8
G1 F720 X-14.604 Y2.8 E325.13936
G0 F18000 X-14.437 Y3.2
G1 F720 X-46.706 Y3.2 E326.74931
G0 F18000 X-46.713 Y3.6
G1 F720 X-14.271 Y3.6 E328.3678
G0 F18000 X-14.087 Y4
G1 F720 X-46.721 Y4 E329.99597
G0 F18000 X-46.728 Y4.4
G1 F720 X-13.781 Y4.4 E331.63965
G0 F18000 X-13.474 Y4.8
G1 F720 X-46.697 Y4.8 E333.2972
G0 F18000 X-46.597 Y5.2
G1 F720 X-13.167 Y5.2 E334.96498
G0 F18000 X-12.797 Y5.6
G1 F720 X-46.498 Y5.6 E336.64638
G0 F18000 X-46.399 Y6
G1 F720 X-12.275 Y6 E338.34878
G0 F18000 X-11.753 Y6.4
G1 F720 X-46.3 Y6.4 E340.07239
G0 F18000 X-46.2 Y6.8
G1 F720 X-11.071 Y6.8 E341.82493
G0 F18000 X-10.105 Y7.2
G1 F720 X-46.101 Y7.2 E343.62083
G0 F18000 X-46.002 Y7.6
G1 F720 X-8.069 Y7.6 E345.51327
G0 F18000 X-7.386 Y7.6
G1 F720 X30.659 Y7.599 E347.41129
G0 F18000 X30.543 Y7.999
G1 F720 X-45.903 Y8 E351.2252
G0 F18000 X-45.804 Y8.4
G1 F720 X30.427 Y8.399 E355.02833
G0 F18000 X30.312 Y8.799
G1 F720 X-45.704 Y8.8 E358.82078
G0 F18000 X-45.605 Y9.2
G1 F720 X30.196 Y9.199 E362.60246
G0 F18000 X30.08 Y9.599
G1 F720 X-45.506 Y9.6 E366.37346
G0 F18000 X-45.407 Y10
G1 F720 X29.965 Y9.999 E370.13373
G0 F18000 X29.849 Y10.399
G1 F720 X-45.307 Y10.4 E373.88328
G0 F18000 X-45.208 Y10.8
G1 F720 X29.733 Y10.799 E377.62205
G0 F18000 X29.617 Y11.199
G1 F720 X-45.109 Y11.2 E381.35015
G0 F18000 X-45.01 Y11.6
G1 F720 X29.502 Y11.599 E385.06752
G0 F18000 X29.386 Y11.999
G1 F720 X-44.91 Y12 E388.77416
G0 F18000 X-44.811 Y12.4
G1 F720 X29.27 Y12.399 E392.47003
G0 F18000 X29.155 Y12.799
G1 F720 X-44.712 Y12.8 E396.15526
G0 F18000 X-44.613 Y13.2
G1 F720 X29.039 Y13.199 E399.82973
G0 F18000 X28.923 Y13.599
G1 F720 X-44.514 Y13.6 E403.49351
G0 F18000 X-44.414 Y14
G1 F720 X28.807 Y13.999 E407.14648
G0 F18000 X28.692 Y14.399
G1 F720 X-44.315 Y14.4 E410.78881
G0 F18000 X-44.153 Y14.8
G1 F720 X28.576 Y14.799 E414.41722
G0 F18000 X28.46 Y15.199
G1 F720 X-43.933 Y15.2 E418.02893
G0 F18000 X-43.712 Y15.6
G1 F720 X28.345 Y15.599 E421.62381
G0 F18000 X28.218 Y15.999
G1 F720 X-43.491 Y16 E425.20139
G0 F18000 X-43.27 Y16.4
G1 F720 X27.977 Y16.4 E428.75587
G0 F18000 X27.736 Y16.8
G1 F720 X-43.05 Y16.8 E432.2874
G0 F18000 X-42.829 Y17.2
G1 F720 X27.495 Y17.2 E435.79582
G0 F18000 X27.253 Y17.6
G1 F720 X-42.608 Y17.6 E439.2812
G0 F18000 X-42.388 Y18
G1 F720 X27.012 Y18 E442.74353
G0 F18000 X26.771 Y18.4
G1 F720 X-42.167 Y18.4 E446.18286
G0 F18000 X-41.946 Y18.8
G1 F720 X26.53 Y18.8 E449.5991
G0 F18000 X26.289 Y19.2
G1 F720 X-41.725 Y19.2 E452.99233
G0 F18000 X-41.505 Y19.6
G1 F720 X26.048 Y19.6 E456.36251
G0 F18000 X25.807 Y20
G1 F720 X-41.284 Y20 E459.7097
G0 F18000 X-41.063 Y20.4
G1 F720 X25.566 Y20.4 E463.03378
G0 F18000 X25.324 Y20.8
G1 F720 X-40.842 Y20.8 E466.33481
G0 F18000 X-40.622 Y21.2
G1 F720 X25.083 Y21.2 E469.6128
G0 F18000 X24.842 Y21.6
G1 F720 X-40.401 Y21.6 E472.86779
G0 F18000 X-40.18 Y22
G1 F720 X24.601 Y22 E476.09967
G0 F18000 X24.36 Y22.4
G1 F720 X-39.96 Y22.4 E479.30861
G0 F18000 X-39.739 Y22.8
G1 F720 X24.119 Y22.8 E482.49445
G0 F18000 X23.878 Y23.2
G1 F720 X-39.518 Y23.2 E485.65729
G0 F18000 X-39.277 Y23.6
G1 F720 X23.637 Y23.6 E488.79603
G0 F18000 X23.395 Y24
G1 F720 X-38.892 Y24 E491.90354
G0 F18000 X-38.507 Y24.4
G1 F720 X23.154 Y24.4 E494.97977
G0 F18000 X22.884 Y24.8
G1 F720 X-38.123 Y24.8 E498.02343
G0 F18000 X-37.738 Y25.2
G1 F720 X22.469 Y25.2 E501.02711
G0 F18000 X22.054 Y25.6
G1 F720 X-37.353 Y25.6 E503.99094
G0 F18000 X-36.968 Y26
G1 F720 X21.638 Y26 E506.91476
G0 F18000 X21.223 Y26.4
G1 F720 X-36.584 Y26.4 E509.79876
G0 F18000 X-36.199 Y26.8
G1 F720 X20.807 Y26.8 E512.64275
G0 F18000 X20.392 Y27.2
G1 F720 X-35.814 Y27.2 E515.44688
G0 F18000 X-35.429 Y27.6
G1 F720 X19.977 Y27.6 E518.21105
G0 F18000 X19.561 Y28
G1 F720 X-35.044 Y28 E520.9353
G0 F18000 X-34.66 Y28.4
G1 F720 X19.146 Y28.4 E523.61964
G0 F18000 X18.73 Y28.8
G1 F720 X-34.275 Y28.8 E526.26407
G0 F18000 X-33.89 Y29.2
G1 F720 X18.315 Y29.2 E528.86854
G0 F18000 X17.899 Y29.6
G1 F720 X-33.505 Y29.6 E531.4331
G0 F18000 X-33.121 Y30
G1 F720 X17.484 Y30 E533.95774
G0 F18000 X17.069 Y30.4
G1 F720 X-32.735 Y30.4 E536.44247
G0 F18000 X-32.35 Y30.8
G1 F720 X16.653 Y30.8 E538.88719
G0 F18000 X16.238 Y31.2
G1 F720 X-31.777 Y31.2 E541.28267
G0 F18000 X-31.115 Y31.6
G1 F720 X15.822 Y31.6 E543.62432
G0 F18000 X15.304 Y32
G1 F720 X-30.453 Y32 E545.90714
G0 F18000 X-29.79 Y32.4
G1 F720 X14.578 Y32.4 E548.12062
G0 F18000 X13.853 Y32.8
G1 F720 X-29.128 Y32.8 E550.26495
G0 F18000 X-28.466 Y33.2
G1 F720 X13.127 Y33.2 E552.33999
G0 F18000 X12.402 Y33.6
G1 F720 X-27.803 Y33.6 E554.34582
G0 F18000 X-27.141 Y34
G1 F720 X11.676 Y34 E556.28236
G0 F18000 X10.95 Y34.4
G1 F720 X-26.479 Y34.4 E558.1497
G0 F18000 X-25.817 Y34.8
G1 F720 X10.225 Y34.8 E559.94779
G0 F18000 X9.499 Y35.2
G1 F720 X-25.154 Y35.2 E561.67664
G0 F18000 X-24.492 Y35.6
G1 F720 X8.774 Y35.6 E563.33624
G0 F18000 X8.048 Y36
G1 F720 X-23.83 Y36 E564.92664
G0 F18000 X-22.847 Y36.4
G1 F720 X7.323 Y36.4 E566.43177
G0 F18000 X6.597 Y36.8
G1 F720 X-21.465 Y36.8 E567.83179
G0 F18000 X-20.083 Y37.2
G1 F720 X5.012 Y37.2 E569.08374
G0 F18000 X3.392 Y37.6
G1 F720 X-18.701 Y37.6 E570.18596
G0 F18000 X-17.319 Y38
G1 F720 X1.773 Y38 E571.13842
G0 F18000 X0.154 Y38.4
G1 F720 X-15.937 Y38.4 E571.9412
G0 F18000 X-14.554 Y38.8
G1 F720 X-1.464 Y38.8 E572.59421
G0 F18000 X-3.084 Y39.2
G1 F720 X-6.975 Y39.2 E572.78838
G0 F18000 X-5.35 Y7.2
G0 X-5.35 Y7.2
G1 F720 X30.775 Y7.199 E574.59062
G0 F18000 X30.89 Y6.799
G1 F720 X-4.385 Y6.8 E576.35049
G0 F18000 X-3.704 Y6.4
G1 F720 X31.006 Y6.399 E578.08213
G0 F18000 X31.081 Y5.999
G1 F720 X-3.182 Y6 E579.79152
G0 F18000 X-2.66 Y5.6
G1 F720 X31.089 Y5.599 E581.47522
G0 F18000 X31.097 Y5.199
G1 F720 X-2.29 Y5.2 E583.1409
G0 F18000 X-1.983 Y4.8
G1 F720 X31.104 Y4.799 E584.79157
G0 F18000 X31.112 Y4.399
G1 F720 X-1.677 Y4.4 E586.42742
G0 F18000 X-1.37 Y4
G1 F720 X31.12 Y3.999 E588.0483
G0 F18000 X31.128 Y3.599
G1 F720 X-1.186 Y3.6 E589.66045
G0 F18000 X-1.021 Y3.2
G1 F720 X31.136 Y3.199 E591.26472
G0 F18000 X31.143 Y2.799
G1 F720 X-0.855 Y2.8 E592.86111
G0 F18000 X-0.689 Y2.4
G1 F720 X31.151 Y2.399 E594.44956
G0 F18000 X31.159 Y1.999
G1 F720 X-0.572 Y2 E596.03263
G0 F18000 X-0.519 Y1.6
G1 F720 X31.167 Y1.599 E597.6134
G0 F18000 X31.175 Y1.199
G1 F720 X-0.466 Y1.2 E599.19198
G0 F18000 X-0.414 Y0.8
G1 F720 X31.182 Y0.799 E600.76826
G0 F18000 X31.19 Y0.399
G1 F720 X-0.362 Y0.4 E602.34239
G0 F18000 X-0.378 Y0
G1 F720 X31.198 Y0 E603.91768
G0 F18000 X31.206 Y-0.4
G1 F720 X-0.43 Y-0.4 E605.496
G0 F18000 X-0.483 Y-0.8
G1 F720 X31.214 Y-0.8 E607.07732
G0 F18000 X31.221 Y-1.2
G1 F720 X-0.535 Y-1.2 E608.66163
G0 F18000 X-0.587 Y-1.6
G1 F720 X31.229 Y-1.6 E610.24889
G0 F18000 X31.237 Y-2
G1 F720 X-0.739 Y-2 E611.84418
G0 F18000 X-0.905 Y-2.4
G1 F720 X31.245 Y-2.4 E613.4481
G0 F18000 X31.253 Y-2.8
G1 F720 X-1.071 Y-2.8 E615.06075
G0 F18000 X-1.236 Y-3.2
G1 F720 X31.261 Y-3.2 E616.68198
G0 F18000 X31.268 Y-3.6
G1 F720 X-1.463 Y-3.6 E618.31494
G0 F18000 X-1.769 Y-4
G1 F720 X31.276 Y-4 E619.96351
G0 F18000 X31.203 Y-4.4
G1 F720 X-2.076 Y-4.4 E621.62381
G0 F18000 X-2.383 Y-4.8
G1 F720 X31.104 Y-4.8 E623.29443
G0 F18000 X31.004 Y-5.2
G1 F720 X-2.818 Y-5.2 E624.98182
G0 F18000 X-3.34 Y-5.6
G1 F720 X30.905 Y-5.6 E626.69026
G0 F18000 X30.806 Y-6
G1 F720 X-3.862 Y-6 E628.41985
G0 F18000 X-4.676 Y-6.4
G1 F720 X30.707 Y-6.4 E630.18507
G0 F18000 X30.608 Y-6.8
G1 F720 X-5.642 Y-6.8 E631.99359
; LAYER:1
G0 F18000 X-5.815 Y-6.882 Z0.6
; TYPE:WALL-INNER
G1 F2400 X-7.73 Y-7.133 E632.1141
G1 X-9.644 Y-6.882 E632.23454
G1 X-11.427 Y-6.143 E632.35494
G1 X-12.959 Y-4.968 E632.47536
G1 X-14.134 Y-3.436 E632.59575
G1 X-14.874 Y-1.653 E632.7161
G1 X-15.125 Y0.26 E632.83637
G1 X-14.874 Y2.174 E632.95675
G1 X-14.134 Y3.957 E633.07711
G1 X-12.959 Y5.489 E633.19748
G1 X-11.427 Y6.664 E633.31784
G1 X-9.643 Y7.403 E633.4382
G1 X-7.73 Y7.656 E633.55848
G1 X-5.815 Y7.403 E633.67888
G1 X-4.032 Y6.664 E633.79919
G1 X-2.5 Y5.489 E633.91954
G1 X-1.325 Y3.957 E634.03991
G1 X-0.586 Y2.174 E634.16025
G1 X-0.335 Y0.26 E634.28062
G1 X-0.586 Y-1.653 E634.40096
G1 X-1.325 Y-3.436 E634.5214
G1 X-2.5 Y-4.968 E634.64189
G1 X-4.032 Y-6.143 E634.76239
G1 X-5.815 Y-6.882 E634.88283
G0 F18000 X-1.839 Y-38.538
G0 X-1.839 Y-38.538
G1 F2400 X7.995 Y-35.693 E635.52118
G1 X16.766 Y-30.395 E636.16017
G1 X23.867 Y-23.009 E636.79909
G1 X28.814 Y-14.036 E637.43802
G1 X31.269 Y-4.094 E638.07659
G1 X31.067 Y6.15 E638.7155
G1 X28.232 Y15.958 E639.35219
G1 X22.927 Y24.757 E639.99294
G1 X15.539 Y31.858 E640.63199
G1 X6.568 Y36.805 E641.27087
G1 X-3.374 Y39.261 E641.90952
G1 X-13.62 Y39.059 E642.54867
G1 X-23.456 Y36.214 E643.18728
G1 X-32.203 Y30.932 E643.82456
G1 X-39.317 Y23.544 E644.46421
G1 X-44.275 Y14.559 E645.10422
G1 X-46.731 Y4.615 E645.743
G1 X-46.529 Y-5.629 E646.38197
G1 X-43.684 Y-15.465 E647.02056
G1 X-38.387 Y-24.237 E647.65963
G1 X-31 Y-31.337 E648.29858
G1 X-22.029 Y-36.284 E648.93744
G1 X-12.105 Y-38.734 E649.57486
G1 X-1.839 Y-38.538 E650.21513
G0 F18000 X-1.765 Y-39.037
; TYPE:WALL-OUTER
G1 F2100 X8.199 Y-36.154 E650.86193
G1 X17.082 Y-30.789 E651.50906
G1 X24.272 Y-23.311 E652.15596
G1 X29.283 Y-14.22 E652.80326
G1 X31.77 Y-4.148 E653.45018
G1 X31.566 Y6.224 E654.09707
G1 X28.693 Y16.16 E654.74209
G1 X23.319 Y25.074 E655.3912
G1 X15.841 Y32.263 E656.0381
G1 X6.752 Y37.274 E656.68535
G1 X-3.32 Y39.762 E657.33235
G1 X-13.694 Y39.558 E657.97949
G1 X-23.66 Y36.675 E658.62654
G1 X-32.517 Y31.327 E659.27182
G1 X-39.723 Y23.843 E659.91977
G1 X-44.744 Y14.744 E660.5679
G1 X-47.232 Y4.669 E661.21509
G1 X-47.028 Y-5.703 E661.86204
G1 X-44.145 Y-15.669 E662.50908
G1 X-38.781 Y-24.553 E663.15628
G1 X-31.302 Y-31.742 E663.80322
G1 X-22.213 Y-36.753 E664.45045
G1 X-12.159 Y-39.235 E665.09622
G1 X-1.765 Y-39.037 E665.74448
G1 F6600 E658.94448
G1 Z0.9
G0 F18000 X-1.813 Y-38.689
G0 X-5.798 Y-6.828
G0 X-5.847 Y-6.431
G0 X-5.813 Y-6.717
G0 X-5.813 Y-6.717
G0 X-5.946 Y-6.395
G1 Z0.6
G1 F6600 E665.84448
G1 F2100 X-7.73 Y-6.629 E665.95675
G1 X-9.513 Y-6.395 E666.06895
G1 X-11.175 Y-5.706 E666.18119
G1 X-12.602 Y-4.611 E666.29337
G1 X-13.697 Y-3.184 E666.40553
G1 X-14.387 Y-1.522 E666.51772
G1 X-14.621 Y0.26 E666.62975
G1 X-14.387 Y2.043 E666.74189
G1 X-13.697 Y3.705 E666.85409
G1 X-12.602 Y5.132 E666.96623
G1 X-11.175 Y6.227 E667.07835
G1 X-9.513 Y6.916 E667.19049
G1 X-7.73 Y7.151 E667.30259
G1 X-5.946 Y6.916 E667.41474
G1 X-4.284 Y6.227 E667.52688
G1 X-2.857 Y5.132 E667.63901
G1 X-1.762 Y3.705 E667.75114
G1 X-1.073 Y2.043 E667.86332
G1 X-0.839 Y0.26 E667.97546
G1 X-1.073 Y-1.522 E668.08755
G1 X-1.762 Y-3.184 E668.19983
G1 X-2.857 Y-4.611 E668.31209
G1 X-4.284 Y-5.706 E668.42435
G1 X-5.946 Y-6.395 E668.53663
G0 F18000 X-6 Y-7.098
; TYPE:FILL
G1 F2400 X-6 Y-38.428 E670.49052
G0 F18000 X-6.5 Y-38.437
G1 F2400 X-6.5 Y-7.163 E672.44079
G0 F18000 X-7 Y-7.229
G1 F2400 X-7 Y-38.446 E674.38763
G0 F18000 X-7.5 Y-38.456
G1 F2400 X-7.5 Y-7.294 E676.33092
G0 F18000 X-8 Y-7.289
G1 F2400 X-8 Y-38.465 E678.2752
G0 F18000 X-8.5 Y-38.475
G1 F2400 X-8.5 Y-7.223 E680.2241
G0 F18000 X-9 Y-7.158
G1 F2400 X-9 Y-38.484 E682.17774
G0 F18000 X-9.5 Y-38.494
G1 F2400 X-9.5 Y-7.092 E684.13599
G0 F18000 X-10 Y-6.94
G1 F2400 X-10 Y-38.503 E686.10441
G0 F18000 X-10.5 Y-38.513
G1 F2400 X-10.5 Y-6.732 E688.08629
G0 F18000 X-11 Y-6.524
G1 F2400 X-11 Y-38.522 E690.08184
G0 F18000 X-11.5 Y-38.532
G1 F2400 X-11.5 Y-6.317 E692.09079
G0 F18000 X-12 Y-5.94
G1 F2400 X-12 Y-38.541 E694.12394
G0 F18000 X-12.5 Y-38.44
G1 F2400 X-12.5 Y-5.557 E696.17456
G0 F18000 X-13 Y-5.174
G1 F2400 X-13 Y-38.316 E698.24145
G0 F18000 X-13.5 Y-38.193
G1 F2400 X-13.5 Y-4.572 E700.33808
G0 F18000 X-14 Y-3.92
G1 F2400 X-14 Y-38.07 E702.46783
G0 F18000 X-14.5 Y-37.946
G1 F2400 X-14.5 Y-3.048 E704.6441
G0 F18000 X-15 Y-1.845
G1 F2400 X-15 Y-37.823 E706.88785
G0 F18000 X-15.5 Y-37.699
G1 F2400 X-15.499 Y38.318 E711.62842
G0 F18000 X-15.999 Y38.173
G1 F2400 X-16 Y-37.576 E716.35234
G0 F18000 X-16.5 Y-37.452
G1 F2400 X-16.499 Y38.028 E721.05942
G0 F18000 X-16.999 Y37.884
G1 F2400 X-17 Y-37.329 E725.74991
G0 F18000 X-17.5 Y-37.206
G1 F2400 X-17.499 Y37.739 E730.42362
G0 F18000 X-17.999 Y37.594
G1 F2400 X-18 Y-37.082 E735.08062
G0 F18000 X-18.5 Y-36.959
G1 F2400 X-18.499 Y37.45 E739.72091
G0 F18000 X-18.999 Y37.305
G1 F2400 X-19 Y-36.835 E744.34448
G0 F18000 X-19.5 Y-36.712
G1 F2400 X-19.499 Y37.16 E748.95128
G0 F18000 X-19.999 Y37.016
G1 F2400 X-20 Y-36.588 E753.54143
G0 F18000 X-20.5 Y-36.465
G1 F2400 X-20.499 Y36.871 E758.1148
G0 F18000 X-20.999 Y36.726
G1 F2400 X-21 Y-36.341 E762.67146
G0 F18000 X-21.5 Y-36.218
G1 F2400 X-21.499 Y36.581 E767.21135
G0 F18000 X-21.999 Y36.437
G1 F2400 X-22 Y-36.082 E771.73383
G0 F18000 X-22.5 Y-35.806
G1 F2400 X-22.499 Y36.292 E776.23
G0 F18000 X-22.999 Y36.147
G1 F2400 X-23 Y-35.53 E780.69997
G0 F18000 X-23.5 Y-35.255
G1 F2400 X-23.499 Y35.964 E785.14132
G0 F18000 X-23.999 Y35.662
G1 F2400 X-24 Y-34.979 E789.54669
G0 F18000 X-24.5 Y-34.703
G1 F2400 X-24.499 Y35.36 E793.91595
G0 F18000 X-24.999 Y35.059
G1 F2400 X-25 Y-34.428 E798.24935
G0 F18000 X-25.5 Y-34.152
G1 F2400 X-25.499 Y34.757 E802.54664
G0 F18000 X-25.999 Y34.455
G1 F2400 X-26 Y-33.876 E806.80795
G0 F18000 X-26.5 Y-33.601
G1 F2400 X-26.499 Y34.153 E811.03322
G0 F18000 X-26.999 Y33.851
G1 F2400 X-27 Y-33.325 E815.2225
G0 F18000 X-27.5 Y-33.049
G1 F2400 X-27.499 Y33.549 E819.37567
G0 F18000 X-27.999 Y33.247
G1 F2400 X-28 Y-32.774 E823.49292
G0 F18000 X-28.5 Y-32.497
G1 F2400 X-28.499 Y32.945 E827.574
G0 F18000 X-28.999 Y32.643
G1 F2400 X-29 Y-32.221 E831.6191
G0 F18000 X-29.5 Y-31.946
G1 F2400 X-29.499 Y32.341 E835.62815
G0 F18000 X-29.999 Y32.039
G1 F2400 X-30 Y-31.67 E839.60122
G0 F18000 X-30.5 Y-31.394
G1 F2400 X-30.499 Y31.737 E843.53818
G0 F18000 X-30.999 Y31.436
G1 F2400 X-31 Y-31.072 E847.43635
G0 F18000 X-31.5 Y-30.592
G1 F2400 X-31.499 Y31.134 E851.28569
G0 F18000 X-31.999 Y30.832
G1 F2400 X-32 Y-30.111 E855.08626
G0 F18000 X-32.5 Y-29.631
G1 F2400 X-32.499 Y30.349 E858.82672
G0 F18000 X-32.999 Y29.83
G1 F2400 X-33 Y-29.15 E862.50487
G0 F18000 X-33.5 Y-28.67
G1 F2400 X-33.5 Y29.311 E866.12067
G0 F18000 X-34 Y28.791
G1 F2400 X-34 Y-28.189 E869.6741
G0 F18000 X-34.5 Y-27.709
G1 F2400 X-34.5 Y28.272 E873.16516
G0 F18000 X-35 Y27.753
G1 F2400 X-35 Y-27.228 E876.59393
G0 F18000 X-35.5 Y-26.747
G1 F2400 X-35.5 Y27.234 E879.96027
G0 F18000 X-36 Y26.715
G1 F2400 X-36 Y-26.267 E883.26438
G0 F18000 X-36.5 Y-25.786
G1 F2400 X-36.5 Y26.195 E886.50599
G0 F18000 X-37 Y25.676
G1 F2400 X-37 Y-25.306 E889.68537
G0 F18000 X-37.5 Y-24.825
G1 F2400 X-37.5 Y25.157 E892.80232
G0 F18000 X-38 Y24.638
G1 F2400 X-38 Y-24.345 E895.85704
G0 F18000 X-38.5 Y-23.681
G1 F2400 X-38.5 Y24.118 E898.83785
G0 F18000 X-39 Y23.599
G1 F2400 X-39 Y-22.853 E901.73473
G0 F18000 X-39.5 Y-22.025
G1 F2400 X-39.5 Y22.818 E904.5312
G0 F18000 X-40 Y21.912
G1 F2400 X-40 Y-21.197 E907.21959
G0 F18000 X-40.5 Y-20.369
G1 F2400 X-40.5 Y21.006 E909.79979
G0 F18000 X-41 Y20.1
G1 F2400 X-41 Y-19.54 E912.27185
G0 F18000 X-41.5 Y-18.712
G1 F2400 X-41.5 Y19.193 E914.63565
G0 F18000 X-42 Y18.287
G1 F2400 X-42 Y-17.884 E916.89137
G0 F18000 X-42.5 Y-17.056
G1 F2400 X-42.5 Y17.381 E919.03889
G0 F18000 X-43 Y16.475
G1 F2400 X-43 Y-16.227 E921.07828
G0 F18000 X-43.5 Y-15.399
G1 F2400 X-43.5 Y15.568 E923.00941
G0 F18000 X-44 Y14.662
G1 F2400 X-44 Y-13.686 E924.77726
G0 F18000 X-44.5 Y-11.958
G0 X-44.5 Y-11.958
G1 F2400 X-44.5 Y12.852 E926.32442
G0 F18000 X-45 Y10.828
G0 X-45 Y10.828
G1 F2400 X-45 Y-10.23 E927.63766
G0 F18000 X-45.5 Y-8.503
G0 X-45.5 Y-8.503
G1 F2400 X-45.5 Y8.803 E928.71684
G0 F18000 X-46 Y6.779
G0 X-46 Y6.779
G1 F2400 X-46 Y-6.775 E929.56211
G0 F18000 X-46.5 Y2.553
G0 X-46.5 Y2.553
G1 F2400 X-46.5 Y4.754 E929.69937
G0 F18000 X-15 Y2.366
G0 X-15 Y2.366
G1 F2400 X-14.999 Y38.463 E931.95048
G0 F18000 X-14.499 Y38.607
G1 F2400 X-14.5 Y3.569 E934.13554
G0 F18000 X-14 Y4.441
G1 F2400 X-13.999 Y38.752 E936.27527
G0 F18000 X-13.499 Y38.872
G1 F2400 X-13.5 Y5.093 E938.38182
G0 F18000 X-13 Y5.695
G1 F2400 X-12.999 Y38.882 E940.45146
G0 F18000 X-12.499 Y38.891
G1 F2400 X-12.5 Y6.078 E942.49777
G0 F18000 X-12 Y6.461
G1 F2400 X-11.999 Y38.901 E944.52081
G0 F18000 X-11.499 Y38.911
G1 F2400 X-11.5 Y6.838 E946.52097
G0 F18000 X-11 Y7.045
G1 F2400 X-10.999 Y38.921 E948.50885
G0 F18000 X-10.499 Y38.931
G1 F2400 X-10.5 Y7.253 E950.48438
G0 F18000 X-9.999 Y7.46
G1 F2400 X-9.999 Y38.94 E952.44756
G0 F18000 X-9.499 Y38.95
G1 F2400 X-9.499 Y7.613 E954.40182
G0 F18000 X-8.999 Y7.679
G1 F2400 X-8.999 Y38.96 E956.35259
G0 F18000 X-8.499 Y38.97
G1 F2400 X-8.499 Y7.745 E958.29986
G0 F18000 X-7.999 Y7.811
G1 F2400 X-7.999 Y38.98 E960.24365
G0 F18000 X-7.499 Y38.989
G1 F2400 X-7.499 Y7.817 E962.18762
G0 F18000 X-6.999 Y7.751
G1 F2400 X-6.999 Y38.999 E964.13633
G0 F18000 X-6.499 Y39.009
G1 F2400 X-6.499 Y7.685 E966.08978
G0 F18000 X-5.999 Y7.619
G1 F2400 X-5.999 Y39.019 E968.04797
G0 F18000 X-5.499 Y39.029
G1 F2400 X-5.499 Y7.478 E970.01558
G0 F18000 X-4.999 Y7.27
G1 F2400 X-4.999 Y39.039 E971.99678
G0 F18000 X-4.499 Y39.048
G1 F2400 X-4.499 Y7.062 E973.99152
G0 F18000 X-3.999 Y6.855
G1 F2400 X-3.999 Y39.058 E975.99978
G0 F18000 X-3.499 Y39.068
G1 F2400 X-3.499 Y6.493 E978.03125
G0 F18000 X-2.999 Y6.11
G1 F2400 X-2.999 Y38.972 E980.08062
G0 F18000 X-2.499 Y38.849
G1 F2400 X-2.499 Y5.727 E982.1462
G0 F18000 X-1.999 Y5.148
G1 F2400 X-1.999 Y38.725 E984.24015
G0 F18000 X-1.499 Y38.602
G1 F2400 X-1.499 Y4.495 E986.36716
G0 F18000 X-0.999 Y3.668
G1 F2400 X-0.999 Y38.478 E988.538
G0 F18000 X-0.499 Y38.355
G1 F2400 X-0.499 Y2.464 E990.77627
G0 F18000 X-0.498 Y1.13
G0 X-0.387 Y0.26
G0 X-0.499 Y-0.609
G0 X-0.5 Y-1.945
G0 X-0.5 Y-1.945
G1 F2400 X-0.5 Y-37.954 E993.02195
G0 F18000 X-1 Y-38.098
G1 F2400 X-1 Y-3.15 E995.20134
G0 F18000 X-1.5 Y-3.976
G1 F2400 X-1.5 Y-38.243 E997.33839
G0 F18000 X-2 Y-38.352
G1 F2400 X-2 Y-4.628 E999.44144
G0 F18000 X-2.5 Y-5.207
G1 F2400 X-2.5 Y-38.361 E1001.50908
G0 F18000 X-3 Y-38.371
G1 F2400 X-3 Y-5.59 E1003.55333
G0 F18000 X-3.5 Y-5.974
G1 F2400 X-3.5 Y-38.38 E1005.57432
G0 F18000 X-4 Y-38.39
G1 F2400 X-4 Y-6.334 E1007.57336
G0 F18000 X-4.5 Y-6.542
G1 F2400 X-4.5 Y-38.399 E1009.56011
G0 F18000 X-5 Y-38.409
G1 F2400 X-5 Y-6.749 E1011.53446
G0 F18000 X-5.5 Y-6.957
G1 F2400 X-5.5 Y-38.418 E1013.49651
G0 F18000 X0 Y-37.809
G1 F2400 X0 Y38.231 E1018.23851
G0 F18000 X0.5 Y38.108
G1 F2400 X0.499 Y-37.664 E1022.96386
G0 F18000 X0.999 Y-37.519
G1 F2400 X1 Y37.984 E1027.67238
G0 F18000 X1.5 Y37.86
G1 F2400 X1.499 Y-37.375 E1032.36424
G0 F18000 X1.999 Y-37.23
G1 F2400 X2 Y37.737 E1037.03933
G0 F18000 X2.5 Y37.613
G1 F2400 X2.499 Y-37.085 E1041.6977
G0 F18000 X2.999 Y-36.94
G1 F2400 X3 Y37.49 E1046.3393
G0 F18000 X3.5 Y37.366
G1 F2400 X3.499 Y-36.796 E1050.96424
G0 F18000 X3.999 Y-36.651
G1 F2400 X4 Y37.243 E1055.57241
G0 F18000 X4.5 Y37.119
G1 F2400 X4.499 Y-36.506 E1060.16387
G0 F18000 X4.999 Y-36.361
G1 F2400 X5 Y36.996 E1064.73855
G0 F18000 X5.5 Y36.872
G1 F2400 X5.499 Y-36.217 E1069.29658
G0 F18000 X5.999 Y-36.072
G1 F2400 X6 Y36.749 E1073.83784
G0 F18000 X6.5 Y36.624
G1 F2400 X6.499 Y-35.927 E1078.36232
G0 F18000 X6.999 Y-35.782
G1 F2400 X7 Y36.349 E1082.86055
G0 F18000 X7.5 Y36.073
G1 F2400 X7.499 Y-35.638 E1087.33264
G0 F18000 X7.999 Y-35.467
G1 F2400 X8 Y35.797 E1091.7768
G0 F18000 X8.5 Y35.522
G1 F2400 X8.499 Y-35.165 E1096.18503
G0 F18000 X8.999 Y-34.863
G1 F2400 X9 Y35.246 E1100.55716
G0 F18000 X9.5 Y34.97
G1 F2400 X9.499 Y-34.561 E1104.89331
G0 F18000 X9.999 Y-34.259
G1 F2400 X10 Y34.695 E1109.1934
G0 F18000 X10.5 Y34.419
G1 F2400 X10.499 Y-33.957 E1113.45752
G0 F18000 X10.999 Y-33.655
G1 F2400 X11 Y34.143 E1117.68553
G0 F18000 X11.5 Y33.868
G1 F2400 X11.499 Y-33.353 E1121.87761
G0 F18000 X11.999 Y-33.051
G1 F2400 X12 Y33.592 E1126.03359
G0 F18000 X12.5 Y33.316
G1 F2400 X12.499 Y-32.749 E1130.15359
G0 F18000 X12.999 Y-32.447
G1 F2400 X13 Y33.041 E1134.23754
G0 F18000 X13.5 Y32.765
G1 F2400 X13.499 Y-32.145 E1138.2855
G0 F18000 X13.999 Y-31.843
G1 F2400 X14 Y32.489 E1142.29736
G0 F18000 X14.5 Y32.214
G1 F2400 X14.499 Y-31.541 E1146.2733
G0 F18000 X14.999 Y-31.239
G1 F2400 X15 Y31.937 E1150.21307
G0 F18000 X15.5 Y31.631
G1 F2400 X15.499 Y-30.937 E1154.11498
G0 F18000 X15.999 Y-30.635
G1 F2400 X16 Y31.15 E1157.968
G0 F18000 X16.5 Y30.67
G1 F2400 X16.499 Y-30.333 E1161.77232
G0 F18000 X16.999 Y-29.877
G1 F2400 X17 Y30.189 E1165.51813
G0 F18000 X17.5 Y29.708
G1 F2400 X17.499 Y-29.357 E1169.20159
G0 F18000 X17.999 Y-28.837
G1 F2400 X18 Y29.228 E1172.82262
G0 F18000 X18.5 Y28.747
G1 F2400 X18.499 Y-28.317 E1176.38129
G0 F18000 X18.999 Y-27.797
G1 F2400 X19 Y28.267 E1179.87753
G0 F18000 X19.5 Y27.786
G1 F2400 X19.499 Y-27.277 E1183.31141
G0 F18000 X19.999 Y-26.757
G1 F2400 X20 Y27.305 E1186.68281
G0 F18000 X20.5 Y26.825
G1 F2400 X20.499 Y-26.237 E1189.9919
G0 F18000 X20.999 Y-25.717
G1 F2400 X21 Y26.344 E1193.2385
G0 F18000 X21.5 Y25.864
G1 F2400 X21.499 Y-25.197 E1196.42281
G0 F18000 X21.999 Y-24.677
G1 F2400 X22 Y25.383 E1199.54462
G0 F18000 X22.5 Y24.902
G1 F2400 X22.499 Y-24.157 E1202.60408
G0 F18000 X22.999 Y-23.637
G1 F2400 X23 Y24.265 E1205.59132
G0 F18000 X23.5 Y23.436
G1 F2400 X23.499 Y-23.116 E1208.49443
G0 F18000 X23.999 Y-22.374
G1 F2400 X24 Y22.607 E1211.2995
G0 F18000 X24.5 Y21.777
G1 F2400 X24.499 Y-21.466 E1213.99626
G0 F18000 X24.999 Y-20.559
G1 F2400 X25 Y20.948 E1216.58469
G0 F18000 X25.5 Y20.118
G1 F2400 X25.499 Y-19.652 E1219.06485
G0 F18000 X25.999 Y-18.745
G1 F2400 X26 Y19.289 E1221.43669
G0 F18000 X26.5 Y18.459
G1 F2400 X26.499 Y-17.838 E1223.70028
G0 F18000 X26.999 Y-16.931
G1 F2400 X27 Y17.63 E1225.85553
G0 F18000 X27.5 Y16.801
G1 F2400 X27.499 Y-16.024 E1227.90259
G0 F18000 X27.999 Y-15.117
G1 F2400 X28 Y15.971 E1229.84126
G0 F18000 X28.5 Y14.342
G1 F2400 X28.5 Y-14.21 E1231.62184
G0 F18000 X29 Y-12.487
G1 F2400 X29 Y12.613 E1233.18708
G0 F18000 X29.5 Y10.885
G0 X29.5 Y10.885
G1 F2400 X29.5 Y-10.462 E1234.51834
G0 F18000 X30 Y-8.437
G0 X30 Y-8.437
G1 F2400 X30 Y9.156 E1235.61543
G0 F18000 X30.5 Y7.428
G0 X30.5 Y7.428
G1 F2400 X30.5 Y-6.412 E1236.47853
G0 F18000 X31 Y-4.387
G1 F2400 X31 Y-0.096 E1236.74606
; LAYER:2
M106 S153
G0 F18000 X31.269 Y-4.094 Z0.9
G0 X31.269 Y-4.094
; TYPE:WALL-INNER
G1 F2400 X31.067 Y6.15 E1237.38497
G1 X28.23 Y15.963 E1238.022
G1 X22.927 Y24.757 E1238.66241
G1 X15.539 Y31.858 E1239.30146
G1 X6.568 Y36.805 E1239.94034
G1 X-3.375 Y39.261 E1240.57905
G1 X-13.62 Y39.059 E1241.21814
G1 X-23.456 Y36.214 E1241.85675
G1 X-32.228 Y30.917 E1242.49585
G1 X-39.31 Y23.551 E1243.13313
G1 X-44.275 Y14.558 E1243.77378
G1 X-46.731 Y4.615 E1244.41251
G1 X-46.529 Y-5.629 E1245.05148
G1 X-43.684 Y-15.465 E1245.69006
G1 X-38.387 Y-24.237 E1246.32913
G1 X-31 Y-31.337 E1246.96809
G1 X-22.029 Y-36.284 E1247.60694
G1 X-12.119 Y-38.731 E1248.24348
G1 X-1.839 Y-38.538 E1248.88461
G1 X7.995 Y-35.693 E1249.52296
G1 X16.766 Y-30.395 E1250.16195
G1 X23.867 Y-23.009 E1250.80087
G1 X28.808 Y-14.049 E1251.43891
G1 X31.269 Y-4.094 E1252.07836
G0 F18000 X-0.335 Y0.26
G0 X-0.335 Y0.26
G1 F2400 X-0.586 Y-1.653 E1252.19869
G1 X-1.325 Y-3.436 E1252.31914
G1 X-2.5 Y-4.968 E1252.43963
G1 X-4.032 Y-6.143 E1252.56012
G1 X-5.815 Y-6.882 E1252.68057
G1 X-7.73 Y-7.133 E1252.80109
G1 X-9.644 Y-6.882 E1252.92152
G1 X-11.427 Y-6.143 E1253.04192
G1 X-12.959 Y-4.968 E1253.16234
G1 X-14.134 Y-3.436 E1253.28273
G1 X-14.874 Y-1.653 E1253.40309
G1 X-15.125 Y0.26 E1253.52336
G1 X-14.874 Y2.174 E1253.64373
G1 X-14.134 Y3.957 E1253.7641
G1 X-12.959 Y5.489 E1253.88446
G1 X-11.427 Y6.664 E1254.00482
G1 X-9.644 Y7.403 E1254.12513
G1 X-7.73 Y7.655 E1254.24546
G1 X-5.815 Y7.403 E1254.36585
G1 X-4.032 Y6.664 E1254.48616
G1 X-2.5 Y5.489 E1254.60651
G1 X-1.325 Y3.957 E1254.72688
G1 X-0.586 Y2.174 E1254.84722
G1 X-0.335 Y0.26 E1254.9676
G0 F18000 X-0.839 Y0.26
; TYPE:WALL-OUTER
G1 F2100 X-1.073 Y-1.522 E1255.07969
G1 X-1.762 Y-3.184 E1255.19197
G1 X-2.857 Y-4.611 E1255.30423
G1 X-4.284 Y-5.706 E1255.41649
G1 X-5.946 Y-6.395 E1255.52877
G1 X-7.73 Y-6.629 E1255.64105
G1 X-9.513 Y-6.395 E1255.75325
G1 X-11.175 Y-5.706 E1255.86549
G1 X-12.602 Y-4.611 E1255.97767
G1 X-13.697 Y-3.184 E1256.08983
G1 X-14.387 Y-1.522 E1256.20202
G1 X-14.621 Y0.26 E1256.31405
G1 X-14.387 Y2.043 E1256.42619
G1 X-13.697 Y3.705 E1256.53839
G1 X-12.602 Y5.132 E1256.65052
G1 X-11.175 Y6.227 E1256.76265
G1 X-9.513 Y6.916 E1256.87479
G1 X-7.73 Y7.151 E1256.98688
G1 X-5.946 Y6.916 E1257.09904
G1 X-4.284 Y6.227 E1257.21118
G1 X-2.857 Y5.132 E1257.3233
G1 X-1.762 Y3.705 E1257.43544
G1 X-1.073 Y2.043 E1257.54761
G1 X-0.839 Y0.26 E1257.65975
G1 F6600 E1250.85975
G1 Z1.2
G0 F18000 X-0.493 Y0.305
G0 X31.32 Y-4.101
G0 X31.716 Y-4.156
G0 X31.421 Y-4.115
G0 X31.421 Y-4.115
G0 X31.77 Y-4.148
G1 Z0.9
G1 F6600 E1257.75975
G1 F2100 X31.566 Y6.224 E1258.40664
G1 X28.691 Y16.165 E1259.052
G1 X23.319 Y25.074 E1259.70077
G1 X15.841 Y32.263 E1260.34767
G1 X6.752 Y37.274 E1260.99492
G1 X-3.32 Y39.762 E1261.64192
G1 X-13.694 Y39.558 E1262.28906
G1 X-23.66 Y36.675 E1262.93611
G1 X-32.544 Y31.311 E1263.58335
G1 X-39.716 Y23.851 E1264.22875
G1 X-44.744 Y14.744 E1264.87752
G1 X-47.232 Y4.669 E1265.52472
G1 X-47.028 Y-5.703 E1266.17167
G1 X-44.145 Y-15.669 E1266.8187
G1 X-38.781 Y-24.553 E1267.46591
G1 X-31.302 Y-31.742 E1268.11285
G1 X-22.213 Y-36.753 E1268.76008
G1 X-12.173 Y-39.232 E1269.40496
G1 X-1.764 Y-39.037 E1270.05414
G1 X8.199 Y-36.154 E1270.70088
G1 X17.082 Y-30.789 E1271.34801
G1 X24.272 Y-23.311 E1271.9949
G1 X29.277 Y-14.233 E1272.64132
G1 X31.77 Y-4.148 E1273.28912
G0 F18000 X31.077 Y-4
; TYPE:FILL
G1 F2400 X-1.519 Y-4 E1275.3219
G0 F18000 X-1.145 Y-3.5
G1 F2400 X31.067 Y-3.5 E1277.33066
G0 F18000 X31.057 Y-3
G1 F2400 X-0.938 Y-3 E1279.32596
G0 F18000 X-0.73 Y-2.5
G1 F2400 X31.047 Y-2.5 E1281.3076
G0 F18000 X31.037 Y-2
G1 F2400 X-0.523 Y-2 E1283.27577
G0 F18000 X-0.373 Y-1.5
G1 F2400 X31.028 Y-1.5 E1285.23396
G0 F18000 X31.018 Y-1
G1 F2400 X-0.307 Y-1 E1287.18747
G0 F18000 X-0.242 Y-0.5
G1 F2400 X31.008 Y-0.5 E1289.13624
G0 F18000 X30.998 Y0
G1 F2400 X-0.177 Y0 E1291.0804
G0 F18000 X-0.173 Y0.5
G1 F2400 X30.988 Y0.499 E1293.02363
G0 F18000 X30.979 Y0.999
G1 F2400 X-0.239 Y1 E1294.97047
G0 F18000 X-0.304 Y1.5
G1 F2400 X30.969 Y1.499 E1296.92067
G0 F18000 X30.959 Y1.999
G1 F2400 X-0.37 Y2 E1298.87444
G0 F18000 X-0.514 Y2.5
G1 F2400 X30.949 Y2.499 E1300.83649
G0 F18000 X30.939 Y2.999
G1 F2400 X-0.722 Y3 E1302.81096
G0 F18000 X-0.929 Y3.5
G1 F2400 X30.929 Y3.499 E1304.79765
G0 F18000 X30.92 Y3.999
G1 F2400 X-1.137 Y4 E1306.79681
G0 F18000 X-1.503 Y4.5
G1 F2400 X30.91 Y4.499 E1308.81812
G0 F18000 X30.9 Y4.999
G1 F2400 X-1.886 Y5 E1310.86274
G0 F18000 X-2.269 Y5.5
G1 F2400 X30.89 Y5.499 E1312.93056
G0 F18000 X30.88 Y5.999
G1 F2400 X-2.855 Y6 E1315.03437
G0 F18000 X-3.507 Y6.5
G1 F2400 X30.769 Y6.499 E1317.17186
G0 F18000 X30.624 Y6.999
G1 F2400 X-4.347 Y7 E1319.35274
G0 F18000 X-5.551 Y7.5
G1 F2400 X30.479 Y7.499 E1321.59961
G0 F18000 X30.335 Y7.999
G1 F2400 X-45.698 Y8 E1326.34124
G0 F18000 X-45.575 Y8.5
G1 F2400 X30.19 Y8.499 E1331.06609
G0 F18000 X30.046 Y8.999
G1 F2400 X-45.451 Y9 E1335.77429
G0 F18000 X-45.328 Y9.5
G1 F2400 X29.901 Y9.499 E1340.46572
G0 F18000 X29.756 Y9.999
G1 F2400 X-45.204 Y10 E1345.14043
G0 F18000 X-45.081 Y10.5
G1 F2400 X29.612 Y10.499 E1349.79843
G0 F18000 X29.467 Y10.999
G1 F2400 X-44.957 Y11 E1354.43971
G0 F18000 X-44.834 Y11.5
G1 F2400 X29.323 Y11.499 E1359.06428
G0 F18000 X29.178 Y11.999
G1 F2400 X-44.71 Y12 E1363.67214
G0 F18000 X-44.587 Y12.5
G1 F2400 X29.033 Y12.499 E1368.26323
G0 F18000 X28.889 Y12.999
G1 F2400 X-44.463 Y13 E1372.83766
G0 F18000 X-44.34 Y13.5
G1 F2400 X28.744 Y13.499 E1377.39532
G0 F18000 X28.599 Y13.999
G1 F2400 X-44.216 Y14 E1381.93626
G0 F18000 X-44.089 Y14.5
G1 F2400 X28.455 Y14.499 E1386.46024
G0 F18000 X28.31 Y14.999
G1 F2400 X-43.813 Y15 E1390.95803
G0 F18000 X-43.537 Y15.5
G1 F2400 X28.166 Y15.499 E1395.42956
G0 F18000 X27.985 Y15.999
G1 F2400 X-43.261 Y16 E1399.87266
G0 F18000 X-42.985 Y16.5
G1 F2400 X27.684 Y16.5 E1404.27971
G0 F18000 X27.382 Y17
G1 F2400 X-42.709 Y17 E1408.65078
G0 F18000 X-42.433 Y17.5
G1 F2400 X27.081 Y17.5 E1412.9858
G0 F18000 X26.779 Y18
G1 F2400 X-42.157 Y18 E1417.28484
G0 F18000 X-41.881 Y18.5
G1 F2400 X26.478 Y18.5 E1421.54783
G0 F18000 X26.176 Y19
G1 F2400 X-41.605 Y19 E1425.77484
G0 F18000 X-41.329 Y19.5
G1 F2400 X25.875 Y19.5 E1429.96581
G0 F18000 X25.573 Y20
G1 F2400 X-41.053 Y20 E1434.12079
G0 F18000 X-40.777 Y20.5
G1 F2400 X25.272 Y20.5 E1438.23972
G0 F18000 X24.971 Y21
G1 F2400 X-40.501 Y21 E1442.32274
G0 F18000 X-40.225 Y21.5
G1 F2400 X24.669 Y21.5 E1446.36964
G0 F18000 X24.368 Y22
G1 F2400 X-39.949 Y22 E1450.38063
G0 F18000 X-39.673 Y22.5
G1 F2400 X24.066 Y22.5 E1454.35551
G0 F18000 X23.765 Y23
G1 F2400 X-39.397 Y23 E1458.29446
G0 F18000 X-39.095 Y23.5
G1 F2400 X23.463 Y23.5 E1462.19569
G0 F18000 X23.162 Y24
G1 F2400 X-38.615 Y24 E1466.04827
G0 F18000 X-38.134 Y24.5
G1 F2400 X22.86 Y24.5 E1469.85196
G0 F18000 X22.4 Y25
G1 F2400 X-37.653 Y25 E1473.59704
G0 F18000 X-37.172 Y25.5
G1 F2400 X21.88 Y25.5 E1477.27962
G0 F18000 X21.36 Y26
G1 F2400 X-36.692 Y26 E1480.8999
G0 F18000 X-36.211 Y26.5
G1 F2400 X20.84 Y26.5 E1484.4577
G0 F18000 X20.319 Y27
G1 F2400 X-35.73 Y27 E1487.95307
G0 F18000 X-35.249 Y27.5
G1 F2400 X19.799 Y27.5 E1491.38595
G0 F18000 X19.279 Y28
G1 F2400 X-34.769 Y28 E1494.75653
G0 F18000 X-34.288 Y28.5
G1 F2400 X18.759 Y28.5 E1498.06462
G0 F18000 X18.238 Y29
G1 F2400 X-33.807 Y29 E1501.31029
G0 F18000 X-33.326 Y29.5
G1 F2400 X17.718 Y29.5 E1504.49348
G0 F18000 X17.198 Y30
G1 F2400 X-32.846 Y30 E1507.61436
G0 F18000 X-32.364 Y30.5
G1 F2400 X16.678 Y30.5 E1510.67269
G0 F18000 X16.157 Y31
G1 F2400 X-31.72 Y31 E1513.65843
G0 F18000 X-30.892 Y31.5
G1 F2400 X15.637 Y31.5 E1516.56005
G0 F18000 X14.887 Y32
G1 F2400 X-30.064 Y32 E1519.36331
G0 F18000 X-29.236 Y32.5
G1 F2400 X13.98 Y32.5 E1522.05832
G0 F18000 X13.074 Y33
G1 F2400 X-28.408 Y33 E1524.64525
G0 F18000 X-27.58 Y33.5
G1 F2400 X12.167 Y33.5 E1527.12392
G0 F18000 X11.26 Y34
G1 F2400 X-26.752 Y34 E1529.49445
G0 F18000 X-25.924 Y34.5
G1 F2400 X10.353 Y34.5 E1531.75673
G0 F18000 X9.446 Y35
G1 F2400 X-25.096 Y35 E1533.91086
G0 F18000 X-24.268 Y35.5
G1 F2400 X8.539 Y35.5 E1535.95673
G0 F18000 X7.632 Y36
G1 F2400 X-23.44 Y36 E1537.89447
G0 F18000 X-21.781 Y36.5
G1 F2400 X6.726 Y36.5 E1539.67218
G0 F18000 X4.983 Y37
G1 F2400 X-20.053 Y37 E1541.23349
G0 F18000 X-18.325 Y37.5
G0 X-18.325 Y37.5
G1 F2400 X2.959 Y37.5 E1542.56076
G0 F18000 X0.935 Y38
G1 F2400 X-16.597 Y38 E1543.65411
G0 F18000 X-14.87 Y38.5
G1 F2400 X-1.088 Y38.5 E1544.51353
G0 F18000 X-3.113 Y39
G1 F2400 X-6.964 Y39 E1544.75375
G0 F18000 X-9.905 Y7.5
G0 X-9.905 Y7.5
G1 F2400 X-45.822 Y7.5 E1546.99369
G0 F18000 X-45.945 Y7
G1 F2400 X-11.109 Y7 E1549.1661
G0 F18000 X-11.95 Y6.5
G1 F2400 X-46.069 Y6.5 E1551.29392
G0 F18000 X-46.192 Y6
G1 F2400 X-12.602 Y6 E1553.38862
G0 F18000 X-13.188 Y5.5
G1 F2400 X-46.316 Y5.5 E1555.45463
G0 F18000 X-46.439 Y5
G1 F2400 X-13.571 Y5 E1557.50431
G0 F18000 X-13.955 Y4.5
G1 F2400 X-46.538 Y4.5 E1559.53634
G0 F18000 X-46.528 Y4
G1 F2400 X-14.321 Y4 E1561.54479
G0 F18000 X-14.529 Y3.5
G1 F2400 X-46.519 Y3.5 E1563.53984
G0 F18000 X-46.509 Y3
G1 F2400 X-14.737 Y3 E1565.52117
G0 F18000 X-14.944 Y2.5
G1 F2400 X-46.499 Y2.5 E1567.48909
G0 F18000 X-46.489 Y2
G1 F2400 X-15.089 Y2 E1569.44722
G0 F18000 X-15.155 Y1.5
G1 F2400 X-46.479 Y1.5 E1571.40073
G0 F18000 X-46.47 Y1
G1 F2400 X-15.22 Y1 E1573.3495
G0 F18000 X-15.285 Y0.5
G1 F2400 X-46.46 Y0.5 E1575.29372
G0 F18000 X-46.45 Y0
G1 F2400 X-15.283 Y0 E1577.23732
G0 F18000 X-15.218 Y-0.499
G1 F2400 X-46.44 Y-0.499 E1579.18447
G0 F18000 X-46.43 Y-0.999
G1 F2400 X-15.152 Y-0.999 E1581.13499
G0 F18000 X-15.086 Y-1.499
G1 F2400 X-46.42 Y-1.499 E1583.08913
G0 F18000 X-46.411 Y-1.999
G1 F2400 X-14.936 Y-1.999 E1585.05193
G0 F18000 X-14.728 Y-2.499
G1 F2400 X-46.401 Y-2.499 E1587.02721
G0 F18000 X-46.391 Y-2.999
G1 F2400 X-14.52 Y-2.999 E1589.01471
G0 F18000 X-14.313 Y-3.499
G1 F2400 X-46.381 Y-3.499 E1591.01462
G0 F18000 X-46.371 Y-3.999
G1 F2400 X-13.939 Y-3.999 E1593.03711
G0 F18000 X-13.556 Y-4.499
G1 F2400 X-46.362 Y-4.499 E1595.08305
G0 F18000 X-46.352 Y-4.999
G1 F2400 X-13.173 Y-4.999 E1597.15212
G0 F18000 X-12.576 Y-5.499
G1 F2400 X-46.342 Y-5.499 E1599.25792
G0 F18000 X-46.225 Y-5.999
G1 F2400 X-11.924 Y-5.999 E1601.39696
G0 F18000 X-11.061 Y-6.499
G1 F2400 X-46.08 Y-6.499 E1603.58091
G0 F18000 X-45.935 Y-6.999
G1 F2400 X-9.857 Y-6.999 E1605.83077
G0 F18000 X-5.602 Y-7
G0 X-5.602 Y-7
G1 F2400 X30.354 Y-7 E1608.07302
G0 F18000 X30.23 Y-7.5
G1 F2400 X-45.79 Y-7.499 E1612.81384
G0 F18000 X-45.646 Y-7.999
G1 F2400 X30.107 Y-8 E1617.53794
G0 F18000 X29.983 Y-8.5
G1 F2400 X-45.501 Y-8.499 E1622.24533
G0 F18000 X-45.356 Y-8.999
G1 F2400 X29.86 Y-9 E1626.93594
G0 F18000 X29.736 Y-9.5
G1 F2400 X-45.212 Y-9.499 E1631.60991
G0 F18000 X-45.067 Y-9.999
G1 F2400 X29.612 Y-10 E1636.26703
G0 F18000 X29.489 Y-10.5
G1 F2400 X-44.922 Y-10.499 E1640.90751
G0 F18000 X-44.778 Y-10.999
G1 F2400 X29.365 Y-11 E1645.53121
G0 F18000 X29.242 Y-11.5
G1 F2400 X-44.633 Y-11.499 E1650.13826
G0 F18000 X-44.488 Y-11.999
G1 F2400 X29.118 Y-12 E1654.72847
G0 F18000 X28.994 Y-12.5
G1 F2400 X-44.343 Y-12.499 E1659.30196
G0 F18000 X-44.199 Y-12.999
G1 F2400 X28.871 Y-13 E1663.85875
G0 F18000 X28.747 Y-13.5
G1 F2400 X-44.054 Y-13.499 E1668.39882
G0 F18000 X-43.909 Y-13.999
G1 F2400 X28.617 Y-14 E1672.92168
G0 F18000 X28.341 Y-14.5
G1 F2400 X-43.765 Y-14.499 E1677.41841
G0 F18000 X-43.62 Y-14.999
G1 F2400 X28.066 Y-15 E1681.88888
G0 F18000 X27.79 Y-15.5
G1 F2400 X-43.44 Y-15.499 E1686.33098
G0 F18000 X-43.138 Y-15.999
G1 F2400 X27.514 Y-16 E1690.73697
G0 F18000 X27.239 Y-16.5
G1 F2400 X-42.836 Y-16.499 E1695.10704
G0 F18000 X-42.534 Y-16.999
G1 F2400 X26.963 Y-17 E1699.441
G0 F18000 X26.687 Y-17.5
G1 F2400 X-42.232 Y-17.499 E1703.73898
G0 F18000 X-41.931 Y-17.999
G1 F2400 X26.412 Y-18 E1708.00098
G0 F18000 X26.136 Y-18.5
G1 F2400 X-41.629 Y-18.499 E1712.22699
G0 F18000 X-41.327 Y-18.999
G1 F2400 X25.86 Y-19 E1716.41689
G0 F18000 X25.585 Y-19.5
G1 F2400 X-41.025 Y-19.499 E1720.57087
G0 F18000 X-40.723 Y-19.999
G1 F2400 X25.309 Y-20 E1724.68875
G0 F18000 X25.033 Y-20.5
G1 F2400 X-40.421 Y-20.499 E1728.77064
G0 F18000 X-40.119 Y-20.999
G1 F2400 X24.758 Y-21 E1732.81649
G0 F18000 X24.482 Y-21.5
G1 F2400 X-39.818 Y-21.499 E1736.82641
G0 F18000 X-39.516 Y-21.999
G1 F2400 X24.207 Y-22 E1740.80029
G0 F18000 X23.931 Y-22.5
G1 F2400 X-39.214 Y-22.499 E1744.73819
G0 F18000 X-38.912 Y-22.999
G1 F2400 X23.613 Y-23 E1748.63736
G0 F18000 X23.132 Y-23.5
G1 F2400 X-38.61 Y-23.499 E1752.48776
G0 F18000 X-38.308 Y-23.999
G1 F2400 X22.651 Y-24 E1756.28927
G0 F18000 X22.171 Y-24.5
G1 F2400 X-37.84 Y-24.499 E1760.03172
G0 F18000 X-37.319 Y-24.999
G1 F2400 X21.69 Y-25 E1763.71162
G0 F18000 X21.209 Y-25.5
G1 F2400 X-36.799 Y-25.499 E1767.32916
G0 F18000 X-36.279 Y-25.999
G1 F2400 X20.729 Y-26 E1770.88427
G0 F18000 X20.248 Y-26.5
G1 F2400 X-35.759 Y-26.499 E1774.37702
G0 F18000 X-35.238 Y-26.999
G1 F2400 X19.767 Y-27 E1777.80722
G0 F18000 X19.286 Y-27.5
G1 F2400 X-34.718 Y-27.499 E1781.17506
G0 F18000 X-34.198 Y-27.999
G1 F2400 X18.806 Y-28 E1784.48047
G0 F18000 X18.325 Y-28.5
G1 F2400 X-33.678 Y-28.499 E1787.72352
G0 F18000 X-33.157 Y-28.999
G1 F2400 X17.844 Y-29 E1790.90402
G0 F18000 X17.363 Y-29.5
G1 F2400 X-32.637 Y-29.499 E1794.02216
G0 F18000 X-32.117 Y-29.999
G1 F2400 X16.882 Y-30 E1797.07781
G0 F18000 X16.224 Y-30.5
G1 F2400 X-31.597 Y-30.499 E1800.06006
G0 F18000 X-31.076 Y-30.999
G1 F2400 X15.396 Y-31 E1802.95812
G0 F18000 X14.568 Y-31.5
G1 F2400 X-30.31 Y-31.499 E1805.75684
G0 F18000 X-29.403 Y-32
G1 F2400 X13.74 Y-32 E1808.44729
G0 F18000 X12.912 Y-32.5
G1 F2400 X-28.497 Y-32.5 E1811.02967
G0 F18000 X-27.59 Y-33
G1 F2400 X12.084 Y-33 E1813.50379
G0 F18000 X11.256 Y-33.5
G1 F2400 X-26.683 Y-33.5 E1815.86977
G0 F18000 X-25.776 Y-34
G1 F2400 X10.428 Y-34 E1818.12749
G0 F18000 X9.6 Y-34.5
G1 F2400 X-24.869 Y-34.5 E1820.27707
G0 F18000 X-23.962 Y-35
G1 F2400 X8.772 Y-35 E1822.31839
G0 F18000 X7.944 Y-35.5
G1 F2400 X-23.055 Y-35.5 E1824.25157
G0 F18000 X-22.148 Y-36
G1 F2400 X6.248 Y-36 E1826.02236
G0 F18000 X4.521 Y-36.5
G1 F2400 X-20.358 Y-36.5 E1827.57388
G0 F18000 X-18.333 Y-37
G0 X-18.333 Y-37
G1 F2400 X2.794 Y-37 E1828.89136
G0 F18000 X1.067 Y-37.5
G1 F2400 X-16.308 Y-37.5 E1829.97491
G0 F18000 X-14.283 Y-38
G1 F2400 X-0.66 Y-38 E1830.82442
G0 F18000 X-9.953 Y-38.5
G1 F2400 X-12.258 Y-38.5 E1830.96823
G0 F18000 X-4.397 Y-6.5
G0 X-4.397 Y-6.5
G1 F2400 X30.478 Y-6.5 E1833.14307
G0 F18000 X30.601 Y-6
G1 F2400 X-3.534 Y-6 E1835.27182
G0 F18000 X-2.882 Y-5.5
G1 F2400 X30.725 Y-5.5 E1837.36758
G0 F18000 X30.848 Y-5
G1 F2400 X-2.285 Y-5 E1839.43385
G0 F18000 X-1.902 Y-4.5
G1 F2400 X30.972 Y-4.5 E1841.4839
; LAYER:3
G0 F18000 X31.269 Y-4.094 Z1.2
; TYPE:WALL-INNER
G1 F2400 X31.067 Y6.15 E1842.1228
G1 X28.223 Y15.986 E1842.76133
G1 X22.925 Y24.758 E1843.40041
G1 X15.539 Y31.858 E1844.03932
G1 X6.568 Y36.805 E1844.6782
G1 X-3.374 Y39.261 E1845.31685
G1 X-13.62 Y39.059 E1845.95601
G1 X-23.456 Y36.214 E1846.59461
G1 X-32.228 Y30.917 E1847.23371
G1 X-39.305 Y23.556 E1847.87055
G1 X-44.275 Y14.561 E1848.51147
G1 X-46.731 Y4.615 E1849.15037
G1 X-46.529 Y-5.629 E1849.78934
G1 X-43.684 Y-15.465 E1850.42793
G1 X-38.393 Y-24.226 E1851.06621
G1 X-31 Y-31.337 E1851.70592
G1 X-22.029 Y-36.284 E1852.34477
G1 X-12.085 Y-38.739 E1852.98348
G1 X-1.839 Y-38.538 E1853.62251
G1 X7.995 Y-35.693 E1854.26086
G1 X16.766 Y-30.395 E1854.89985
G1 X23.867 Y-23.009 E1855.53877
G1 X28.806 Y-14.052 E1856.17659
G1 X31.269 Y-4.094 E1856.81625
G0 F18000 X-0.335 Y0.26
G0 X-0.335 Y0.26
G1 F2400 X-0.586 Y-1.653 E1856.93658
G1 X-1.325 Y-3.436 E1857.05703
G1 X-2.5 Y-4.968 E1857.17752
G1 X-4.032 Y-6.143 E1857.29801
G1 X-5.815 Y-6.882 E1857.41846
G1 X-7.73 Y-7.133 E1857.53897
G1 X-9.644 Y-6.882 E1857.65941
G1 X-11.427 Y-6.143 E1857.77981
G1 X-12.959 Y-4.968 E1857.90022
G1 X-14.134 Y-3.436 E1858.02062
G1 X-14.874 Y-1.653 E1858.14097
G1 X-15.125 Y0.26 E1858.26124
G1 X-14.874 Y2.174 E1858.38162
G1 X-14.134 Y3.957 E1858.50198
G1 X-12.959 Y5.489 E1858.62235
G1 X-11.427 Y6.664 E1858.7427
G1 X-9.644 Y7.403 E1858.86301
G1 X-7.73 Y7.656 E1858.98335
G1 X-5.815 Y7.403 E1859.10375
G1 X-4.032 Y6.664 E1859.22406
G1 X-2.5 Y5.489 E1859.34441
G1 X-1.325 Y3.957 E1859.46478
G1 X-0.586 Y2.174 E1859.58512
G1 X-0.335 Y0.26 E1859.7055
G0 F18000 X-0.839 Y0.26
; TYPE:WALL-OUTER
G1 F2100 X-1.073 Y-1.522 E1859.81759
G1 X-1.762 Y-3.184 E1859.92987
G1 X-2.857 Y-4.611 E1860.04213
G1 X-4.284 Y-5.706 E1860.15439
G1 X-5.946 Y-6.395 E1860.26667
G1 X-7.73 Y-6.629 E1860.37895
G1 X-9.513 Y-6.395 E1860.49115
G1 X-11.175 Y-5.706 E1860.60339
G1 X-12.602 Y-4.611 E1860.71557
G1 X-13.697 Y-3.184 E1860.82773
G1 X-14.387 Y-1.522 E1860.93992
G1 X-14.621 Y0.26 E1861.05195
G1 X-14.387 Y2.043 E1861.16409
G1 X-13.697 Y3.705 E1861.27629
G1 X-12.602 Y5.132 E1861.38843
G1 X-11.175 Y6.227 E1861.50055
G1 X-9.513 Y6.916 E1861.61269
G1 X-7.73 Y7.151 E1861.72478
G1 X-5.946 Y6.916 E1861.83694
G1 X-4.284 Y6.227 E1861.94908
G1 X-2.857 Y5.132 E1862.0612
G1 X-1.762 Y3.705 E1862.17334
G1 X-1.073 Y2.043 E1862.28552
G1 X-0.839 Y0.26 E1862.39765
G1 F6600 E1855.59765
G1 Z1.5
G0 F18000 X-0.493 Y0.305
G0 X31.32 Y-4.101
G0 X31.716 Y-4.156
G0 X31.421 Y-4.115
G0 X31.421 Y-4.115
G0 X31.77 Y-4.148
G1 Z1.2
G1 F6600 E1862.49765
G1 F2100 X31.566 Y6.224 E1863.14454
G1 X28.684 Y16.19 E1863.79152
G1 X23.319 Y25.074 E1864.43873
G1 X15.841 Y32.263 E1865.08563
G1 X6.752 Y37.274 E1865.73288
G1 X-3.32 Y39.762 E1866.37988
G1 X-13.694 Y39.558 E1867.02702
G1 X-23.66 Y36.675 E1867.67407
G1 X-32.544 Y31.311 E1868.32131
G1 X-39.708 Y23.859 E1868.966
G1 X-44.744 Y14.744 E1869.61546
G1 X-47.232 Y4.669 E1870.26265
G1 X-47.028 Y-5.703 E1870.9096
G1 X-44.145 Y-15.669 E1871.55663
G1 X-38.787 Y-24.542 E1872.20306
G1 X-31.302 Y-31.742 E1872.85075
G1 X-22.213 Y-36.753 E1873.49797
G1 X-12.139 Y-39.24 E1874.14503
G1 X-1.765 Y-39.037 E1874.79204
G1 X8.199 Y-36.154 E1875.43884
G1 X17.082 Y-30.789 E1876.08597
G1 X24.272 Y-23.311 E1876.73287
G1 X29.275 Y-14.237 E1877.379
G1 X31.77 Y-4.148 E1878.02707
G0 F18000 X31 Y-4.386
; TYPE:FILL
G1 F2400 X31 Y-0.096 E1878.29455
G0 F18000 X30.5 Y-6.408
G0 X30.5 Y-6.408
G1 F2400 X30.5 Y7.427 E1879.15727
G0 F18000 X30 Y9.155
G0 X30 Y9.155
G1 F2400 X30 Y-8.43 E1880.25392
G0 F18000 X29.5 Y-10.451
G0 X29.5 Y-10.451
G1 F2400 X29.5 Y10.883 E1881.58431
G0 F18000 X29 Y12.61
G0 X29 Y12.61
G1 F2400 X29 Y-12.473 E1883.14855
G0 F18000 X28.5 Y-14.211
G1 F2400 X28.5 Y14.338 E1884.92889
G0 F18000 X28 Y15.983
G1 F2400 X27.999 Y-15.118 E1886.86843
G0 F18000 X27.499 Y-16.025
G1 F2400 X27.5 Y16.811 E1888.91611
G0 F18000 X27 Y17.639
G1 F2400 X26.999 Y-16.932 E1891.07205
G0 F18000 X26.499 Y-17.839
G1 F2400 X26.5 Y18.467 E1893.33613
G0 F18000 X26 Y19.295
G1 F2400 X25.999 Y-18.746 E1895.70847
G0 F18000 X25.499 Y-19.653
G1 F2400 X25.5 Y20.123 E1898.18895
G0 F18000 X25 Y20.952
G1 F2400 X24.999 Y-20.56 E1900.77776
G0 F18000 X24.499 Y-21.467
G1 F2400 X24.5 Y21.78 E1903.4747
G0 F18000 X24 Y22.608
G1 F2400 X23.999 Y-22.374 E1906.2799
G0 F18000 X23.499 Y-23.116
G1 F2400 X23.5 Y23.436 E1909.18295
G0 F18000 X23 Y24.264
G1 F2400 X22.999 Y-23.637 E1912.17018
G0 F18000 X22.499 Y-24.157
G1 F2400 X22.5 Y24.901 E1915.22951
G0 F18000 X22 Y25.382
G1 F2400 X21.999 Y-24.677 E1918.35133
G0 F18000 X21.499 Y-25.197
G1 F2400 X21.5 Y25.863 E1921.53551
G0 F18000 X21 Y26.343
G1 F2400 X20.999 Y-25.717 E1924.78211
G0 F18000 X20.499 Y-26.237
G1 F2400 X20.5 Y26.824 E1928.09108
G0 F18000 X20 Y27.305
G1 F2400 X19.999 Y-26.757 E1931.46254
G0 F18000 X19.499 Y-27.277
G1 F2400 X19.5 Y27.785 E1934.89629
G0 F18000 X19 Y28.266
G1 F2400 X18.999 Y-27.797 E1938.39254
G0 F18000 X18.499 Y-28.317
G1 F2400 X18.5 Y28.747 E1941.95114
G0 F18000 X18 Y29.227
G1 F2400 X17.999 Y-28.837 E1945.57217
G0 F18000 X17.499 Y-29.357
G1 F2400 X17.5 Y29.708 E1949.25557
G0 F18000 X17 Y30.189
G1 F2400 X16.999 Y-29.877 E1953.00145
G0 F18000 X16.499 Y-30.333
G1 F2400 X16.5 Y30.67 E1956.8057
G0 F18000 X16 Y31.15
G1 F2400 X15.999 Y-30.635 E1960.65878
G0 F18000 X15.499 Y-30.937
G1 F2400 X15.5 Y31.631 E1964.56063
G0 F18000 X15 Y31.937
G1 F2400 X14.999 Y-31.239 E1968.50046
G0 F18000 X14.499 Y-31.541
G1 F2400 X14.5 Y32.214 E1972.47634
G0 F18000 X14 Y32.489
G1 F2400 X13.999 Y-31.843 E1976.48826
G0 F18000 X13.499 Y-32.145
G1 F2400 X13.5 Y32.765 E1980.53616
G0 F18000 X13 Y33.041
G1 F2400 X12.999 Y-32.447 E1984.62017
G0 F18000 X12.499 Y-32.749
G1 F2400 X12.5 Y33.316 E1988.74011
G0 F18000 X12 Y33.592
G1 F2400 X11.999 Y-33.051 E1992.89615
G0 F18000 X11.499 Y-33.353
G1 F2400 X11.5 Y33.868 E1997.08817
G0 F18000 X11 Y34.143
G1 F2400 X10.999 Y-33.655 E2001.31624
G0 F18000 X10.499 Y-33.957
G1 F2400 X10.5 Y34.419 E2005.5803
G0 F18000 X10 Y34.695
G1 F2400 X9.999 Y-34.259 E2009.88046
G0 F18000 X9.499 Y-34.561
G1 F2400 X9.5 Y34.97 E2014.21654
G0 F18000 X9 Y35.246
G1 F2400 X8.999 Y-34.863 E2018.58873
G0 F18000 X8.499 Y-35.165
G1 F2400 X8.5 Y35.522 E2022.9969
G0 F18000 X8 Y35.797
G1 F2400 X7.999 Y-35.467 E2027.44112
G0 F18000 X7.499 Y-35.638
G1 F2400 X7.5 Y36.073 E2031.91316
G0 F18000 X7 Y36.349
G1 F2400 X6.999 Y-35.782 E2036.41144
G0 F18000 X6.499 Y-35.927
G1 F2400 X6.5 Y36.624 E2040.93586
G0 F18000 X6 Y36.749
G1 F2400 X5.999 Y-36.072 E2045.47718
G0 F18000 X5.499 Y-36.217
G1 F2400 X5.5 Y36.872 E2050.03515
G0 F18000 X5 Y36.996
G1 F2400 X4.999 Y-36.361 E2054.60989
G0 F18000 X4.499 Y-36.506
G1 F2400 X4.5 Y37.119 E2059.20129
G0 F18000 X4 Y37.243
G1 F2400 X3.999 Y-36.651 E2063.80952
G0 F18000 X3.499 Y-36.796
G1 F2400 X3.5 Y37.366 E2068.4344
G0 F18000 X3 Y37.49
G1 F2400 X2.999 Y-36.94 E2073.07606
G0 F18000 X2.499 Y-37.085
G1 F2400 X2.5 Y37.613 E2077.73438
G0 F18000 X2 Y37.737
G1 F2400 X1.999 Y-37.23 E2082.40952
G0 F18000 X1.499 Y-37.375
G1 F2400 X1.5 Y37.86 E2087.10132
G0 F18000 X1 Y37.984
G1 F2400 X0.999 Y-37.519 E2091.8099
G0 F18000 X0.499 Y-37.664
G1 F2400 X0.5 Y38.108 E2096.53519
G0 F18000 X0 Y38.231
G1 F2400 X0 Y-37.809 E2101.27725
G0 F18000 X-0.5 Y-37.954
G1 F2400 X-0.5 Y-2.261 E2103.5031
G0 F18000 X-0.626 Y-2.247
G1 F2400 X-0.434 Y-2.087 E2103.52189
G1 X-0.159 Y-1.666 E2103.55316
G0 F18000 X-0.228 Y-0.395
G1 F2400 X0.077 Y0.077 E2103.59259
G1 X-0.061 Y-0.047 E2103.60784
G1 X-0.144 Y0.249 E2103.62697
G0 F18000 X-0.084 Y1.666
G1 F2400 X-0.413 Y2.065 E2103.64215
G1 X-0.35 Y2.724 E2103.68343
G0 F18000 X-0.499 Y2.77
G1 F2400 X-0.499 Y38.355 E2105.9026
G0 F18000 X-0.999 Y38.478
G1 F2400 X-0.999 Y3.993 E2108.05318
G0 F18000 X-1.358 Y4.31
G1 F2400 X-1.228 Y4.536 E2108.06941
G0 F18000 X-1.499 Y4.695
G1 F2400 X-1.499 Y38.602 E2110.18395
G0 F18000 X-1.999 Y38.725
G1 F2400 X-1.999 Y5.352 E2112.26518
G0 F18000 X-1.884 Y4.998
G1 F2400 X-1.579 Y4.998 E2112.28414
G0 F18000 X-2.475 Y5.708
G1 F2400 X-2.355 Y5.915 E2112.29903
G0 F18000 X-2.499 Y5.877
G1 F2400 X-2.499 Y38.849 E2114.35525
G0 F18000 X-2.999 Y38.972
G1 F2400 X-2.999 Y6.263 E2116.39507
G0 F18000 X-3.321 Y6.664
G1 F2400 X-3.765 Y6.697 E2116.42006
G1 X-3.814 Y6.888 E2116.43548
G1 X-4.146 Y7.181 E2116.46314
G0 F18000 X-3.999 Y6.991
G1 F2400 X-3.999 Y39.058 E2118.46293
G0 F18000 X-3.499 Y39.068
G1 F2400 X-3.499 Y6.649 E2120.48466
G0 F18000 X-4.499 Y7.198
G1 F2400 X-4.499 Y39.048 E2122.47092
G0 F18000 X-4.999 Y39.039
G1 F2400 X-4.999 Y7.405 E2124.4437
G0 F18000 X-5.216 Y7.624
G1 F2400 X-5.339 Y7.411 E2124.45907
G0 F18000 X-5.499 Y7.612
G1 F2400 X-5.499 Y39.029 E2126.41832
G0 F18000 X-5.999 Y39.019
G1 F2400 X-5.999 Y7.744 E2128.36872
G0 F18000 X-6.349 Y7.665
G1 F2400 X-6.503 Y7.932 E2128.38797
G0 F18000 X-6.499 Y7.81
G1 F2400 X-6.499 Y39.009 E2130.33363
G0 F18000 X-6.999 Y38.999
G1 F2400 X-6.999 Y7.876 E2132.27454
G0 F18000 X-6.93 Y7.987
G1 F2400 X-7.062 Y7.759 E2132.291
G0 F18000 X-7.499 Y7.942
G1 F2400 X-7.499 Y38.989 E2134.22718
G0 F18000 X-7.999 Y38.98
G1 F2400 X-7.999 Y7.936 E2136.16317
G0 F18000 X-8.332 Y7.768
G1 F2400 X-8.464 Y7.996 E2136.17963
G0 F18000 X-8.499 Y7.871
G1 F2400 X-8.499 Y38.97 E2138.11905
G0 F18000 X-8.999 Y38.96
G1 F2400 X-8.999 Y7.805 E2140.06196
G0 F18000 X-9.035 Y7.674
G1 F2400 X-8.881 Y7.94 E2140.0811
G0 F18000 X-9.499 Y7.739
G1 F2400 X-9.499 Y38.95 E2142.0275
G0 F18000 X-9.999 Y38.94
G1 F2400 X-9.999 Y7.596 E2143.9822
G0 F18000 X-10.063 Y7.434
G1 F2400 X-10.186 Y7.648 E2143.99762
G0 F18000 X-10.5 Y7.388
G1 F2400 X-10.499 Y38.931 E2145.96473
G0 F18000 X-10.999 Y38.921
G1 F2400 X-11 Y7.181 E2147.94413
G0 F18000 X-11.222 Y7.218
G1 F2400 X-11.423 Y6.87 E2147.96922
G0 F18000 X-11.5 Y6.974
G1 F2400 X-11.499 Y38.911 E2149.9609
G0 F18000 X-11.999 Y38.901
G1 F2400 X-12 Y6.621 E2151.97397
G0 F18000 X-12.142 Y6.664
G1 F2400 X-11.668 Y6.715 E2151.99925
G1 X-11.726 Y6.982 E2152.0163
G0 F18000 X-12.5 Y6.237
G1 F2400 X-12.499 Y38.891 E2154.05269
G0 F18000 X-12.999 Y38.882
G1 F2400 X-13 Y5.854 E2156.11241
G0 F18000 X-13.059 Y5.959
G1 F2400 X-12.935 Y5.744 E2156.12786
G0 F18000 X-13.5 Y5.301
G1 F2400 X-13.499 Y38.872 E2158.22144
G0 F18000 X-13.999 Y38.752
G1 F2400 X-14 Y4.65 E2160.34813
G0 F18000 X-14.194 Y4.593
G1 F2400 X-14.06 Y4.362 E2160.36475
G0 F18000 X-14.5 Y3.88
G1 F2400 X-14.499 Y38.607 E2162.53043
G0 F18000 X-14.999 Y38.463
G1 F2400 X-15 Y2.686 E2164.76158
G0 F18000 X-15.081 Y2.798
G1 F2400 X-14.893 Y2.933 E2164.78056
G1 X-14.599 Y3.332 E2164.81143
G0 F18000 X-15.133 Y1.666
G0 X-15.133 Y1.666
G1 F2400 X-15.373 Y1.666 E2164.82646
G0 F18000 X-15.559 Y0.293
G1 F2400 X-15.266 Y-0.12 E2164.86488
G1 X-15.511 Y-0.094 E2164.8799
G1 X-15.301 Y0.152 E2164.89999
G0 F18000 X-15.31 Y-1.665
G0 X-15.31 Y-1.665
G1 F2400 X-15.065 Y-1.665 E2164.9152
G0 F18000 X-15 Y-2.152
G1 F2400 X-15 Y-37.823 E2167.13981
G0 F18000 X-14.5 Y-37.946
G1 F2400 X-14.5 Y-3.371 E2169.29594
G0 F18000 X-14.382 Y-3.331
G1 F2400 X-14.801 Y-2.954 E2169.31253
G1 X-14.803 Y-2.316 E2169.35225
G0 F18000 X-13.888 Y-4.064
G0 X-13.888 Y-4.064
G1 F2400 X-14.019 Y-4.29 E2169.36863
G0 F18000 X-14 Y-4.119
G1 F2400 X-14 Y-38.07 E2171.48597
G0 F18000 X-13.5 Y-38.193
G1 F2400 X-13.5 Y-4.776 E2173.56988
G0 F18000 X-13.483 Y-4.997
G1 F2400 X-13.174 Y-4.997 E2173.58909
G0 F18000 X-13 Y-5.324
G1 F2400 X-13 Y-38.316 E2175.64663
G0 F18000 X-12.5 Y-38.44
G1 F2400 X-12.5 Y-5.711 E2177.68763
G0 F18000 X-12.847 Y-5.593
G1 F2400 X-12.726 Y-5.383 E2177.70266
G0 F18000 X-11.927 Y-5.996
G1 F2400 X-11.556 Y-6.559 E2177.74145
G1 X-11.373 Y-6.37 E2177.75777
G0 F18000 X-11.5 Y-6.453
G1 F2400 X-11.5 Y-38.537 E2179.75868
G0 F18000 X-12 Y-38.547
G1 F2400 X-12 Y-6.097 E2181.78229
G0 F18000 X-11.306 Y-6.663
G1 F2400 X-10.666 Y-6.663 E2181.82213
G0 F18000 X-10.5 Y-6.867
G1 F2400 X-10.5 Y-38.518 E2183.79604
G0 F18000 X-11 Y-38.527
G1 F2400 X-11 Y-6.66 E2185.78329
G0 F18000 X-10 Y-7.075
G1 F2400 X-10 Y-38.508 E2187.7436
G0 F18000 X-9.5 Y-38.498
G1 F2400 X-9.5 Y-7.218 E2189.69425
G0 F18000 X-9.36 Y-7.11
G1 F2400 X-9.206 Y-7.377 E2189.71349
G0 F18000 X-9 Y-7.284
G1 F2400 X-9 Y-38.488 E2191.65952
G0 F18000 X-8.5 Y-38.478
G1 F2400 X-8.5 Y-7.349 E2193.60075
G0 F18000 X-8.185 Y-7.513
G1 F2400 X-8.052 Y-7.282 E2193.61729
G0 F18000 X-8 Y-7.415
G1 F2400 X-8 Y-38.469 E2195.55396
G0 F18000 X-7.5 Y-38.459
G1 F2400 X-7.5 Y-7.421 E2197.48952
G0 F18000 X-7.342 Y-7.273
G1 F2400 X-7.21 Y-7.503 E2197.50608
G0 F18000 X-7 Y-7.355
G1 F2400 X-7 Y-38.449 E2199.44525
G0 F18000 X-6.5 Y-38.439
G1 F2400 X-6.5 Y-7.289 E2201.38778
G0 F18000 X-6.177 Y-7.368
G1 F2400 X-6.024 Y-7.102 E2201.40684
G0 F18000 X-6 Y-7.223
G1 F2400 X-6 Y-38.43 E2203.35305
G0 F18000 X-5.5 Y-38.42
G1 F2400 X-5.5 Y-7.092 E2205.30669
G0 F18000 X-5.459 Y-7.203
G1 F2400 X-5.581 Y-6.991 E2205.32192
G0 F18000 X-5 Y-6.885
G1 F2400 X-5 Y-38.41 E2207.28797
G0 F18000 X-4.5 Y-38.4
G1 F2400 X-4.5 Y-6.677 E2209.26624
G0 F18000 X-4.792 Y-6.664
G1 F2400 X-4.153 Y-6.664 E2209.30603
G0 F18000 X-4 Y-6.47
G1 F2400 X-4 Y-38.391 E2211.29677
G0 F18000 X-3.5 Y-38.381
G1 F2400 X-3.5 Y-6.132 E2213.30785
G0 F18000 X-3.406 Y-5.901
G1 F2400 X-3.818 Y-6.509 E2213.34814
G1 X-4.03 Y-6.346 E2213.36483
G0 F18000 X-3 Y-5.749
G1 F2400 X-3 Y-38.371 E2215.39929
G0 F18000 X-2.5 Y-38.361
G1 F2400 X-2.5 Y-5.366 E2217.45688
G0 F18000 X-2.684 Y-5.346
G1 F2400 X-2.421 Y-5.28 E2217.47244
G1 X-1.974 Y-4.998 E2217.50531
G0 F18000 X-2 Y-4.834
G1 F2400 X-2 Y-38.352 E2219.59565
G0 F18000 X-1.5 Y-38.243
G1 F2400 X-1.5 Y-4.182 E2221.71972
G0 F18000 X-1.397 Y-4.244
G1 F2400 X-1.53 Y-4.013 E2221.73632
G0 F18000 X-1 Y-3.457
G1 F2400 X-1 Y-38.098 E2223.89669
G0 F18000 X-15.5 Y-37.699
G0 X-15.5 Y-37.699
G1 F2400 X-15.499 Y38.318 E2228.63726
G0 F18000 X-15.999 Y38.173
G1 F2400 X-16 Y-37.576 E2233.36118
G0 F18000 X-16.5 Y-37.452
G1 F2400 X-16.499 Y38.028 E2238.06826
G0 F18000 X-16.999 Y37.884
G1 F2400 X-17 Y-37.329 E2242.75875
G0 F18000 X-17.5 Y-37.206
G1 F2400 X-17.499 Y37.739 E2247.43246
G0 F18000 X-17.999 Y37.594
G1 F2400 X-18 Y-37.082 E2252.08946
G0 F18000 X-18.5 Y-36.959
G1 F2400 X-18.499 Y37.45 E2256.72975
G0 F18000 X-18.999 Y37.305
G1 F2400 X-19 Y-36.835 E2261.35332
G0 F18000 X-19.5 Y-36.712
G1 F2400 X-19.499 Y37.16 E2265.96012
G0 F18000 X-19.999 Y37.016
G1 F2400 X-20 Y-36.588 E2270.55027
G0 F18000 X-20.5 Y-36.465
G1 F2400 X-20.499 Y36.871 E2275.12364
G0 F18000 X-20.999 Y36.726
G1 F2400 X-21 Y-36.341 E2279.6803
G0 F18000 X-21.5 Y-36.218
G1 F2400 X-21.499 Y36.581 E2284.22019
G0 F18000 X-21.999 Y36.437
G1 F2400 X-22 Y-36.082 E2288.74267
G0 F18000 X-22.5 Y-35.806
G1 F2400 X-22.499 Y36.292 E2293.23884
G0 F18000 X-22.999 Y36.147
G1 F2400 X-23 Y-35.53 E2297.70881
G0 F18000 X-23.5 Y-35.255
G1 F2400 X-23.499 Y35.964 E2302.15016
G0 F18000 X-23.999 Y35.662
G1 F2400 X-24 Y-34.979 E2306.55553
G0 F18000 X-24.5 Y-34.703
G1 F2400 X-24.499 Y35.361 E2310.92485
G0 F18000 X-24.999 Y35.059
G1 F2400 X-25 Y-34.428 E2315.25825
G0 F18000 X-25.5 Y-34.152
G1 F2400 X-25.499 Y34.757 E2319.55554
G0 F18000 X-25.999 Y34.455
G1 F2400 X-26 Y-33.876 E2323.81685
G0 F18000 X-26.5 Y-33.601
G1 F2400 X-26.499 Y34.153 E2328.04212
G0 F18000 X-26.999 Y33.851
G1 F2400 X-27 Y-33.325 E2332.2314
G0 F18000 X-27.5 Y-33.049
G1 F2400 X-27.499 Y33.549 E2336.38457
G0 F18000 X-27.999 Y33.247
G1 F2400 X-28 Y-32.774 E2340.50182
G0 F18000 X-28.5 Y-32.497
G1 F2400 X-28.499 Y32.945 E2344.5829
G0 F18000 X-28.999 Y32.643
G1 F2400 X-29 Y-32.221 E2348.628
G0 F18000 X-29.5 Y-31.946
G1 F2400 X-29.499 Y32.341 E2352.63705
G0 F18000 X-29.999 Y32.039
G1 F2400 X-30 Y-31.67 E2356.61012
G0 F18000 X-30.5 Y-31.394
G1 F2400 X-30.499 Y31.738 E2360.54714
G0 F18000 X-30.999 Y31.436
G1 F2400 X-31 Y-31.072 E2364.44531
G0 F18000 X-31.5 Y-30.591
G1 F2400 X-31.499 Y31.134 E2368.29459
G0 F18000 X-31.999 Y30.832
G1 F2400 X-32 Y-30.111 E2372.09517
G0 F18000 X-32.5 Y-29.63
G1 F2400 X-32.499 Y30.359 E2375.83618
G0 F18000 X-32.999 Y29.839
G1 F2400 X-33 Y-29.149 E2379.51484
G0 F18000 X-33.5 Y-28.668
G1 F2400 X-33.5 Y29.319 E2383.131
G0 F18000 X-34 Y28.799
G1 F2400 X-34 Y-28.187 E2386.68481
G0 F18000 X-34.5 Y-27.706
G1 F2400 X-34.5 Y28.279 E2390.17612
G0 F18000 X-35 Y27.759
G1 F2400 X-35 Y-27.225 E2393.60508
G0 F18000 X-35.5 Y-26.744
G1 F2400 X-35.5 Y27.239 E2396.97154
G0 F18000 X-36 Y26.719
G1 F2400 X-36 Y-26.263 E2400.27565
G0 F18000 X-36.5 Y-25.782
G1 F2400 X-36.5 Y26.199 E2403.51726
G0 F18000 X-37 Y25.679
G1 F2400 X-37 Y-25.302 E2406.69658
G0 F18000 X-37.5 Y-24.821
G1 F2400 X-37.5 Y25.159 E2409.81341
G0 F18000 X-38 Y24.639
G1 F2400 X-38 Y-24.34 E2412.86787
G0 F18000 X-38.5 Y-23.68
G1 F2400 X-38.5 Y24.119 E2415.84869
G0 F18000 X-39 Y23.599
G1 F2400 X-39 Y-22.852 E2418.7455
G0 F18000 X-39.5 Y-22.024
G1 F2400 X-39.5 Y22.809 E2421.54135
G0 F18000 X-40 Y21.904
G1 F2400 X-40 Y-21.196 E2424.22918
G0 F18000 X-40.5 Y-20.368
G1 F2400 X-40.5 Y20.999 E2426.80888
G0 F18000 X-41 Y20.094
G1 F2400 X-41 Y-19.54 E2429.28056
G0 F18000 X-41.5 Y-18.712
G1 F2400 X-41.5 Y19.189 E2431.64411
G0 F18000 X-42 Y18.284
G1 F2400 X-42 Y-17.884 E2433.89965
G0 F18000 X-42.5 Y-17.055
G1 F2400 X-42.5 Y17.379 E2436.04699
G0 F18000 X-43 Y16.474
G1 F2400 X-43 Y-16.227 E2438.08631
G0 F18000 X-43.5 Y-15.399
G1 F2400 X-43.5 Y15.569 E2440.0175
G0 F18000 X-44 Y14.664
G1 F2400 X-44 Y-13.686 E2441.78548
G0 F18000 X-44.5 Y-11.958
G0 X-44.5 Y-11.958
G1 F2400 X-44.5 Y12.854 E2443.33276
G0 F18000 X-45 Y10.829
G0 X-45 Y10.829
G1 F2400 X-45 Y-10.23 E2444.64606
G0 F18000 X-45.5 Y-8.503
G0 X-45.5 Y-8.503
G1 F2400 X-45.5 Y8.804 E2445.72531
G0 F18000 X-46 Y6.779
G0 X-46 Y6.779
G1 F2400 X-46 Y-6.775 E2446.57058
G0 F18000 X-46.5 Y2.553
G0 X-46.5 Y2.553
G1 F2400 X-46.5 Y4.754 E2446.70784
G0 F18000 X-13.884 Y4.998
G0 X-13.884 Y4.998
G1 F2400 X-13.573 Y4.998 E2446.72717
G0 F18000 X-13.471 Y4.677
G0 X-14.089 Y3.931
G0 X-14.823 Y2.16
G0 X-15.073 Y0.26
G0 X-14.823 Y-1.639
G0 X-14.089 Y-3.41
G0 X-12.922 Y-4.931
G0 X-11.4 Y-6.098
G0 X-9.93 Y-6.658
G0 X-9.82 Y-7.014
G0 X-9.82 Y-7.014
G1 F2400 X-9.943 Y-7.227 E2446.74259
G0 F18000 X-9.01 Y-6.816
G0 X-7.73 Y-7.081
G0 X-5.83 Y-6.831
G0 X-4.059 Y-6.098
G0 X-2.537 Y-4.931
G0 X-1.621 Y-3.57
G0 X-1.076 Y-3.332
G0 X-1.076 Y-3.332
G1 F2400 X-0.818 Y-3.332 E2446.75862
G0 F18000 X-0.827 Y-1.784
G0 X-0.637 Y-1.638
G0 X-0.387 Y0.26
G0 X-0.853 Y2.474
G0 X-0.859 Y3.332
G0 X-0.859 Y3.332
G1 F2400 X-0.598 Y3.332 E2446.77483
; LAYER:4
G0 F18000 X-1.325 Y3.957 Z1.5
; TYPE:WALL-INNER
G1 F2400 X-0.586 Y2.174 E2446.89518
G1 X-0.335 Y0.26 E2447.01555
G1 X-0.586 Y-1.653 E2447.13588
G1 X-1.325 Y-3.436 E2447.25633
G1 X-2.5 Y-4.968 E2447.37682
G1 X-4.032 Y-6.143 E2447.49731
G1 X-5.815 Y-6.882 E2447.61776
G1 X-7.73 Y-7.133 E2447.73828
G1 X-9.644 Y-6.882 E2447.85871
G1 X-11.427 Y-6.143 E2447.97911
G1 X-12.959 Y-4.968 E2448.09953
G1 X-14.134 Y-3.436 E2448.21992
G1 X-14.874 Y-1.653 E2448.34028
G1 X-15.125 Y0.26 E2448.46055
G1 X-14.874 Y2.174 E2448.58092
G1 X-14.134 Y3.957 E2448.70129
G1 X-12.959 Y5.489 E2448.82165
G1 X-11.427 Y6.664 E2448.94201
G1 X-9.644 Y7.403 E2449.06232
G1 X-7.73 Y7.655 E2449.18265
G1 X-5.815 Y7.403 E2449.30304
G1 X-4.032 Y6.664 E2449.42335
G1 X-2.5 Y5.489 E2449.5437
G1 X-1.325 Y3.957 E2449.66407
G0 F18000 X28.223 Y15.986
G0 X28.223 Y15.986
G1 F2400 X22.925 Y24.758 E2450.30315
G1 X15.539 Y31.858 E2450.94206
G1 X6.568 Y36.805 E2451.58094
G1 X-3.374 Y39.261 E2452.21959
G1 X-13.62 Y39.059 E2452.85875
G1 X-23.456 Y36.214 E2453.49735
G1 X-32.228 Y30.917 E2454.13645
G1 X-39.329 Y23.53 E2454.7755
G1 X-44.275 Y14.56 E2455.41432
G1 X-46.731 Y4.615 E2456.05317
G1 X-46.529 Y-5.629 E2456.69214
G1 X-43.684 Y-15.465 E2457.33072
G1 X-38.394 Y-24.225 E2457.96892
G1 X-31.003 Y-31.336 E2458.60854
G1 X-22.028 Y-36.284 E2459.24764
G1 X-12.085 Y-38.739 E2459.88629
G1 X-1.839 Y-38.538 E2460.52532
G1 X7.995 Y-35.693 E2461.16367
G1 X16.766 Y-30.395 E2461.80266
G1 X23.867 Y-23.009 E2462.44157
G1 X28.804 Y-14.056 E2463.07912
G1 X31.269 Y-4.094 E2463.71905
G1 X31.067 Y6.15 E2464.35796
G1 X28.223 Y15.986 E2464.99648
G0 F18000 X28.684 Y16.19
; TYPE:WALL-OUTER
G1 F2100 X23.319 Y25.074 E2465.6437
G1 X15.841 Y32.263 E2466.2906
G1 X6.752 Y37.274 E2466.93785
G1 X-3.32 Y39.762 E2467.58485
G1 X-13.694 Y39.558 E2468.23199
G1 X-23.66 Y36.675 E2468.87904
G1 X-32.544 Y31.311 E2469.52628
G1 X-39.734 Y23.832 E2470.17331
G1 X-44.744 Y14.744 E2470.8205
G1 X-47.232 Y4.669 E2471.4677
G1 X-47.028 Y-5.703 E2472.11465
G1 X-44.145 Y-15.669 E2472.76168
G1 X-38.789 Y-24.539 E2473.40788
G1 X-31.302 Y-31.742 E2474.05579
G1 X-22.212 Y-36.753 E2474.70307
G1 X-12.139 Y-39.24 E2475.35007
G1 X-1.765 Y-39.037 E2475.99708
G1 X8.199 Y-36.154 E2476.64387
G1 X17.082 Y-30.789 E2477.29101
G1 X24.272 Y-23.311 E2477.9379
G1 X29.273 Y-14.241 E2478.58376
G1 X31.77 Y-4.148 E2479.2321
G1 X31.566 Y6.224 E2479.87899
G1 X28.684 Y16.19 E2480.52597
G1 F6600 E2473.72597
G1 Z1.8
G0 F18000 X28.364 Y16.045
G0 X-1.379 Y3.959
G0 X-1.75 Y3.809
G0 X-1.485 Y3.918
G0 X-1.485 Y3.918
G0 X-1.762 Y3.705
G1 Z1.5
G1 F6600 E2480.62597
G1 F2100 X-1.073 Y2.043 E2480.73814
G1 X-0.839 Y0.26 E2480.85028
G1 X-1.073 Y-1.522 E2480.96237
G1 X-1.762 Y-3.184 E2481.07466
G1 X-2.857 Y-4.611 E2481.18691
G1 X-4.284 Y-5.706 E2481.29917
G1 X-5.946 Y-6.395 E2481.41146
G1 X-7.73 Y-6.629 E2481.52373
G1 X-9.513 Y-6.395 E2481.63593
G1 X-11.175 Y-5.706 E2481.74817
G1 X-12.602 Y-4.611 E2481.86035
G1 X-13.697 Y-3.184 E2481.97251
G1 X-14.387 Y-1.522 E2482.0847
G1 X-14.621 Y0.26 E2482.19674
G1 X-14.387 Y2.043 E2482.30887
G1 X-13.697 Y3.705 E2482.42107
G1 X-12.602 Y5.132 E2482.53321
G1 X-11.175 Y6.227 E2482.64533
G1 X-9.513 Y6.916 E2482.75747
G1 X-7.73 Y7.151 E2482.86957
G1 X-5.946 Y6.916 E2482.98172
G1 X-4.284 Y6.227 E2483.09386
G1 X-2.857 Y5.132 E2483.20599
G1 X-1.762 Y3.705 E2483.31812
G0 F18000 X-1.358 Y4.31
; TYPE:FILL
G1 F2400 X-1.228 Y4.536 E2483.33435
G0 F18000 X-1.35 Y4.5
G1 F2400 X30.91 Y4.499 E2485.34611
G0 F18000 X30.9 Y4.999
G1 F2400 X-1.731 Y5 E2487.38107
G0 F18000 X-1.579 Y4.998
G1 F2400 X-1.884 Y4.998 E2487.40015
G0 F18000 X-2.112 Y5.5
G1 F2400 X30.89 Y5.499 E2489.45818
G0 F18000 X30.88 Y5.999
G1 F2400 X-2.658 Y6 E2491.54971
G0 F18000 X-2.355 Y5.915
G1 F2400 X-2.475 Y5.708 E2491.56466
G0 F18000 X-3.305 Y6.5
G1 F2400 X30.769 Y6.499 E2493.68955
G0 F18000 X30.624 Y6.999
G1 F2400 X-4.019 Y7 E2495.84998
G0 F18000 X-3.944 Y6.832
G1 F2400 X-3.915 Y7.062 E2495.87518
G1 X-3.765 Y6.697 E2495.89057
G1 X-3.321 Y6.664 E2495.91827
G0 F18000 X-5.225 Y7.5
G0 X-5.225 Y7.5
G1 F2400 X30.479 Y7.499 E2498.14481
G0 F18000 X30.335 Y7.999
G1 F2400 X-45.698 Y8 E2502.88644
G0 F18000 X-45.575 Y8.5
G1 F2400 X30.19 Y8.499 E2507.61129
G0 F18000 X30.045 Y8.999
G1 F2400 X-45.451 Y9 E2512.31943
G0 F18000 X-45.328 Y9.5
G1 F2400 X29.901 Y9.499 E2517.01085
G0 F18000 X29.756 Y9.999
G1 F2400 X-45.205 Y10 E2521.68563
G0 F18000 X-45.081 Y10.5
G1 F2400 X29.611 Y10.499 E2526.34356
G0 F18000 X29.467 Y10.999
G1 F2400 X-44.958 Y11 E2530.98491
G0 F18000 X-44.834 Y11.5
G1 F2400 X29.322 Y11.499 E2535.60942
G0 F18000 X29.178 Y11.999
G1 F2400 X-44.711 Y12 E2540.21734
G0 F18000 X-44.587 Y12.5
G1 F2400 X29.033 Y12.499 E2544.80843
G0 F18000 X28.888 Y12.999
G1 F2400 X-44.464 Y13 E2549.38286
G0 F18000 X-44.34 Y13.5
G1 F2400 X28.744 Y13.499 E2553.94052
G0 F18000 X28.599 Y13.999
G1 F2400 X-44.217 Y14 E2558.48152
G0 F18000 X-44.09 Y14.5
G1 F2400 X28.454 Y14.499 E2563.0055
G0 F18000 X28.31 Y14.999
G1 F2400 X-43.814 Y15 E2567.50335
G0 F18000 X-43.539 Y15.5
G1 F2400 X28.165 Y15.499 E2571.97495
G0 F18000 X27.991 Y15.999
G1 F2400 X-43.263 Y16 E2576.41855
G0 F18000 X-42.987 Y16.5
G1 F2400 X27.69 Y16.5 E2580.8261
G0 F18000 X27.388 Y17
G1 F2400 X-42.712 Y17 E2585.19773
G0 F18000 X-42.436 Y17.5
G1 F2400 X27.086 Y17.5 E2589.53325
G0 F18000 X26.784 Y18
G1 F2400 X-42.16 Y18 E2593.83278
G0 F18000 X-41.885 Y18.5
G1 F2400 X26.482 Y18.5 E2598.09628
G0 F18000 X26.18 Y19
G1 F2400 X-41.609 Y19 E2602.32378
G0 F18000 X-41.333 Y19.5
G1 F2400 X25.878 Y19.5 E2606.51519
G0 F18000 X25.576 Y20
G1 F2400 X-41.058 Y20 E2610.67066
G0 F18000 X-40.782 Y20.5
G1 F2400 X25.274 Y20.5 E2614.79004
G0 F18000 X24.972 Y21
G1 F2400 X-40.506 Y21 E2618.87342
G0 F18000 X-40.231 Y21.5
G1 F2400 X24.67 Y21.5 E2622.92077
G0 F18000 X24.368 Y22
G1 F2400 X-39.955 Y22 E2626.93213
G0 F18000 X-39.68 Y22.5
G1 F2400 X24.067 Y22.5 E2630.9075
G0 F18000 X23.765 Y23
G1 F2400 X-39.404 Y23 E2634.8469
G0 F18000 X-39.094 Y23.5
G1 F2400 X23.463 Y23.5 E2638.74806
G0 F18000 X23.161 Y24
G1 F2400 X-38.614 Y24 E2642.60052
G0 F18000 X-38.133 Y24.5
G1 F2400 X22.859 Y24.5 E2646.40409
G0 F18000 X22.399 Y25
G1 F2400 X-37.652 Y25 E2650.14903
G0 F18000 X-37.171 Y25.5
G1 F2400 X21.879 Y25.5 E2653.83149
G0 F18000 X21.359 Y26
G1 F2400 X-36.691 Y26 E2657.45165
G0 F18000 X-36.21 Y26.5
G1 F2400 X20.839 Y26.5 E2661.00932
G0 F18000 X20.319 Y27
G1 F2400 X-35.729 Y27 E2664.50463
G0 F18000 X-35.249 Y27.5
G1 F2400 X19.799 Y27.5 E2667.93751
G0 F18000 X19.278 Y28
G1 F2400 X-34.768 Y28 E2671.30797
G0 F18000 X-34.287 Y28.5
G1 F2400 X18.758 Y28.5 E2674.61594
G0 F18000 X18.238 Y29
G1 F2400 X-33.807 Y29 E2677.8616
G0 F18000 X-33.326 Y29.5
G1 F2400 X17.718 Y29.5 E2681.04479
G0 F18000 X17.198 Y30
G1 F2400 X-32.845 Y30 E2684.16561
G0 F18000 X-32.364 Y30.5
G1 F2400 X16.678 Y30.5 E2687.22394
G0 F18000 X16.157 Y31
G1 F2400 X-31.72 Y31 E2690.20968
G0 F18000 X-30.892 Y31.5
G1 F2400 X15.637 Y31.5 E2693.11129
G0 F18000 X14.887 Y32
G1 F2400 X-30.064 Y32 E2695.91456
G0 F18000 X-29.236 Y32.5
G1 F2400 X13.98 Y32.5 E2698.60957
G0 F18000 X13.074 Y33
G1 F2400 X-28.408 Y33 E2701.1965
G0 F18000 X-27.58 Y33.5
G1 F2400 X12.167 Y33.5 E2703.67517
G0 F18000 X11.26 Y34
G1 F2400 X-26.752 Y34 E2706.0457
G0 F18000 X-25.924 Y34.5
G1 F2400 X10.353 Y34.5 E2708.30797
G0 F18000 X9.446 Y35
G1 F2400 X-25.096 Y35 E2710.46211
G0 F18000 X-24.268 Y35.5
G1 F2400 X8.539 Y35.5 E2712.50798
G0 F18000 X7.632 Y36
G1 F2400 X-23.44 Y36 E2714.44572
G0 F18000 X-21.781 Y36.5
G1 F2400 X6.726 Y36.5 E2716.22343
G0 F18000 X4.983 Y37
G1 F2400 X-20.053 Y37 E2717.78474
G0 F18000 X-18.325 Y37.5
G0 X-18.325 Y37.5
G1 F2400 X2.959 Y37.5 E2719.11201
G0 F18000 X0.935 Y38
G1 F2400 X-16.597 Y38 E2720.20535
G0 F18000 X-14.87 Y38.5
G1 F2400 X-1.088 Y38.5 E2721.06477
G0 F18000 X-3.112 Y39
G1 F2400 X-6.964 Y39 E2721.30506
G0 F18000 X-6.93 Y7.987
G0 X-6.93 Y7.987
G1 F2400 X-6.782 Y7.845 E2721.32155
G1 X-6.349 Y7.665 E2721.35074
G0 F18000 X-5.339 Y7.411
G1 F2400 X-5.216 Y7.624 E2721.36604
G0 F18000 X-8.332 Y7.767
G0 X-8.332 Y7.767
G1 F2400 X-8.672 Y7.968 E2721.38253
G1 X-9.035 Y7.673 E2721.41175
G0 F18000 X-10.063 Y7.434
G1 F2400 X-10.186 Y7.648 E2721.42718
G0 F18000 X-10.231 Y7.5
G1 F2400 X-45.822 Y7.5 E2723.64679
G0 F18000 X-45.945 Y7
G1 F2400 X-11.438 Y7 E2725.79868
G0 F18000 X-11.423 Y6.87
G1 F2400 X-11.474 Y7.1 E2725.82377
G1 X-11.668 Y6.715 E2725.83927
G1 X-12.142 Y6.664 E2725.86906
G0 F18000 X-12.158 Y6.5
G1 F2400 X-46.069 Y6.5 E2727.98391
G0 F18000 X-46.192 Y6
G1 F2400 X-12.81 Y6 E2730.06564
G0 F18000 X-13.059 Y5.959
G1 F2400 X-12.935 Y5.744 E2730.08109
G0 F18000 X-13.347 Y5.5
G1 F2400 X-46.316 Y5.5 E2732.13719
G0 F18000 X-46.439 Y5
G1 F2400 X-13.731 Y5 E2734.17689
G0 F18000 X-13.884 Y4.998
G1 F2400 X-13.573 Y4.998 E2734.19622
G0 F18000 X-14.115 Y4.5
G1 F2400 X-46.538 Y4.5 E2736.21827
G0 F18000 X-46.528 Y4
G1 F2400 X-14.45 Y4 E2738.21868
G0 F18000 X-14.06 Y4.362
G1 F2400 X-14.194 Y4.593 E2738.23536
G0 F18000 X-14.659 Y3.5
G1 F2400 X-46.519 Y3.5 E2740.2223
G0 F18000 X-46.509 Y3
G1 F2400 X-14.868 Y3 E2742.19546
G0 F18000 X-15.081 Y2.798
G1 F2400 X-14.929 Y2.534 E2742.21443
G0 F18000 X-15.078 Y2.5
G1 F2400 X-46.499 Y2.5 E2744.17399
G0 F18000 X-46.489 Y2
G1 F2400 X-15.207 Y2 E2746.12476
G0 F18000 X-15.133 Y1.666
G1 F2400 X-15.373 Y1.666 E2746.13979
G0 F18000 X-15.275 Y1.5
G1 F2400 X-46.479 Y1.5 E2748.08582
G0 F18000 X-46.47 Y1
G1 F2400 X-15.343 Y1 E2750.02692
G0 F18000 X-15.411 Y0.5
G1 F2400 X-46.46 Y0.5 E2751.96329
G0 F18000 X-46.45 Y0
G1 F2400 X-15.402 Y0 E2753.89946
G0 F18000 X-15.283 Y0
G1 F2400 X-15.511 Y-0.094 E2753.91456
G1 X-15.43 Y0.222 E2753.939
G1 X-15.25 Y-0.241 E2753.96996
G0 F18000 X-15.338 Y-0.499
G1 F2400 X-46.44 Y-0.499 E2755.90963
G0 F18000 X-46.43 Y-0.999
G1 F2400 X-15.273 Y-0.999 E2757.8526
G0 F18000 X-15.209 Y-1.499
G1 F2400 X-46.42 Y-1.499 E2759.79907
G0 F18000 X-46.411 Y-1.999
G1 F2400 X-15.062 Y-1.999 E2761.75402
G0 F18000 X-15.065 Y-1.665
G1 F2400 X-15.056 Y-1.99 E2761.76935
G1 X-14.955 Y-2.578 E2761.80661
G0 F18000 X-14.857 Y-2.499
G1 F2400 X-46.401 Y-2.499 E2763.77384
G0 F18000 X-46.391 Y-2.999
G1 F2400 X-14.652 Y-2.999 E2765.75311
G0 F18000 X-14.647 Y-3.331
G1 F2400 X-14.382 Y-3.331 E2765.76957
G0 F18000 X-14.447 Y-3.499
G1 F2400 X-46.381 Y-3.499 E2767.76113
G0 F18000 X-46.371 Y-3.999
G1 F2400 X-14.091 Y-3.999 E2769.77413
G0 F18000 X-13.888 Y-4.064
G1 F2400 X-14.019 Y-4.29 E2769.79051
G0 F18000 X-13.711 Y-4.499
G1 F2400 X-46.362 Y-4.499 E2771.82678
G0 F18000 X-46.352 Y-4.999
G1 F2400 X-13.331 Y-4.999 E2773.886
G0 F18000 X-13.483 Y-4.997
G1 F2400 X-12.95 Y-5.19 E2773.90521
G1 X-12.847 Y-5.593 E2773.93119
G0 F18000 X-12.774 Y-5.499
G1 F2400 X-46.342 Y-5.499 E2776.02465
G0 F18000 X-46.225 Y-5.999
G1 F2400 X-12.127 Y-5.999 E2778.15103
G0 F18000 X-11.927 Y-5.996
G1 F2400 X-11.556 Y-6.559 E2778.18982
G1 X-11.373 Y-6.37 E2778.20613
G0 F18000 X-11.389 Y-6.499
G1 F2400 X-46.08 Y-6.499 E2780.36962
G0 F18000 X-45.935 Y-6.999
G1 F2400 X-10.182 Y-6.999 E2782.59922
G0 F18000 X-9.943 Y-7.227
G1 F2400 X-9.59 Y-7.062 E2782.61442
G1 X-9.206 Y-7.377 E2782.64539
G0 F18000 X-8.185 Y-7.513
G1 F2400 X-7.697 Y-7.277 E2782.66191
G1 X-7.21 Y-7.503 E2782.69536
G0 F18000 X-6.177 Y-7.368
G1 F2400 X-5.802 Y-7.046 E2782.71436
G1 X-5.459 Y-7.203 E2782.73785
G0 F18000 X-5.277 Y-7
G1 F2400 X30.353 Y-7 E2784.95978
G0 F18000 X30.23 Y-7.5
G1 F2400 X-45.79 Y-7.499 E2789.70059
G0 F18000 X-45.646 Y-7.999
G1 F2400 X30.106 Y-8 E2794.42463
G0 F18000 X29.982 Y-8.5
G1 F2400 X-45.501 Y-8.499 E2799.13196
G0 F18000 X-45.356 Y-8.999
G1 F2400 X29.858 Y-9 E2803.82245
G0 F18000 X29.735 Y-9.5
G1 F2400 X-45.212 Y-9.499 E2808.49635
G0 F18000 X-45.067 Y-9.999
G1 F2400 X29.611 Y-10 E2813.15342
G0 F18000 X29.487 Y-10.5
G1 F2400 X-44.922 Y-10.499 E2817.79377
G0 F18000 X-44.778 Y-10.999
G1 F2400 X29.364 Y-11 E2822.4174
G0 F18000 X29.24 Y-11.5
G1 F2400 X-44.633 Y-11.499 E2827.02433
G0 F18000 X-44.488 Y-11.999
G1 F2400 X29.116 Y-12 E2831.61441
G0 F18000 X28.992 Y-12.5
G1 F2400 X-44.343 Y-12.499 E2836.18778
G0 F18000 X-44.199 Y-12.999
G1 F2400 X28.869 Y-13 E2840.74444
G0 F18000 X28.745 Y-13.5
G1 F2400 X-44.054 Y-13.499 E2845.28439
G0 F18000 X-43.909 Y-13.999
G1 F2400 X28.617 Y-14 E2849.80725
G0 F18000 X28.341 Y-14.5
G1 F2400 X-43.765 Y-14.499 E2854.30398
G0 F18000 X-43.62 Y-14.999
G1 F2400 X28.065 Y-15 E2858.77439
G0 F18000 X27.79 Y-15.5
G1 F2400 X-43.44 Y-15.499 E2863.21649
G0 F18000 X-43.138 Y-15.999
G1 F2400 X27.514 Y-16 E2867.62248
G0 F18000 X27.239 Y-16.5
G1 F2400 X-42.836 Y-16.499 E2871.99255
G0 F18000 X-42.534 Y-16.999
G1 F2400 X26.963 Y-17 E2876.32651
G0 F18000 X26.687 Y-17.5
G1 F2400 X-42.232 Y-17.499 E2880.62449
G0 F18000 X-41.93 Y-17.999
G1 F2400 X26.412 Y-18 E2884.88642
G0 F18000 X26.136 Y-18.5
G1 F2400 X-41.629 Y-18.499 E2889.11243
G0 F18000 X-41.327 Y-18.999
G1 F2400 X25.86 Y-19 E2893.30234
G0 F18000 X25.585 Y-19.5
G1 F2400 X-41.025 Y-19.499 E2897.45632
G0 F18000 X-40.723 Y-19.999
G1 F2400 X25.309 Y-20 E2901.5742
G0 F18000 X25.033 Y-20.5
G1 F2400 X-40.421 Y-20.499 E2905.65609
G0 F18000 X-40.119 Y-20.999
G1 F2400 X24.758 Y-21 E2909.70193
G0 F18000 X24.482 Y-21.5
G1 F2400 X-39.817 Y-21.499 E2913.7118
G0 F18000 X-39.515 Y-21.999
G1 F2400 X24.206 Y-22 E2917.68555
G0 F18000 X23.931 Y-22.5
G1 F2400 X-39.214 Y-22.499 E2921.62345
G0 F18000 X-38.912 Y-22.999
G1 F2400 X23.613 Y-23 E2925.52262
G0 F18000 X23.132 Y-23.5
G1 F2400 X-38.61 Y-23.499 E2929.37302
G0 F18000 X-38.308 Y-23.999
G1 F2400 X22.651 Y-24 E2933.17453
G0 F18000 X22.171 Y-24.5
G1 F2400 X-37.834 Y-24.499 E2936.9166
G0 F18000 X-37.315 Y-24.999
G1 F2400 X21.69 Y-25 E2940.59625
G0 F18000 X21.209 Y-25.5
G1 F2400 X-36.795 Y-25.499 E2944.21354
G0 F18000 X-36.275 Y-25.999
G1 F2400 X20.729 Y-26 E2947.76841
G0 F18000 X20.248 Y-26.5
G1 F2400 X-35.756 Y-26.499 E2951.26097
G0 F18000 X-35.236 Y-26.999
G1 F2400 X19.767 Y-27 E2954.69105
G0 F18000 X19.286 Y-27.5
G1 F2400 X-34.716 Y-27.499 E2958.05876
G0 F18000 X-34.196 Y-27.999
G1 F2400 X18.806 Y-28 E2961.36405
G0 F18000 X18.325 Y-28.5
G1 F2400 X-33.677 Y-28.499 E2964.60704
G0 F18000 X-33.157 Y-28.999
G1 F2400 X17.844 Y-29 E2967.78754
G0 F18000 X17.363 Y-29.5
G1 F2400 X-32.637 Y-29.499 E2970.90567
G0 F18000 X-32.118 Y-29.999
G1 F2400 X16.882 Y-30 E2973.96139
G0 F18000 X16.224 Y-30.5
G1 F2400 X-31.598 Y-30.499 E2976.9437
G0 F18000 X-31.078 Y-30.999
G1 F2400 X15.396 Y-31 E2979.84188
G0 F18000 X14.568 Y-31.5
G1 F2400 X-30.311 Y-31.499 E2982.64066
G0 F18000 X-29.404 Y-32
G1 F2400 X13.74 Y-32 E2985.33118
G0 F18000 X12.912 Y-32.5
G1 F2400 X-28.497 Y-32.5 E2987.91356
G0 F18000 X-27.59 Y-33
G1 F2400 X12.084 Y-33 E2990.38767
G0 F18000 X11.256 Y-33.5
G1 F2400 X-26.683 Y-33.5 E2992.75365
G0 F18000 X-25.776 Y-34
G1 F2400 X10.428 Y-34 E2995.01137
G0 F18000 X9.6 Y-34.5
G1 F2400 X-24.869 Y-34.5 E2997.16096
G0 F18000 X-23.962 Y-35
G1 F2400 X8.772 Y-35 E2999.20228
G0 F18000 X7.944 Y-35.5
G1 F2400 X-23.055 Y-35.5 E3001.13546
G0 F18000 X-22.147 Y-36
G1 F2400 X6.248 Y-36 E3002.90619
G0 F18000 X4.52 Y-36.5
G1 F2400 X-20.357 Y-36.5 E3004.45758
G0 F18000 X-18.332 Y-37
G0 X-18.332 Y-37
G1 F2400 X2.793 Y-37 E3005.77494
G0 F18000 X1.066 Y-37.5
G1 F2400 X-16.307 Y-37.5 E3006.85836
G0 F18000 X-14.282 Y-38
G1 F2400 X-0.66 Y-38 E3007.70781
G0 F18000 X-9.603 Y-38.5
G1 F2400 X-12.256 Y-38.5 E3007.87332
G0 F18000 X-11.306 Y-6.663
G0 X-11.306 Y-6.663
G1 F2400 X-10.666 Y-6.663 E3007.91317
G0 F18000 X-9.717 Y-6.662
G0 X-9.629 Y-6.831
G0 X-7.73 Y-7.081
G0 X-5.83 Y-6.831
G0 X-5.74 Y-6.663
G0 X-4.792 Y-6.664
G0 X-4.792 Y-6.664
G1 F2400 X-4.153 Y-6.664 E3007.95295
G0 F18000 X-4.07 Y-6.5
G1 F2400 X30.477 Y-6.5 E3010.10734
G0 F18000 X30.601 Y-6
G1 F2400 X-3.328 Y-6 E3012.22324
G0 F18000 X-3.406 Y-5.901
G1 F2400 X-3.818 Y-6.509 E3012.26353
G1 X-4.03 Y-6.346 E3012.28022
G0 F18000 X-2.675 Y-5.5
G0 X-2.675 Y-5.5
G1 F2400 X30.724 Y-5.5 E3014.36301
G0 F18000 X30.848 Y-5
G1 F2400 X-2.127 Y-5 E3016.41943
G0 F18000 X-1.974 Y-4.998
G1 F2400 X-2.484 Y-5.172 E3016.43876
G1 X-2.559 Y-5.562 E3016.4636
G0 F18000 X-1.744 Y-4.5
G1 F2400 X30.972 Y-4.5 E3018.5038
G0 F18000 X31.077 Y-4
G1 F2400 X-1.361 Y-4 E3020.52672
G0 F18000 X-1.53 Y-4.013
G1 F2400 X-1.397 Y-4.244 E3020.54337
G0 F18000 X-1.018 Y-3.5
G1 F2400 X31.067 Y-3.5 E3022.54421
G0 F18000 X31.057 Y-3
G1 F2400 X-0.809 Y-3 E3024.53147
G0 F18000 X-0.818 Y-3.332
G1 F2400 X-1.076 Y-3.332 E3024.54762
G0 F18000 X-0.6 Y-2.5
G1 F2400 X31.047 Y-2.5 E3026.52115
G0 F18000 X31.037 Y-2
G1 F2400 X-0.391 Y-2 E3028.48109
G0 F18000 X-0.394 Y-1.666
G1 F2400 X-0.159 Y-1.666 E3028.49568
G0 F18000 X-0.256 Y-1.5
G1 F2400 X31.028 Y-1.5 E3030.44657
G0 F18000 X31.018 Y-1
G1 F2400 X-0.189 Y-1 E3032.39273
G0 F18000 X-0.121 Y-0.5
G1 F2400 X31.008 Y-0.5 E3034.33396
G0 F18000 X30.998 Y0
G1 F2400 X-0.054 Y0 E3036.27044
G0 F18000 X0.067 Y0
G1 F2400 X-0.061 Y-0.047 E3036.2857
G1 X-0.028 Y0.201 E3036.31046
G1 X-0.228 Y-0.395 E3036.34968
G0 F18000 X-0.057 Y0.5
G1 F2400 X30.988 Y0.499 E3038.28567
G0 F18000 X30.979 Y0.999
G1 F2400 X-0.121 Y1 E3040.22515
G0 F18000 X-0.184 Y1.5
G1 F2400 X30.969 Y1.499 E3042.16788
G0 F18000 X30.959 Y1.999
G1 F2400 X-0.248 Y2 E3044.11403
G0 F18000 X-0.326 Y1.666
G1 F2400 X-0.084 Y1.666 E3044.12906
G0 F18000 X-0.389 Y2.5
G1 F2400 X30.949 Y2.499 E3046.08332
G0 F18000 X30.939 Y2.999
G1 F2400 X-0.593 Y3 E3048.04975
G0 F18000 X-0.598 Y3.332
G1 F2400 X-0.859 Y3.332 E3048.06608
G0 F18000 X-0.797 Y3.5
G1 F2400 X30.929 Y3.499 E3050.04454
G0 F18000 X30.92 Y3.999
G1 F2400 X-1.002 Y4 E3052.03529
G0 F18000 X-0.35 Y2.724
G1 F2400 X-0.5 Y2.465 E3052.05398
G0 F18000 X-0.545 Y0.725
G0 X-0.387 Y0.26
G0 X-0.568 Y-0.115
G0 X-0.626 Y-2.247
G0 X-0.626 Y-2.247
G1 F2400 X-0.475 Y-2.508 E3052.07281
G1 F6600 E3045.27281
G1 Z1.8
G0 F18000 X-0.917 Y-2.324
G0 X-1.37 Y-3.409
G0 X-2.537 Y-4.931
G0 X-4.059 Y-6.098
G0 X-5.83 Y-6.831
G0 X-7.73 Y-7.081
G0 X-9.629 Y-6.831
G0 X-11.4 Y-6.098
G0 X-12.922 Y-4.931
G0 X-14.089 Y-3.41
G0 X-14.823 Y-1.639
G0 X-15.073 Y0.26
G0 X-14.823 Y2.16
G0 X-14.376 Y3.24
G0 X-14.599 Y3.332
G0 X-14.599 Y3.332
G1 Z1.5
G1 F6600 E3052.17281
G1 F2400 X-14.858 Y3.332 E3052.18902
; LAYER:5
G0 F18000 X-14.441 Y4.175 Z1.8
; TYPE:WALL-OUTER
G1 F1449 X-15.227 Y2.299 E3052.3159
G1 X-15.5 Y0.289 E3052.4424
G1 X-15.242 Y-1.722 E3052.56883
G1 X-14.473 Y-3.597 E3052.69525
G1 X-13.246 Y-5.21 E3052.82165
G1 X-11.616 Y-6.471 E3052.95016
G1 X-9.742 Y-7.247 E3053.07662
G1 X-7.73 Y-7.512 E3053.20312
G1 X-5.717 Y-7.247 E3053.32967
G1 X-3.841 Y-6.47 E3053.45622
G1 X-2.233 Y-5.236 E3053.58254
G1 X-1.017 Y-3.651 E3053.70703
G1 X-0.235 Y-1.779 E3053.83347
G1 X0.038 Y0.231 E3053.9599
G1 X-0.219 Y2.243 E3054.08639
G1 X-0.986 Y4.119 E3054.21281
G1 X-2.214 Y5.731 E3054.33922
G1 X-3.844 Y6.992 E3054.46779
G1 X-5.717 Y7.768 E3054.59428
G1 X-7.73 Y8.033 E3054.72096
G1 X-9.742 Y7.768 E3054.84758
G1 X-11.619 Y6.991 E3054.97433
G1 X-13.227 Y5.757 E3055.10078
G1 X-14.441 Y4.175 E3055.22518
G0 F18000 X-13.697 Y3.705
G1 F1449 X-12.602 Y5.132 E3055.33731
G1 X-11.175 Y6.227 E3055.44944
G1 X-9.513 Y6.916 E3055.56158
G1 X-7.73 Y7.151 E3055.67367
G1 X-5.946 Y6.916 E3055.78583
G1 X-4.284 Y6.227 E3055.89797
G1 X-2.857 Y5.132 E3056.01009
G1 X-1.762 Y3.705 E3056.12223
G1 X-1.073 Y2.043 E3056.2344
G1 X-0.839 Y0.26 E3056.34654
G1 X-1.073 Y-1.522 E3056.45863
G1 X-1.762 Y-3.184 E3056.57092
G1 X-2.857 Y-4.611 E3056.68317
G1 X-4.284 Y-5.706 E3056.79543
G1 X-5.946 Y-6.395 E3056.90772
G1 X-7.73 Y-6.629 E3057.01999
G1 X-9.513 Y-6.395 E3057.13219
G1 X-11.175 Y-5.706 E3057.24443
G1 X-12.602 Y-4.611 E3057.35661
G1 X-13.697 Y-3.184 E3057.46877
G1 X-14.387 Y-1.522 E3057.58096
G1 X-14.621 Y0.26 E3057.693
G1 X-14.387 Y2.043 E3057.80513
G1 X-13.697 Y3.705 E3057.91733
G0 F18000 X-13.708 Y4
; TYPE:FILL
G1 F1656 X-14.05 Y4.063 E3057.94656
G1 X-13.925 Y4.429 E3057.96319
G1 X-13.291 Y4.749 E3057.99239
G1 X-13.489 Y4.999 E3058.01179
G1 X-12.983 Y5.25 E3058.04098
G1 X-12.62 Y5.513 E3058.07804
G1 X-12.661 Y5.871 E3058.09355
G1 X-11.746 Y6.183 E3058.13162
G1 X-11.513 Y6.813 E3058.16729
G1 X-11.371 Y6.606 E3058.18285
G1 X-11.735 Y6.582 E3058.21182
G1 X-10.889 Y6.75 E3058.25727
G1 X-9.871 Y7.108 E3058.31738
G1 X-10.06 Y7.429 E3058.34064
G0 F18000 X-9.357 Y7.5
G1 F1656 X-6.094 Y7.5 E3058.54407
G0 F18000 X-6.191 Y7.392
G1 F1656 X-6.705 Y7.705 E3058.56316
G1 X-7.697 Y7.528 E3058.57952
G1 X-8.684 Y7.714 E3058.59594
G1 X-9.193 Y7.401 E3058.63326
G0 F18000 X-8.446 Y7.348
G0 X-7.73 Y7.603
G0 X-5.829 Y7.352
G0 X-5.705 Y7.155
G0 X-5.591 Y7.147
G0 X-5.591 Y7.147
G0 X-5.651 Y7
G1 F1656 X-4.567 Y6.75 E3058.69329
G1 X-3.724 Y6.582 E3058.73869
G1 X-4.064 Y6.744 E3058.76732
G1 X-3.649 Y6.136 E3058.80714
G1 X-3.046 Y5.75 E3058.84514
G1 X-2.516 Y5.495 E3058.88212
G1 X-2.498 Y5.348 E3058.89711
G1 X-2.123 Y4.999 E3058.92627
G1 X-1.779 Y4.749 E3058.94533
G1 X-1.941 Y4.25 E3058.97453
G1 X-1.388 Y4.038 E3059.00366
G1 X-1.417 Y3.9 E3059.01983
G1 X-1.1 Y3.416 E3059.04477
G1 X-0.865 Y3.166 E3059.06113
G1 X-1.159 Y2.75 E3059.08607
G1 X-0.582 Y2.475 E3059.1109
G1 X-0.58 Y2.095 E3059.12953
G1 X-0.726 Y1.833 E3059.15276
G1 X-0.385 Y1.583 E3059.16787
G1 X-0.775 Y1.25 E3059.19106
G1 X-0.418 Y0.904 E3059.21434
G1 X-0.231 Y0.386 E3059.25278
G1 X-0.68 Y0.25 E3059.27606
G1 X-0.368 Y0 E3059.2993
G1 X-0.213 Y-0.21 E3059.31453
G1 X-0.497 Y-0.981 E3059.35354
G1 X-0.844 Y-1.25 E3059.37672
G1 X-0.458 Y-1.583 E3059.39992
G1 X-0.719 Y-1.819 E3059.41513
G1 X-0.648 Y-2.117 E3059.43393
G1 X-0.968 Y-2.25 E3059.45892
G1 X-1.175 Y-2.75 E3059.48389
G1 X-1.412 Y-3.166 E3059.5088
G1 X-1.193 Y-3.416 E3059.52485
G1 X-1.715 Y-3.639 E3059.55401
G1 X-1.606 Y-4.004 E3059.57053
G1 X-2.106 Y-4.25 E3059.59972
G1 X-2.49 Y-4.75 E3059.62888
G1 X-2.931 Y-5.064 E3059.66665
G1 X-2.661 Y-5.17 E3059.68207
G1 X-2.684 Y-5.167 E3059.70391
G1 X-3.575 Y-5.947 E3059.74398
G1 X-4.327 Y-6.064 E3059.79075
G1 X-4.384 Y-6.421 E3059.80622
G1 X-5.705 Y-6.636 E3059.86637
G1 X-5.725 Y-6.907 E3059.88182
G1 X-6.019 Y-7.094 E3059.90363
G0 F18000 X-6.255 Y-7
G1 F1656 X-9.204 Y-6.999 E3060.0876
G0 F18000 X-9.365 Y-7.103
G1 F1656 X-9.606 Y-6.816 E3060.10672
G1 X-9.915 Y-6.836 E3060.12206
G1 X-10.686 Y-6.581 E3060.1618
G1 X-9.757 Y-6.499 E3060.21989
G0 F18000 X-10.961 Y-5.999
G1 F1656 X-11.823 Y-5.99 E3060.26672
G1 X-12.308 Y-5.465 E3060.30629
G1 X-12.08 Y-5.249 E3060.34439
G1 X-13.089 Y-4.998 E3060.38203
G1 X-12.71 Y-5.081 E3060.40371
G1 X-12.823 Y-4.936 E3060.41879
G1 X-13.351 Y-4.249 E3060.44796
G1 X-13.83 Y-4.027 E3060.47716
G1 X-13.722 Y-3.664 E3060.49345
G1 X-14.136 Y-3.415 E3060.52263
G1 X-14.378 Y-3.165 E3060.53916
G1 X-14.083 Y-2.749 E3060.56409
G1 X-14.692 Y-2.402 E3060.58902
G1 X-14.72 Y-2.021 E3060.60785
G1 X-14.599 Y-1.832 E3060.63277
G1 X-15.006 Y-1.582 E3060.64863
G1 X-14.615 Y-1.249 E3060.67182
G1 X-14.972 Y-0.902 E3060.69504
G1 X-15.254 Y-0.132 E3060.73398
G1 X-15.091 Y0 E3060.74903
G1 X-14.78 Y0.25 E3060.77227
G1 X-15.083 Y0.576 E3060.79557
G1 X-15.189 Y-0.166 E3060.83044
G1 X-14.713 Y-0.499 E3060.86666
G0 F18000 X-14.716 Y1
G1 F1656 X-15.055 Y1.25 E3060.88987
G1 X-14.765 Y1.583 E3060.91313
G1 X-15.039 Y1.833 E3060.92815
G1 X-14.678 Y2.131 E3060.95135
G1 X-14.863 Y2.513 E3060.97032
G1 X-14.499 Y2.75 E3060.99525
G1 X-14.261 Y3.166 E3061.02021
G1 X-14.487 Y3.416 E3061.03638
G1 X-13.987 Y3.5 E3061.06794
G0 F18000 X-14.136 Y3.561
G0 X-14.189 Y3.537
G0 X-14.089 Y3.931
G0 X-12.922 Y5.452
G0 X-11.4 Y6.619
G0 X-9.63 Y7.352
G0 X-8.973 Y7.441
G0 X-7.73 Y7.603
G0 X-5.829 Y7.352
G0 X-5.526 Y7.166
G0 X-5.465 Y7.193
G0 X-5.465 Y7.193
G1 F1656 X-5.342 Y7.406 E3061.08325
G0 F18000 X-5.402 Y7.259
G0 X-3.934 Y6.512
G0 X-3.934 Y6.512
G1 F1656 X-3.812 Y6.725 E3061.09852
G0 F18000 X-3.909 Y6.599
G0 X-3.743 Y6.244
G0 X-2.537 Y5.452
G0 X-1.37 Y3.93
G0 X-0.637 Y2.159
G0 X-0.387 Y0.26
G0 X-0.582 Y-0.53
G0 X-0.588 Y-0.519
G0 X-0.588 Y-0.519
G0 X-0.746 Y-0.499
G1 F1656 X-0.374 Y-0.5 E3061.12166
G0 F18000 X-0.69 Y-1.083
G0 X-0.637 Y-1.638
G0 X-1.37 Y-3.409
G0 X-2.874 Y-5.098
G0 X-3.094 Y-5.5
G0 X-3.094 Y-5.5
G1 F1656 X-3.705 Y-5.5 E3061.15983
G0 F18000 X-3.607 Y-5.627
G0 X-3.684 Y-5.681
G0 X-4.011 Y-5.911
G0 X-4.868 Y-6.517
G0 X-4.868 Y-6.517
G0 X-4.806 Y-6.664
G1 F1656 X-5.445 Y-6.664 E3061.19974
G0 F18000 X-7.367 Y-7.111
G0 X-7.367 Y-7.111
G0 X-7.345 Y-7.269
G1 F1656 X-7.697 Y-7.043 E3061.21624
G1 X-8.05 Y-7.279 E3061.2428
G0 F18000 X-8.029 Y-7.119
G0 X-9.258 Y-6.748
G0 X-9.629 Y-6.831
G0 X-9.854 Y-6.569
G0 X-11.246 Y-6.151
G0 X-11.246 Y-6.151
G1 F1656 X-11.37 Y-6.365 E3061.25831
G1 F6600 E3054.45831
G1 Z2.1
G0 F18000 X17.571 Y-29.558
; TYPE:WALL-INNER
G1 Z1.8
G1 F6600 E3061.35831
G1 F1656 X23.867 Y-23.009 E3061.92481
G1 X23.885 Y-22.976 E3061.9271
G1 X17.571 Y-29.558 E3062.49594
G0 F18000 X17.714 Y-29.162
G0 X23.843 Y-22.945
G0 X28.771 Y-13.994
G0 X31.217 Y-4.087
G0 X31.01 Y6.162
G0 X30.784 Y6.653
G0 X30.861 Y6.862
G0 X30.861 Y6.862
G1 F1656 X28.223 Y15.986 E3063.08824
G1 X28.202 Y16.021 E3063.09079
G1 X30.861 Y6.862 E3063.68555
G1 F6600 E3056.88555
G1 Z2.1
G0 F18000 X30.646 Y7.064
G0 X28.154 Y16
G0 X22.884 Y24.725
G0 X15.508 Y31.816
G0 X6.549 Y36.756
G0 X-3.151 Y39.048
G0 X-3.375 Y39.261
G0 X-3.375 Y39.261
G1 Z1.8
G1 F6600 E3063.78555
G1 F1656 X-13.62 Y39.059 E3064.42465
G1 X-13.631 Y39.055 E3064.42543
G1 X-3.375 Y39.261 E3065.06509
G0 F18000 X-3.792 Y39.077
G0 X-13.622 Y39.003
G0 X-23.438 Y36.165
G0 X-32.195 Y30.876
G0 X-38.893 Y23.719
G0 X-39.329 Y23.53
G0 X-39.329 Y23.53
G1 F1656 X-44.283 Y14.525 E3065.70607
G1 X-39.347 Y23.498 E3066.3447
G1 X-39.329 Y23.53 E3066.34696
G0 F18000 X-39.734 Y23.832
; TYPE:WALL-OUTER
G1 F1449 X-44.744 Y14.744 E3066.99416
G1 X-47.232 Y4.669 E3067.64135
G1 X-47.028 Y-5.703 E3068.2883
G1 X-44.145 Y-15.669 E3068.93534
G1 X-38.791 Y-24.536 E3069.58131
G1 X-31.302 Y-31.742 E3070.22944
G1 X-22.212 Y-36.754 E3070.87675
G1 X-12.139 Y-39.24 E3071.52373
G1 X-1.765 Y-39.037 E3072.17075
G1 X8.199 Y-36.154 E3072.81754
G1 X17.082 Y-30.789 E3073.46467
G1 X24.272 Y-23.311 E3074.11157
G1 X29.27 Y-14.245 E3074.75712
G1 X31.77 Y-4.148 E3075.40575
G1 X31.566 Y6.224 E3076.05264
G1 X28.684 Y16.19 E3076.69961
G1 X23.319 Y25.074 E3077.34683
G1 X15.841 Y32.263 E3077.99373
G1 X6.752 Y37.274 E3078.64098
G1 X-3.32 Y39.762 E3079.28798
G1 X-13.694 Y39.558 E3079.93512
G1 X-23.66 Y36.675 E3080.58217
G1 X-32.544 Y31.311 E3081.2294
G1 X-39.734 Y23.832 E3081.87643
G0 F18000 X-38.94 Y23.199
G1 F1449 X-31.914 Y30.523 E3082.50932
G1 X-23.257 Y35.751 E3083.13995
G1 X-13.555 Y38.556 E3083.76971
G1 X-3.431 Y38.76 E3084.40114
G1 X6.385 Y36.335 E3085.03164
G1 X15.241 Y31.452 E3085.66231
G1 X22.531 Y24.443 E3086.29298
G1 X27.74 Y15.819 E3086.92129
G1 X30.563 Y6.094 E3087.5528
G1 X30.769 Y-4.037 E3088.18473
G1 X28.35 Y-13.83 E3088.81386
G1 X23.479 Y-22.677 E3089.44374
G1 X16.479 Y-29.975 E3090.07442
G1 X7.796 Y-35.23 E3090.70739
G1 X-1.917 Y-38.039 E3091.33796
G1 X-12.028 Y-38.239 E3091.9687
G1 X-21.846 Y-35.814 E3092.59942
G1 X-30.703 Y-30.931 E3093.23017
G1 X-37.981 Y-23.934 E3093.85978
G1 X-43.202 Y-15.298 E3094.4891
G1 X-46.02 Y-5.587 E3095.11965
G1 X-46.23 Y4.558 E3095.75239
G1 X-43.815 Y14.339 E3096.38066
G1 X-38.94 Y23.199 E3097.01128
G0 F18000 X-38.913 Y23.5
; TYPE:FILL
G1 F1656 X-39.481 Y23.5 E3097.0418
G1 X-39.768 Y23.25 E3097.05046
G1 X-40.043 Y22.75 E3097.05908
G1 X-40.319 Y22.25 E3097.0677
G1 X-40.594 Y21.75 E3097.07632
G1 X-40.869 Y21.25 E3097.08501
G1 X-41.145 Y20.75 E3097.09378
G1 X-41.42 Y20.25 E3097.10254
G1 X-41.695 Y19.75 E3097.11138
G1 X-41.97 Y19.25 E3097.12021
G1 X-42.246 Y18.75 E3097.12912
G1 X-42.521 Y18.25 E3097.1381
G1 X-42.796 Y17.75 E3097.14707
G1 X-43.072 Y17.25 E3097.15606
G1 X-43.347 Y16.75 E3097.16503
G1 X-43.623 Y16.25 E3097.17401
G1 X-43.898 Y15.75 E3097.18306
G1 X-44.173 Y15.25 E3097.19211
G1 X-44.496 Y14.75 E3097.20125
G1 X-44.108 Y14.25 E3097.232
G1 X-44.793 Y13.75 E3097.27118
G1 X-44.286 Y13.25 E3097.31048
G1 X-45.04 Y12.75 E3097.34979
G1 X-44.532 Y12.25 E3097.38913
G1 X-45.287 Y11.75 E3097.42847
G1 X-44.778 Y11.25 E3097.46786
G1 X-45.533 Y10.75 E3097.5072
G1 X-45.025 Y10.25 E3097.54654
G1 X-45.78 Y9.75 E3097.58588
G1 X-45.271 Y9.25 E3097.62527
G1 X-46.027 Y8.75 E3097.66465
G1 X-45.517 Y8.25 E3097.70407
G1 X-46.274 Y7.75 E3097.7436
G1 X-45.763 Y7.25 E3097.78306
G1 X-46.521 Y6.75 E3097.82262
G1 X-46.009 Y6.25 E3097.86221
G1 X-46.768 Y5.75 E3097.90181
G1 X-46.256 Y5.25 E3097.9414
G1 X-46.996 Y4.75 E3097.9811
G1 X-46.414 Y4.25 E3098.01972
G1 X-47.023 Y3.75 E3098.05828
G1 X-46.393 Y3.25 E3098.09697
G1 X-47.004 Y2.75 E3098.1357
G1 X-46.372 Y2.25 E3098.17436
G1 X-46.984 Y1.75 E3098.21314
G1 X-46.352 Y1.25 E3098.2519
G1 X-46.965 Y0.75 E3098.29071
G1 X-46.331 Y0.25 E3098.32965
G1 X-46.945 Y-0.249 E3098.36857
G1 X-46.31 Y-0.749 E3098.40747
G1 X-46.925 Y-1.249 E3098.44639
G1 X-46.289 Y-1.749 E3098.48543
G1 X-46.906 Y-2.249 E3098.52453
G1 X-46.268 Y-2.749 E3098.56365
G1 X-46.886 Y-3.249 E3098.60278
G1 X-46.248 Y-3.749 E3098.642
G1 X-46.867 Y-4.249 E3098.68117
G1 X-46.227 Y-4.749 E3098.72047
G1 X-46.847 Y-5.249 E3098.75978
G1 X-46.154 Y-5.749 E3098.79909
G1 X-46.672 Y-6.249 E3098.83949
G1 X-45.879 Y-6.749 E3098.87982
G1 X-46.383 Y-7.249 E3098.92028
G1 X-45.589 Y-7.749 E3098.96064
G1 X-46.093 Y-8.249 E3099.0011
G1 X-45.299 Y-8.749 E3099.04146
G1 X-45.804 Y-9.249 E3099.08205
G1 X-45.008 Y-9.749 E3099.1226
G1 X-45.514 Y-10.249 E3099.16323
G1 X-44.718 Y-10.749 E3099.20378
G1 X-45.225 Y-11.249 E3099.24445
G1 X-44.428 Y-11.749 E3099.28504
G1 X-44.936 Y-12.249 E3099.32566
G1 X-44.138 Y-12.749 E3099.36628
G1 X-44.646 Y-13.249 E3099.40699
G1 X-43.848 Y-13.749 E3099.44762
G1 X-44.357 Y-14.249 E3099.48837
G1 X-43.557 Y-14.749 E3099.52918
G1 X-44.067 Y-15.249 E3099.57006
G1 X-43.15 Y-15.749 E3099.61317
G1 X-43.571 Y-16.249 E3099.65818
G1 X-42.546 Y-16.749 E3099.70326
G1 X-42.967 Y-17.249 E3099.74827
G1 X-41.941 Y-17.749 E3099.79338
G1 X-42.364 Y-18.249 E3099.83857
G1 X-41.337 Y-18.749 E3099.88371
G1 X-41.76 Y-19.249 E3099.9289
G1 X-40.732 Y-19.749 E3099.97408
G1 X-41.156 Y-20.249 E3100.0194
G1 X-40.128 Y-20.749 E3100.06472
G1 X-40.553 Y-21.249 E3100.11008
G1 X-39.523 Y-21.749 E3100.15533
G1 X-39.949 Y-22.249 E3100.20073
G1 X-38.919 Y-22.749 E3100.24612
G1 X-39.345 Y-23.249 E3100.29153
G1 X-38.314 Y-23.749 E3100.33696
G1 X-38.724 Y-24.249 E3100.38246
G1 X-37.85 Y-24.749 E3100.43782
G1 X-37.33 Y-25.249 E3100.49325
G1 X-36.811 Y-25.749 E3100.5487
G1 X-36.291 Y-26.249 E3100.60422
G1 X-35.77 Y-26.749 E3100.65979
G1 X-35.251 Y-27.249 E3100.71533
G1 X-34.731 Y-27.749 E3100.77094
G1 X-34.211 Y-28.249 E3100.82654
G1 X-33.691 Y-28.749 E3100.88214
G1 X-33.171 Y-29.249 E3100.93783
G1 X-32.651 Y-29.749 E3100.99353
G1 X-32.132 Y-30.249 E3101.04925
G1 X-31.612 Y-30.749 E3101.10495
G1 X-30.904 Y-30.999 E3101.15173
G0 F18000 X-31.279 Y-31.499
G1 F1656 X-30.063 Y-31.499 E3101.2275
G0 F18000 X-30.44 Y-31.999
G1 F1656 X-29.156 Y-32 E3101.30752
G0 F18000 X-29.533 Y-32.5
G1 F1656 X-28.249 Y-32.5 E3101.38753
G0 F18000 X-28.626 Y-33
G1 F1656 X-27.342 Y-33 E3101.46754
G0 F18000 X-27.719 Y-33.5
G1 F1656 X-26.435 Y-33.5 E3101.54755
G0 F18000 X-26.812 Y-34
G1 F1656 X-25.528 Y-34 E3101.62756
G0 F18000 X-25.905 Y-34.5
G1 F1656 X-24.622 Y-34.5 E3101.70751
G0 F18000 X-24.998 Y-35
G1 F1656 X-23.715 Y-35 E3101.78746
G0 F18000 X-24.091 Y-35.5
G1 F1656 X-22.808 Y-35.5 E3101.86741
G0 F18000 X-23.184 Y-36
G1 F1656 X-21.888 Y-36 E3101.94817
G0 F18000 X-22.277 Y-36.5
G1 F1656 X-19.863 Y-36.5 E3102.09865
G0 F18000 X-20.419 Y-37
G1 F1656 X-17.839 Y-37 E3102.25948
G0 F18000 X-18.393 Y-37.5
G1 F1656 X-15.815 Y-37.5 E3102.42019
G0 F18000 X-16.367 Y-38
G1 F1656 X-13.791 Y-38 E3102.58078
G0 F18000 X-14.341 Y-38.5
G1 F1656 X-0.59 Y-38.5 E3103.43826
G0 F18000 X-1.101 Y-38
G1 F1656 X1.136 Y-38 E3103.57771
G0 F18000 X0.627 Y-37.5
G1 F1656 X2.863 Y-37.5 E3103.71715
G0 F18000 X2.356 Y-37
G1 F1656 X4.59 Y-37 E3103.85647
G0 F18000 X4.085 Y-36.5
G1 F1656 X6.317 Y-36.5 E3103.99566
G0 F18000 X5.813 Y-36
G1 F1656 X8.044 Y-36 E3104.13479
G0 F18000 X7.542 Y-35.5
G1 F1656 X8.912 Y-35.5 E3104.22023
G0 F18000 X8.542 Y-35
G1 F1656 X9.74 Y-35 E3104.29494
G0 F18000 X9.368 Y-34.5
G1 F1656 X10.568 Y-34.5 E3104.36978
G0 F18000 X10.194 Y-34
G1 F1656 X11.396 Y-34 E3104.44474
G0 F18000 X11.021 Y-33.5
G1 F1656 X12.224 Y-33.5 E3104.51976
G0 F18000 X11.847 Y-33
G1 F1656 X13.052 Y-33 E3104.59491
G0 F18000 X12.673 Y-32.5
G1 F1656 X13.88 Y-32.5 E3104.67018
G0 F18000 X13.5 Y-32
G1 F1656 X14.708 Y-32 E3104.74551
G0 F18000 X14.326 Y-31.5
G1 F1656 X15.536 Y-31.5 E3104.82097
G0 F18000 X15.153 Y-31
G1 F1656 X16.364 Y-31 E3104.89649
G0 F18000 X15.979 Y-30.5
G1 F1656 X17.096 Y-30.5 E3104.96615
G0 F18000 X16.718 Y-30
G1 F1656 X17.732 Y-29.75 E3105.01955
G1 X18.214 Y-29.25 E3105.03002
G1 X18.695 Y-28.75 E3105.04048
G1 X19.175 Y-28.25 E3105.05101
G1 X19.656 Y-27.75 E3105.06156
G1 X20.137 Y-27.25 E3105.07202
G1 X20.617 Y-26.75 E3105.08255
G1 X21.098 Y-26.25 E3105.0931
G1 X21.579 Y-25.75 E3105.10365
G1 X22.06 Y-25.25 E3105.11411
G1 X22.54 Y-24.75 E3105.12464
G1 X23.021 Y-24.25 E3105.13519
G1 X23.502 Y-23.75 E3105.14573
G1 X23.958 Y-23.25 E3105.15627
G1 X24.364 Y-22.75 E3105.16494
G1 X23.93 Y-22.25 E3105.20915
G1 X24.915 Y-21.75 E3105.25336
G1 X24.481 Y-21.25 E3105.29765
G1 X25.467 Y-20.75 E3105.3419
G1 X25.031 Y-20.25 E3105.38628
G1 X26.018 Y-19.75 E3105.43056
G1 X25.582 Y-19.25 E3105.47494
G1 X26.569 Y-18.75 E3105.51922
G1 X26.132 Y-18.25 E3105.56356
G1 X27.12 Y-17.75 E3105.60788
G1 X26.683 Y-17.25 E3105.65222
G1 X27.671 Y-16.75 E3105.69654
G1 X27.234 Y-16.25 E3105.74097
G1 X28.222 Y-15.75 E3105.78542
G1 X27.784 Y-15.25 E3105.82989
G1 X28.773 Y-14.75 E3105.87438
G1 X28.335 Y-14.25 E3105.91893
G1 X29.196 Y-13.75 E3105.96014
G1 X28.689 Y-13.25 E3105.99945
G1 X29.443 Y-12.75 E3106.0388
G1 X28.936 Y-12.25 E3106.07811
G1 X29.691 Y-11.75 E3106.11739
G1 X29.183 Y-11.25 E3106.15673
G1 X29.939 Y-10.75 E3106.19617
G1 X29.43 Y-10.25 E3106.23555
G1 X30.186 Y-9.75 E3106.27498
G1 X29.677 Y-9.25 E3106.31436
G1 X30.434 Y-8.75 E3106.35383
G1 X29.924 Y-8.25 E3106.39326
G1 X30.681 Y-7.75 E3106.43272
G1 X30.171 Y-7.25 E3106.47215
G1 X30.929 Y-6.75 E3106.51165
G1 X30.419 Y-6.25 E3106.55116
G1 X31.177 Y-5.75 E3106.59066
G1 X30.666 Y-5.25 E3106.63022
G1 X31.424 Y-4.75 E3106.66972
G1 X30.905 Y-4.25 E3106.70932
G1 X31.572 Y-3.75 E3106.74776
G1 X30.943 Y-3.25 E3106.78632
G1 X31.552 Y-2.75 E3106.82491
G1 X30.923 Y-2.25 E3106.86346
G1 X31.532 Y-1.75 E3106.90206
G1 X30.902 Y-1.25 E3106.94075
G1 X31.513 Y-0.75 E3106.97952
G1 X30.882 Y-0.25 E3107.01825
G1 X31.493 Y0.249 E3107.05698
G1 X30.862 Y0.749 E3107.09564
G1 X31.474 Y1.249 E3107.13438
